; generated by PrusaSlicer 2.7.4+win64 on 2024-04-12 at 08:07:26 UTC


;
;
; 

; external perimeters extrusion width = 0.45mm
; perimeters extrusion width = 0.45mm
; infill extrusion width = 0.45mm
; solid infill extrusion width = 0.45mm
; top infill extrusion width = 0.40mm
; first layer extrusion width = 0.42mm

M73 P0 R28
M73 Q0 S29
M201 X1000 Y1000 Z200 E5000 ; sets maximum accelerations, mm/sec^2
M203 X200 Y200 Z12 E120 ; sets maximum feedrates, mm / sec
M204 S1250 T1250 ; sets acceleration (S) and retract acceleration (R), mm/sec^2
M205 X8.00 Y8.00 Z0.40 E4.50 ; sets the jerk limits, mm/sec
M205 S0 T0 ; sets the minimum extruding and travel feed rate, mm/sec

; printing object bumper id:0 copy 0
; stop printing object bumper id:0 copy 0

;TYPE:Custom
M862.3 P "MK3S" ; printer model check
M862.1 P0.4 ; nozzle diameter check
M115 U3.13.3 ; tell printer latest fw version
G90 ; use absolute coordinates
M83 ; extruder relative mode
M104 S230 ; set extruder temp
M140 S60 ; set bed temp
M190 S60 ; wait for bed temp
M109 S230 ; wait for extruder temp
G28 W ; home all without mesh bed level
G80 X62.429 Y78.2961 W125.142 H53.512 ; mesh bed levelling

G1 Z0.2 F720
G1 Y-3 F1000 ; go outside print area
G92 E0
G1 X60 E9 F1000 ; intro line
G1 X100 E12.5 F1000 ; intro line

G92 E0
M221 S95

; Don't change E values below. Excessive value can damage the printer.
M907 E430 ; set extruder motor current
G21 ; set units to millimeters
G90 ; use absolute coordinates
M83 ; use relative distances for extrusion
M900 K0 ; Filament gcode
M107
;LAYER_CHANGE
;Z:0.2
;HEIGHT:0.2
G1 E-1.2 F2100
M73 Q0 S28
G1 Z.2 F720
G1 X66.99 Y81 F10800
G1 Z.2 F720
G1 E1.2 F1200
M204 S800
;TYPE:Skirt/Brim
;WIDTH:0.42
G1 F1193.382
G1 X67.852 Y80.286 E.03931
G1 X68.787 Y79.699 E.03877
G1 X69.669 Y79.269 E.03446
G1 X70.903 Y78.837 E.04591
G1 X71.861 Y78.623 E.03447
G1 X73.551 Y78.485 E.05954
G1 X176.452 Y78.485 E3.61356
G1 X177.807 Y78.573 E.04768
G1 X178.994 Y78.809 E.0425
G1 X180.331 Y79.269 E.04965
G1 X181.504 Y79.867 E.04624
G1 X182.578 Y80.611 E.04588
G1 X183.32 Y81.267 E.03478
G1 X185.804 Y83.75 E.12334
G1 X186.319 Y84.521 E.03256
G1 X187.096 Y86.395 E.07124
G1 X187.276 Y87.231 E.03003
G1 X187.374 Y90.422 E.11211
G1 X187.358 Y96.671 E.21945
G1 X187.152 Y98.078 E.04994
G1 X186.624 Y99.681 E.05927
G1 X185.89 Y101.012 E.05338
G1 X184.787 Y102.36 E.06116
G1 X158.002 Y129.155 E1.33046
G1 X156.727 Y130.159 E.05699
G1 X155.612 Y130.784 E.04489
G1 X154.363 Y131.253 E.04685
G1 X153.238 Y131.5 E.04045
G1 X151.688 Y131.62 E.05459
G1 X98.285 Y131.619 E1.87534
G1 X96.333 Y131.425 E.06889
M73 P1 R28
M73 Q1 S28
G1 X94.923 Y131.013 E.05159
G1 X93.421 Y130.256 E.05907
G1 X91.999 Y129.155 E.06315
G1 X65.172 Y102.318 E1.33255
G1 X64.115 Y101.02 E.05878
G1 X63.454 Y99.849 E.04722
G1 X62.984 Y98.6 E.04686
G1 X62.738 Y97.475 E.04044
G1 X62.618 Y95.925 E.05459
G1 X62.625 Y90.492 E.19079
G1 X62.724 Y87.231 E.11457
G1 X62.904 Y86.395 E.03003
G1 X63.681 Y84.521 E.07124
G1 X64.196 Y83.75 E.03256
G1 X66.762 Y81.188 E.12734
G1 X66.943 Y81.038 E.00826
M204 S1000
G1 E-1.2 F2100
G1 X66.943 Y81.038 F10800
G1 X68.794 Y82.933
G1 E1.2 F1200
M204 S800
G1 F1193.382
G1 X70.125 Y82.004 E.057
G1 X71.269 Y81.51 E.04376
G1 X72.453 Y81.226 E.04276
G1 X73.367 Y81.152 E.0322
G1 X74.277 Y81.192 E.03199
G1 X75.407 Y81.41 E.04041
G1 X76.765 Y81.946 E.05127
G1 X77.681 Y82.514 E.03785
G1 X78.5 Y83.216 E.03788
G1 X79.096 Y83.887 E.03152
G1 X79.597 Y84.624 E.03129
G1 X80.108 Y85.675 E.04104
G1 X80.446 Y86.824 E.04206
G1 X80.574 Y87.822 E.03533
G1 X80.564 Y88.81 E.0347
G1 X80.416 Y89.785 E.03463
G1 X80.166 Y90.646 E.03148
G1 X79.821 Y91.408 E.02937
G1 X90.813 Y102.391 E.54567
G1 X91.939 Y101.93 E.04273
G1 X92.764 Y101.731 E.0298
G1 X93.946 Y101.625 E.04167
G1 X95.009 Y101.697 E.03741
G1 X95.953 Y101.898 E.03389
G1 X97.085 Y102.328 E.04252
G1 X98.064 Y102.899 E.0398
G1 X98.799 Y103.488 E.03308
G1 X99.457 Y104.174 E.03338
G1 X99.97 Y104.871 E.03039
G1 X100.418 Y105.669 E.03214
G1 X100.836 Y106.775 E.04152
G1 X101.067 Y107.935 E.04154
G1 X101.112 Y108.848 E.0321
G1 X101.04 Y109.749 E.03174
G1 X100.847 Y110.664 E.03284
G1 X100.346 Y111.924 E.04762
G1 X101.947 Y113.526 E.07953
G1 X105.081 Y113.54 E.11006
G1 X105.468 Y112.423 E.04151
G1 X105.877 Y111.618 E.03171
G1 X106.435 Y110.808 E.03454
G1 X107.107 Y110.076 E.0349
G1 X107.905 Y109.422 E.03623
G1 X108.798 Y108.887 E.03656
G1 X109.709 Y108.504 E.0347
G1 X110.788 Y108.229 E.0391
G1 X112.14 Y108.124 E.04762
G1 X113.705 Y108.329 E.05543
G1 X114.814 Y108.706 E.04113
G1 X115.669 Y109.144 E.03374
G1 X116.49 Y109.721 E.03524
G1 X117.381 Y110.585 E.04358
G1 X118.106 Y111.589 E.04349
G1 X118.555 Y112.476 E.03491
G1 X118.912 Y113.527 E.03898
G1 X131.084 Y113.527 E.42744
G1 X131.448 Y112.471 E.03922
G1 X131.849 Y111.664 E.03165
G1 X132.435 Y110.809 E.0364
G1 X133.127 Y110.057 E.03589
G1 X133.905 Y109.421 E.03529
G1 X134.798 Y108.887 E.03654
G1 X135.709 Y108.504 E.0347
G1 X136.788 Y108.229 E.0391
G1 X138.11 Y108.124 E.04657
G1 X139.705 Y108.329 E.05647
G1 X140.814 Y108.706 E.04113
G1 X141.669 Y109.144 E.03374
G1 X142.49 Y109.721 E.03524
G1 X143.381 Y110.585 E.04358
G1 X144.106 Y111.589 E.04349
G1 X144.554 Y112.476 E.0349
G1 X144.915 Y113.545 E.03962
G1 X148.054 Y113.525 E.11023
G1 X149.665 Y111.913 E.08003
G1 X149.304 Y111.137 E.03006
G1 X148.998 Y109.986 E.04182
G1 X148.888 Y108.843 E.04032
G1 X148.933 Y107.936 E.03189
G1 X149.092 Y107.046 E.03175
G1 X149.387 Y106.119 E.03416
G1 X149.789 Y105.272 E.03292
G1 X150.772 Y103.915 E.05884
G1 X151.552 Y103.186 E.03749
G1 X152.253 Y102.692 E.03012
G1 X153.023 Y102.277 E.03072
G1 X154.116 Y101.879 E.04085
G1 X155.167 Y101.674 E.0376
G1 X156.228 Y101.629 E.03729
G1 X157.288 Y101.742 E.03743
G1 X158.457 Y102.062 E.04256
G1 X159.178 Y102.4 E.02796
G1 X170.184 Y91.403 E.54636
G1 X169.849 Y90.687 E.02776
G1 X169.553 Y89.639 E.03824
G1 X169.421 Y88.587 E.03723
G1 X169.445 Y87.556 E.03622
G1 X169.594 Y86.645 E.03242
G1 X169.869 Y85.736 E.03335
G1 X170.306 Y84.793 E.0365
G1 X170.9 Y83.89 E.03796
G1 X171.439 Y83.277 E.02866
G1 X172.126 Y82.66 E.03243
G1 X172.865 Y82.153 E.03147
G1 X173.659 Y81.744 E.03136
G1 X174.544 Y81.425 E.03304
G1 X175.486 Y81.223 E.03383
G1 X176.552 Y81.15 E.03752
G1 X177.594 Y81.234 E.03671
G1 X178.75 Y81.516 E.04179
G1 X179.875 Y82.004 E.04306
G1 X180.922 Y82.698 E.04411
G1 X183.565 Y85.313 E.13057
G1 X184.33 Y86.694 E.05544
G1 X184.611 Y88.027 E.04784
G1 X184.711 Y90.517 E.08751
G1 X184.711 Y96.335 E.20431
G1 X184.524 Y97.606 E.04511
G1 X184.221 Y98.521 E.03385
G1 X183.819 Y99.306 E.03097
G1 X183.199 Y100.15 E.03678
G1 X182.059 Y101.328 E.05757
G1 X156.383 Y127.013 E1.27536
G1 X155.675 Y127.634 E.03307
G1 X154.914 Y128.146 E.03221
G1 X154.07 Y128.545 E.03278
G1 X152.674 Y128.89 E.0505
G1 X151.684 Y128.957 E.03485
G1 X97.956 Y128.95 E1.88676
G1 X96.912 Y128.824 E.03693
M73 P2 R28
M73 Q2 S28
G1 X95.925 Y128.541 E.03606
G1 X95.18 Y128.199 E.02879
G1 X94.495 Y127.764 E.0285
G1 X93.622 Y127.019 E.0403
G1 X67.028 Y100.406 E1.3212
G1 X66.344 Y99.558 E.03826
G1 X65.826 Y98.629 E.03735
G1 X65.475 Y97.603 E.03808
G1 X65.305 Y96.538 E.03787
G1 X65.288 Y90.534 E.21084
G1 X65.39 Y87.934 E.09137
G1 X65.896 Y86.156 E.06492
G1 X66.618 Y85.093 E.04513
G1 X68.751 Y82.976 E.10553
M204 S1000
G1 X68.751 Y82.976 F10800
G1 X69.017 Y83.243
M204 S800
G1 F1193.382
G1 X69.048 Y83.212 E.00154
G1 X70.293 Y82.342 E.05334
G1 X71.373 Y81.872 E.04136
G1 X72.499 Y81.601 E.04067
G1 X73.386 Y81.528 E.03125
G1 X74.246 Y81.568 E.03023
G1 X75.318 Y81.777 E.03835
G1 X76.581 Y82.275 E.04768
G1 X77.469 Y82.826 E.0367
G1 X78.244 Y83.493 E.03591
G1 X78.805 Y84.127 E.02973
G1 X79.277 Y84.824 E.02956
G1 X79.762 Y85.825 E.03906
G1 X80.074 Y86.888 E.0389
G1 X80.197 Y87.832 E.03343
G1 X80.187 Y88.793 E.03375
G1 X80.051 Y89.692 E.03193
G1 X79.808 Y90.527 E.03054
G1 X79.369 Y91.489 E.03713
G1 X90.748 Y102.859 E.56489
G1 X92.06 Y102.288 E.05025
G1 X92.838 Y102.101 E.0281
G1 X93.964 Y102.002 E.03969
G1 X94.969 Y102.072 E.03538
G1 X95.86 Y102.264 E.03201
G1 X96.936 Y102.675 E.04045
G1 X97.861 Y103.217 E.03765
G1 X98.536 Y103.758 E.03038
G1 X99.161 Y104.408 E.03167
G1 X99.647 Y105.066 E.02873
G1 X100.07 Y105.817 E.03027
G1 X100.478 Y106.894 E.04044
G1 X100.694 Y107.994 E.03937
G1 X100.735 Y108.831 E.02943
G1 X100.668 Y109.683 E.03001
G1 X100.487 Y110.55 E.0311
G1 X99.886 Y111.997 E.05502
G1 X101.79 Y113.903 E.09461
G1 X105.413 Y113.918 E.12723
G1 X105.81 Y112.582 E.04894
G1 X106.195 Y111.821 E.02995
G1 X106.738 Y111.033 E.03361
G1 X107.375 Y110.341 E.03303
G1 X108.132 Y109.723 E.03432
G1 X108.98 Y109.217 E.03468
G1 X109.817 Y108.865 E.03189
G1 X110.834 Y108.604 E.03687
G1 X112.125 Y108.501 E.04548
G1 X113.622 Y108.698 E.05302
G1 X114.679 Y109.058 E.03921
G1 X115.484 Y109.473 E.0318
G1 X116.261 Y110.02 E.03337
G1 X117.106 Y110.844 E.04145
G1 X117.791 Y111.797 E.04121
G1 X118.203 Y112.614 E.03213
G1 X118.582 Y113.905 E.04725
G1 X131.415 Y113.905 E.45065
G1 X131.8 Y112.606 E.04758
G1 X132.181 Y111.844 E.02992
G1 X132.738 Y111.034 E.03452
G1 X133.394 Y110.323 E.03397
G1 X134.132 Y109.723 E.0334
G1 X134.98 Y109.217 E.03468
G1 X135.817 Y108.865 E.03189
G1 X136.834 Y108.604 E.03687
G1 X138.125 Y108.501 E.04548
G1 X139.622 Y108.698 E.05302
G1 X140.679 Y109.058 E.03921
G1 X141.484 Y109.473 E.0318
G1 X142.261 Y110.02 E.03337
G1 X143.106 Y110.844 E.04145
G1 X143.791 Y111.797 E.04121
G1 X144.203 Y112.614 E.03213
G1 X144.587 Y113.931 E.04817
G1 X148.21 Y113.903 E.12723
G1 X150.119 Y111.992 E.09486
G1 X149.664 Y111.023 E.03759
G1 X149.371 Y109.934 E.0396
G1 X149.265 Y108.821 E.03926
G1 X149.306 Y107.99 E.02922
G1 X149.455 Y107.147 E.03006
G1 X149.733 Y106.268 E.03237
G1 X150.113 Y105.464 E.03123
G1 X151.055 Y104.164 E.05638
G1 X151.78 Y103.487 E.03483
G1 X152.461 Y103.007 E.02926
G1 X153.189 Y102.616 E.02902
G1 X154.23 Y102.238 E.03889
G1 X155.224 Y102.047 E.03554
G1 X156.229 Y102.006 E.03532
G1 X157.232 Y102.115 E.03543
G1 X158.341 Y102.421 E.0404
G1 X159.256 Y102.855 E.03556
G1 X170.639 Y91.481 E.56509
G1 X170.207 Y90.569 E.03544
G1 X169.926 Y89.576 E.03624
G1 X169.798 Y88.581 E.03523
G1 X169.82 Y87.603 E.03435
G1 X169.959 Y86.741 E.03066
G1 X170.217 Y85.881 E.03153
G1 X170.63 Y84.987 E.03458
G1 X171.193 Y84.128 E.03607
G1 X172.351 Y82.964 E.05766
G1 X173.048 Y82.483 E.02974
G1 X173.821 Y82.085 E.03053
G1 X174.659 Y81.784 E.03127
G1 X175.551 Y81.595 E.03202
G1 X176.536 Y81.527 E.03467
G1 X177.52 Y81.604 E.03466
G1 X178.615 Y81.868 E.03955
G1 X179.709 Y82.343 E.04188
G1 X180.698 Y83.002 E.04173
G1 X183.279 Y85.561 E.12763
G1 X183.986 Y86.85 E.05163
G1 X184.234 Y88.048 E.04296
G1 X184.335 Y90.539 E.08755
G1 X184.334 Y96.32 E.20301
G1 X184.154 Y97.534 E.0431
G1 X183.879 Y98.362 E.03064
G1 X183.505 Y99.095 E.0289
G1 X182.903 Y99.916 E.03575
G1 X181.789 Y101.064 E.05617
G1 X156.118 Y126.745 E1.27514
G1 X155.454 Y127.329 E.03105
G1 X154.739 Y127.812 E.0303
G1 X153.945 Y128.189 E.03087
G1 X152.617 Y128.517 E.04804
G1 X151.681 Y128.58 E.03294
G1 X97.965 Y128.573 E1.88633
G1 X97.001 Y128.457 E.0341
M73 P3 R28
M73 Q3 S28
G1 X96.069 Y128.192 E.03403
G1 X95.349 Y127.862 E.02781
G1 X94.709 Y127.453 E.02667
G1 X93.887 Y126.75 E.03798
G1 X67.302 Y100.147 E1.32073
G1 X66.649 Y99.334 E.03662
G1 X66.164 Y98.461 E.03507
G1 X65.838 Y97.497 E.03574
G1 X65.679 Y96.494 E.03566
G1 X65.665 Y90.541 E.20905
G1 X65.767 Y87.963 E.0906
G1 X66.226 Y86.342 E.05916
G1 X66.897 Y85.348 E.04211
G1 X68.974 Y83.286 E.10278
M204 S1000
G1 X68.974 Y83.286 F10800
G1 X69.24 Y83.553
M204 S800
G1 F1193.382
G1 X69.302 Y83.491 E.00308
G1 X70.462 Y82.679 E.04972
G1 X71.479 Y82.235 E.03897
G1 X72.544 Y81.976 E.03849
G1 X73.404 Y81.905 E.0303
G1 X74.214 Y81.944 E.02848
G1 X75.228 Y82.144 E.03629
G1 X76.397 Y82.605 E.04413
G1 X77.235 Y83.122 E.03458
G1 X77.988 Y83.77 E.03489
G1 X78.514 Y84.367 E.02794
G1 X78.956 Y85.023 E.02778
G1 X79.416 Y85.975 E.03713
G1 X79.702 Y86.951 E.03572
G1 X79.822 Y87.867 E.03244
G1 X79.81 Y88.775 E.03189
G1 X79.68 Y89.622 E.03009
G1 X79.45 Y90.408 E.02876
G1 X78.891 Y91.545 E.04449
G1 X90.683 Y103.327 E.58537
G1 X91.342 Y102.96 E.02649
M73 P3 R27
G1 X92.182 Y102.645 E.0315
G1 X92.912 Y102.472 E.02635
G1 X93.982 Y102.379 E.03772
G1 X94.904 Y102.444 E.03246
G1 X95.74 Y102.622 E.03002
G1 X96.76 Y103.008 E.0383
G1 X97.637 Y103.521 E.03568
G1 X98.273 Y104.029 E.02858
G1 X98.865 Y104.643 E.02995
G1 X99.723 Y105.965 E.05534
G1 X100.111 Y106.983 E.03826
G1 X100.318 Y108.027 E.03738
G1 X100.358 Y108.814 E.02767
G1 X100.297 Y109.619 E.02835
G1 X100.127 Y110.436 E.0293
G1 X99.833 Y111.267 E.03095
G1 X99.425 Y112.07 E.03163
G1 X101.633 Y114.279 E.10968
G1 X105.726 Y114.296 E.14373
G1 X105.862 Y113.578 E.02566
G1 X106.162 Y112.718 E.03199
G1 X106.513 Y112.024 E.02731
G1 X107.024 Y111.279 E.03172
G1 X107.643 Y110.607 E.03208
G1 X108.359 Y110.024 E.03242
G1 X109.161 Y109.548 E.03275
G1 X109.925 Y109.227 E.0291
G1 X110.881 Y108.978 E.03469
G1 X112.11 Y108.878 E.0433
G1 X113.538 Y109.066 E.05058
G1 X114.543 Y109.41 E.0373
G1 X115.299 Y109.802 E.02991
G1 X116.03 Y110.319 E.03144
G1 X116.83 Y111.101 E.03929
G1 X117.475 Y112.004 E.03897
G1 X117.852 Y112.751 E.02938
G1 X118.124 Y113.524 E.02878
G1 X118.27 Y114.283 E.02714
G1 X131.728 Y114.283 E.4726
G1 X131.862 Y113.578 E.0252
G1 X132.152 Y112.742 E.03107
G1 X132.499 Y112.046 E.02731
G1 X133.024 Y111.279 E.03264
G1 X133.643 Y110.607 E.03208
G1 X134.359 Y110.024 E.03242
G1 X135.161 Y109.548 E.03275
G1 X135.925 Y109.227 E.0291
G1 X136.881 Y108.978 E.03469
G1 X138.11 Y108.878 E.0433
G1 X139.538 Y109.066 E.05058
G1 X140.543 Y109.41 E.0373
G1 X141.299 Y109.802 E.02991
G1 X142.03 Y110.319 E.03144
G1 X142.83 Y111.101 E.03929
G1 X143.475 Y112.004 E.03897
G1 X143.852 Y112.751 E.02938
G1 X144.124 Y113.524 E.02878
G1 X144.271 Y114.287 E.02729
G1 X148.366 Y114.28 E.1438
G1 X150.574 Y112.071 E.10968
G1 X150.024 Y110.909 E.04515
G1 X149.74 Y109.852 E.03843
G1 X149.642 Y108.8 E.0371
G1 X149.68 Y108.043 E.02662
G1 X149.819 Y107.248 E.02834
G1 X150.08 Y106.417 E.03059
G1 X150.438 Y105.656 E.02953
G1 X151.339 Y104.413 E.05391
G1 X152.008 Y103.787 E.03217
G1 X153.355 Y102.954 E.05562
G1 X154.344 Y102.598 E.03691
G1 X155.281 Y102.42 E.03349
G1 X156.203 Y102.382 E.03241
G1 X157.176 Y102.488 E.03437
G1 X158.223 Y102.78 E.03817
G1 X159.334 Y103.311 E.04324
G1 X171.095 Y91.559 E.58386
G1 X170.566 Y90.45 E.04315
M73 Q3 S27
G1 X170.298 Y89.514 E.03419
G1 X170.176 Y88.575 E.03325
G1 X170.196 Y87.625 E.03337
G1 X170.329 Y86.814 E.02886
G1 X170.565 Y86.026 E.02889
G1 X170.953 Y85.182 E.03262
G1 X171.486 Y84.366 E.03423
G1 X172.575 Y83.267 E.05433
G1 X173.252 Y82.8 E.02888
G1 X173.981 Y82.427 E.02876
G1 X174.774 Y82.143 E.02958
G1 X175.616 Y81.966 E.03021
G1 X176.521 Y81.904 E.03186
G1 X177.448 Y81.975 E.03265
G1 X178.481 Y82.221 E.03729
G1 X179.514 Y82.667 E.03951
G1 X180.474 Y83.305 E.04048
G1 X182.994 Y85.809 E.12475
G1 X183.641 Y87.004 E.04772
G1 X183.857 Y88.07 E.0382
G1 X183.958 Y90.547 E.08706
G1 X183.956 Y96.306 E.20224
G1 X183.783 Y97.462 E.04105
G1 X183.536 Y98.205 E.0275
G1 X183.192 Y98.885 E.02676
G1 X182.607 Y99.683 E.03475
G1 X181.52 Y100.8 E.05473
G1 X155.853 Y126.477 E1.27494
G1 X155.232 Y127.024 E.02906
G1 X154.564 Y127.478 E.02836
G1 X153.819 Y127.833 E.02898
G1 X152.559 Y128.144 E.04558
G1 X151.678 Y128.202 E.031
G1 X97.974 Y128.196 E1.88591
G1 X97.062 Y128.084 E.03227
M73 P4 R27
M73 Q4 S27
G1 X96.187 Y127.834 E.03196
G1 X94.923 Y127.143 E.05059
G1 X94.151 Y126.481 E.03571
G1 X67.576 Y99.888 E1.32023
G1 X66.953 Y99.111 E.03497
G1 X66.515 Y98.323 E.03166
G1 X66.208 Y97.422 E.03343
G1 X66.054 Y96.45 E.03456
G1 X66.042 Y90.548 E.20726
G1 X66.144 Y87.992 E.08983
G1 X66.556 Y86.527 E.05344
G1 X67.176 Y85.602 E.0391
G1 X69.197 Y83.595 E.10002
M204 S1000
G1 X69.197 Y83.595 F10800
G1 X69.463 Y83.863
M204 S800
G1 F1193.382
G1 X69.557 Y83.77 E.00464
G1 X70.631 Y83.017 E.04606
G1 X71.585 Y82.597 E.0366
G1 X72.59 Y82.35 E.03634
G1 X73.423 Y82.282 E.02935
G1 X74.181 Y82.32 E.02665
G1 X75.137 Y82.51 E.03423
G1 X76.213 Y82.934 E.04061
G1 X77.024 Y83.435 E.03348
G1 X77.731 Y84.047 E.03284
G1 X78.636 Y85.222 E.05208
G1 X79.069 Y86.124 E.03514
G1 X79.33 Y87.015 E.0326
