; generated by PrusaSlicer 2.7.4+win64 on 2024-04-17 at 14:19:17 UTC


;
;
; 

; external perimeters extrusion width = 0.45mm
; perimeters extrusion width = 0.45mm
; infill extrusion width = 0.45mm
; solid infill extrusion width = 0.45mm
; top infill extrusion width = 0.40mm
; first layer extrusion width = 0.42mm

M73 P0 R36
M73 Q0 S36
M201 X1000 Y1000 Z200 E5000 ; sets maximum accelerations, mm/sec^2
M203 X200 Y200 Z12 E120 ; sets maximum feedrates, mm / sec
M204 S1250 T1250 ; sets acceleration (S) and retract acceleration (R), mm/sec^2
M205 X8.00 Y8.00 Z0.40 E4.50 ; sets the jerk limits, mm/sec
M205 S0 T0 ; sets the minimum extruding and travel feed rate, mm/sec

; printing object bumper-springy.STL id:0 copy 0
; stop printing object bumper-springy.STL id:0 copy 0

;TYPE:Custom
M862.3 P "MK3S" ; printer model check
M862.1 P0.4 ; nozzle diameter check
M115 U3.13.3 ; tell printer latest fw version
G90 ; use absolute coordinates
M83 ; extruder relative mode
M104 S230 ; set extruder temp
M140 S60 ; set bed temp
M190 S60 ; wait for bed temp
M109 S230 ; wait for extruder temp
G28 W ; home all without mesh bed level
G80 X62.4284 Y78.2942 W125.143 H53.5138 ; mesh bed levelling

G1 Z0.2 F720
G1 Y-3 F1000 ; go outside print area
G92 E0
G1 X60 E9 F1000 ; intro line
G1 X100 E12.5 F1000 ; intro line
M73 P0 R35

G92 E0
M221 S95

; Don't change E values below. Excessive value can damage the printer.
M907 E430 ; set extruder motor current
G21 ; set units to millimeters
G90 ; use absolute coordinates
M83 ; use relative distances for extrusion
M900 K0 ; Filament gcode
M107
;LAYER_CHANGE
;Z:0.2
;HEIGHT:0.2
G1 E-1.2 F2100
G1 Z.2 F720
G1 X66.744 Y81.204 F10800
G1 Z.2 F720
G1 E1.2 F1200
M204 S800
;TYPE:Skirt/Brim
;WIDTH:0.42
G1 F1193.382
G1 X68.005 Y80.178 E.05709
G1 X69.587 Y79.304 E.06347
G1 X70.92 Y78.83 E.04968
G1 X72.085 Y78.586 E.0418
G1 X73.588 Y78.483 E.0529
G1 X176.504 Y78.485 E3.61408
G1 X177.903 Y78.585 E.04925
G1 X179.481 Y78.949 E.05687
G1 X180.593 Y79.383 E.04192
G1 X181.83 Y80.07 E.04969
G1 X183.327 Y81.272 E.06742
G1 X185.804 Y83.749 E.12301
G1 X186.319 Y84.52 E.03256
G1 X187.096 Y86.394 E.07124
G1 X187.276 Y87.23 E.03003
G1 X187.375 Y90.491 E.11457
G1 X187.342 Y96.846 E.22317
M73 Q0 S35
G1 X187.101 Y98.304 E.0519
G1 X186.525 Y99.893 E.05935
G1 X186.14 Y100.624 E.02901
G1 X185.573 Y101.454 E.0353
G1 X184.671 Y102.492 E.04829
G1 X158.151 Y129.008 E1.31695
G1 X157.217 Y129.809 E.04321
G1 X155.893 Y130.648 E.05504
G1 X154.609 Y131.18 E.04881
G1 X153.079 Y131.523 E.05506
G1 X151.668 Y131.619 E.04966
G1 X98.332 Y131.619 E1.87299
G1 X96.921 Y131.523 E.04966
G1 X95.933 Y131.337 E.0353
G1 X95.143 Y131.093 E.02904
G1 X94.107 Y130.648 E.0396
G1 X93.39 Y130.237 E.02902
G1 X91.849 Y129.008 E.06922
G1 X65.229 Y102.388 E1.32202
G1 X64.427 Y101.454 E.04323
G1 X63.588 Y100.13 E.05504
G1 X63.057 Y98.846 E.04879
G1 X62.713 Y97.316 E.05507
M73 Q1 S35
G1 X62.617 Y95.9 E.04984
G1 X62.625 Y90.491 E.18995
M73 P1 R35
G1 X62.724 Y87.23 E.11457
G1 X62.904 Y86.394 E.03003
G1 X63.681 Y84.52 E.07124
G1 X64.196 Y83.749 E.03256
G1 X66.701 Y81.246 E.12436
M204 S1000
G1 E-1.2 F2100
G1 X66.701 Y81.246 F10800
G1 X68.561 Y83.152
G1 E1.2 F1200
M204 S800
G1 F1193.382
G1 X69.498 Y82.387 E.04248
G1 X70.479 Y81.825 E.0397
G1 X71.587 Y81.412 E.04152
G1 X72.74 Y81.19 E.04123
G1 X73.902 Y81.16 E.04082
G1 X75.012 Y81.312 E.03934
G1 X76.146 Y81.661 E.04167
G1 X77.096 Y82.129 E.03719
G1 X77.988 Y82.751 E.03819
G1 X78.822 Y83.556 E.0407
G1 X79.496 Y84.458 E.03954
G1 X80.064 Y85.565 E.04369
G1 X80.41 Y86.66 E.04033
G1 X80.574 Y87.794 E.04024
G1 X80.537 Y89.077 E.04507
G1 X80.3 Y90.234 E.04147
G1 X79.809 Y91.441 E.04576
G1 X90.813 Y102.389 E.5451
G1 X92.026 Y101.903 E.04589
G1 X93.078 Y101.684 E.03773
G1 X94.235 Y101.628 E.04068
G1 X95.382 Y101.759 E.04054
G1 X96.612 Y102.122 E.04504
G1 X97.741 Y102.687 E.04433
G1 X98.619 Y103.328 E.03818
G1 X99.406 Y104.114 E.03906
G1 X100.102 Y105.083 E.0419
G1 X100.632 Y106.168 E.0424
G1 X100.951 Y107.231 E.03897
G1 X101.1 Y108.304 E.03804
G1 X101.066 Y109.552 E.04384
G1 X100.824 Y110.742 E.04264
G1 X100.357 Y111.928 E.04476
G1 X101.939 Y113.544 E.07942
G1 X105.117 Y113.526 E.1116
G1 X105.299 Y112.853 E.02448
G1 X105.751 Y111.84 E.03895
G1 X106.413 Y110.835 E.04226
G1 X107.263 Y109.931 E.04357
G1 X108.143 Y109.261 E.03884
G1 X109.164 Y108.715 E.04066
G1 X110.468 Y108.289 E.04817
G1 X111.401 Y108.149 E.03313
G1 X112.317 Y108.13 E.03217
G1 X113.527 Y108.29 E.04286
G1 X114.741 Y108.673 E.0447
G1 X115.834 Y109.246 E.04334
G1 X116.796 Y109.985 E.0426
G1 X117.597 Y110.848 E.04135
G1 X118.255 Y111.852 E.04215
G1 X118.756 Y113.014 E.04444
G1 X118.885 Y113.525 E.01851
G1 X131.117 Y113.525 E.42955
G1 X131.263 Y112.957 E.02059
G1 X131.73 Y111.88 E.04122
G1 X132.378 Y110.88 E.04185
G1 X133.187 Y110 E.04198
G1 X134.168 Y109.245 E.04347
G1 X135.213 Y108.692 E.04152
G1 X136.239 Y108.346 E.03802
G1 X137.671 Y108.129 E.05086
G1 X138.65 Y108.154 E.03439
G1 X139.621 Y108.31 E.03454
G1 X140.794 Y108.696 E.04336
G1 X141.867 Y109.267 E.04268
G1 X142.796 Y109.984 E.04121
G1 X143.617 Y110.874 E.04252
G1 X144.258 Y111.856 E.04118
G1 X144.697 Y112.84 E.03784
G1 X144.882 Y113.526 E.02495
G1 X148.061 Y113.544 E.11164
G1 X149.642 Y111.929 E.07937
G1 X149.193 Y110.797 E.04277
G1 X148.947 Y109.656 E.04099
G1 X148.894 Y108.438 E.04281
G1 X149.037 Y107.287 E.04073
G1 X149.364 Y106.177 E.04064
G1 X149.859 Y105.148 E.0401
G1 X150.517 Y104.206 E.04035
G1 X151.384 Y103.326 E.04338
G1 X152.395 Y102.606 E.04359
G1 X153.369 Y102.128 E.0381
G1 X154.431 Y101.799 E.03904
G1 X155.67 Y101.632 E.0439
G1 X156.859 Y101.676 E.04178
G1 X158.055 Y101.927 E.04291
G1 X159.201 Y102.375 E.04321
G1 X170.19 Y91.443 E.54433
G1 X169.699 Y90.229 E.04599
G1 X169.457 Y89.023 E.0432
G1 X169.426 Y87.791 E.04328
G1 X169.577 Y86.718 E.03805
G1 X169.891 Y85.678 E.03815
G1 X170.42 Y84.594 E.04236
G1 X171.075 Y83.676 E.0396
G1 X171.878 Y82.864 E.0401
G1 X172.863 Y82.154 E.04264
G1 X173.889 Y81.648 E.04017
G1 X174.959 Y81.319 E.03931
G1 X176.105 Y81.16 E.04063
G1 X177.316 Y81.196 E.04255
G1 X178.506 Y81.439 E.04265
G1 X179.592 Y81.859 E.04089
G1 X180.595 Y82.452 E.04092
G1 X181.416 Y83.13 E.03739
G1 X183.546 Y85.29 E.10653
G1 X184.292 Y86.588 E.05257
G1 X184.611 Y87.995 E.05066
G1 X184.712 Y90.527 E.08899
G1 X184.719 Y95.947 E.19033
G1 X184.663 Y96.829 E.03104
G1 X184.454 Y97.862 E.03701
G1 X184.027 Y98.93 E.04039
G1 X183.478 Y99.806 E.0363
G1 X182.787 Y100.608 E.03718
G1 X156.369 Y127.026 E1.31199
G1 X155.684 Y127.628 E.03202
G1 X154.939 Y128.133 E.03161
G1 X153.825 Y128.629 E.04282
G1 X152.642 Y128.893 E.04257
G1 X151.711 Y128.955 E.03277
G1 X98.294 Y128.955 E1.87583
G1 X97.402 Y128.899 E.03139
G1 X96.323 Y128.676 E.03869
G1 X95.292 Y128.257 E.03908
G1 X94.426 Y127.711 E.03595
G1 X93.634 Y127.03 E.03668
G1 X67.215 Y100.61 E1.31206
G1 X66.573 Y99.874 E.0343
G1 X66.012 Y99.004 E.03635
G1 X65.497 Y97.694 E.04943
G1 X65.337 Y96.834 E.03072
G1 X65.288 Y90.527 E.22149
G1 X65.39 Y87.949 E.0906
G1 X65.793 Y86.381 E.05685
G1 X66.596 Y85.116 E.05262
G1 X68.518 Y83.194 E.09545
M204 S1000
G1 X68.785 Y83.461 F10800
M204 S800
G1 F1193.382
G1 X68.821 Y83.425 E.00179
G1 X69.7 Y82.706 E.03988
G1 X70.626 Y82.173 E.03752
G1 X71.675 Y81.779 E.03935
G1 X72.766 Y81.566 E.03904
G1 X73.867 Y81.536 E.03868
G1 X74.917 Y81.678 E.03721
G1 X75.993 Y82.006 E.0395
G1 X76.916 Y82.461 E.03614
G1 X77.759 Y83.051 E.03613
G1 X78.53 Y83.795 E.03763
G1 X79.169 Y84.645 E.03734
G1 X79.71 Y85.695 E.04148
G1 X80.039 Y86.73 E.03814
G1 X80.198 Y87.832 E.0391
G1 X80.164 Y89.018 E.04167
G1 X79.942 Y90.115 E.0393
G1 X79.348 Y91.488 E.05253
G1 X90.753 Y102.863 E.56566
G1 X91.163 Y102.627 E.01661
G1 X92.144 Y102.262 E.03676
G1 X93.139 Y102.056 E.03568
G1 X94.208 Y102.004 E.03758
G1 X95.291 Y102.126 E.03827
G1 X96.489 Y102.479 E.04386
G1 X97.557 Y103.017 E.04199
G1 X98.384 Y103.623 E.036
G1 X99.127 Y104.369 E.03697
G1 X99.786 Y105.289 E.03974
G1 X100.286 Y106.319 E.04021
G1 X100.586 Y107.324 E.03683
G1 X100.724 Y108.339 E.03597
G1 X100.693 Y109.493 E.04054
G1 X100.458 Y110.65 E.04146
G1 X99.886 Y111.992 E.05123
G1 X101.773 Y113.918 E.09469
G1 X105.408 Y113.903 E.12765
G1 X105.65 Y112.992 E.0331
G1 X106.089 Y112.009 E.03781
G1 X106.718 Y111.057 E.04007
G1 X107.526 Y110.201 E.04134
M73 P2 R35
M73 Q2 S35
G1 X108.359 Y109.57 E.0367
G1 X109.297 Y109.068 E.03736
G1 X110.569 Y108.653 E.04699
G1 X111.444 Y108.524 E.03106
G1 X112.309 Y108.507 E.03038
G1 X113.46 Y108.661 E.04078
G1 X114.61 Y109.028 E.04239
G1 X115.643 Y109.572 E.041
G1 X116.553 Y110.273 E.04034
G1 X117.309 Y111.092 E.03914
G1 X117.93 Y112.044 E.03992
G1 X118.403 Y113.148 E.04218
G1 X118.588 Y113.903 E.0273
G1 X131.412 Y113.903 E.45034
G1 X131.615 Y113.092 E.02936
G1 X132.055 Y112.071 E.03904
G1 X132.667 Y111.123 E.03963
G1 X133.431 Y110.288 E.03974
G1 X134.359 Y109.57 E.0412
G1 X135.35 Y109.044 E.0394
G1 X136.313 Y108.716 E.03573
G1 X137.679 Y108.507 E.04853
G1 X138.604 Y108.528 E.03249
G1 X139.518 Y108.673 E.0325
G1 X140.661 Y109.049 E.04225
G1 X141.65 Y109.576 E.03935
G1 X142.53 Y110.252 E.03897
G1 X143.311 Y111.094 E.04033
G1 X143.92 Y112.024 E.03904
G1 X144.346 Y112.98 E.03675
G1 X144.591 Y113.903 E.03354
G1 X148.227 Y113.918 E.12769
G1 X150.115 Y111.991 E.09474
G1 X149.558 Y110.702 E.04931
G1 X149.319 Y109.592 E.03987
G1 X149.27 Y108.468 E.03951
G1 X149.403 Y107.378 E.03856
G1 X149.722 Y106.298 E.03955
G1 X150.192 Y105.326 E.03791
G1 X150.797 Y104.459 E.03713
G1 X151.641 Y103.602 E.04224
G1 X152.6 Y102.922 E.04128
G1 X153.521 Y102.474 E.03597
G1 X154.527 Y102.164 E.03697
G1 X155.703 Y102.008 E.04166
G1 X156.828 Y102.052 E.03954
G1 X157.961 Y102.293 E.04068
G1 X159.254 Y102.857 E.04954
G1 X170.65 Y91.489 E.56526
G1 X170.057 Y90.11 E.05271
G1 X169.833 Y88.996 E.0399
G1 X169.802 Y87.827 E.04107
G1 X169.943 Y86.812 E.03599
G1 X170.237 Y85.828 E.03606
G1 X170.736 Y84.8 E.04013
G1 X171.373 Y83.907 E.03852
G1 X172.134 Y83.141 E.03792
G1 X173.044 Y82.485 E.03939
G1 X174.042 Y81.992 E.03909
G1 X175.026 Y81.69 E.03615
G1 X176.111 Y81.538 E.03847
G1 X177.257 Y81.569 E.04026
G1 X178.415 Y81.805 E.0415
G1 X179.44 Y82.205 E.03864
G1 X180.389 Y82.768 E.03875
G1 X181.168 Y83.415 E.03556
G1 X183.233 Y85.5 E.10305
G1 X183.931 Y86.701 E.04878
G1 X184.234 Y88.019 E.04749
G1 X184.335 Y90.535 E.08843
G1 X184.291 Y96.768 E.21889
G1 X184.098 Y97.739 E.03477
G1 X183.684 Y98.774 E.03915
G1 X183.166 Y99.593 E.03403
G1 X182.517 Y100.346 E.03491
G1 X156.106 Y126.756 E1.31162
G1 X155.462 Y127.323 E.03013
G1 X154.741 Y127.811 E.03057
G1 X153.69 Y128.276 E.04036
G1 X152.576 Y128.521 E.04006
G1 X151.705 Y128.578 E.03065
G1 X98.299 Y128.578 E1.87545
G1 X97.465 Y128.527 E.02934
G1 X96.417 Y128.31 E.03758
G1 X95.451 Y127.914 E.03666
G1 X94.64 Y127.4 E.03372
G1 X93.896 Y126.759 E.03449
G1 X67.485 Y100.347 E1.31167
G1 X66.882 Y99.657 E.03218
G1 X66.355 Y98.847 E.03394
G1 X65.864 Y97.607 E.04683
G1 X65.71 Y96.776 E.02968
G1 X65.658 Y95.946 E.0292
G1 X65.665 Y90.535 E.19002
G1 X65.767 Y87.976 E.08994
G1 X66.128 Y86.556 E.05145
G1 X66.878 Y85.368 E.04934
G1 X68.742 Y83.503 E.0926
M204 S1000
G1 X68.742 Y83.503 F10800
G1 X69.009 Y83.77
M204 S800
G1 F1193.382
G1 X69.08 Y83.698 E.00355
G1 X69.926 Y83.008 E.03834
G1 X70.8 Y82.508 E.03536
G1 X71.792 Y82.138 E.03718
G1 X72.822 Y81.94 E.03683
G1 X73.861 Y81.913 E.0365
G1 X74.851 Y82.049 E.03509
G1 X75.841 Y82.352 E.03636
G1 X76.712 Y82.778 E.03405
G1 X77.508 Y83.333 E.03408
G1 X78.257 Y84.055 E.03653
G1 X78.857 Y84.858 E.0352
G1 X79.367 Y85.852 E.03923
G1 X79.675 Y86.828 E.03594
G1 X79.823 Y87.868 E.03689
G1 X79.788 Y88.99 E.03942
G1 X79.583 Y89.997 E.03609
G1 X79.241 Y90.91 E.03424
G1 X78.883 Y91.543 E.02554
G1 X90.692 Y103.337 E.58609
G1 X91.31 Y102.975 E.02515
G1 X92.262 Y102.62 E.03568
G1 X93.2 Y102.429 E.03362
G1 X94.21 Y102.382 E.03551
G1 X95.232 Y102.499 E.03612
G1 X96.365 Y102.835 E.0415
G1 X97.372 Y103.346 E.03966
G1 X98.149 Y103.918 E.03388
G1 X98.83 Y104.601 E.03387
G1 X99.47 Y105.495 E.03861
G1 X99.94 Y106.468 E.03795
G1 X100.22 Y107.416 E.03471
G1 X100.348 Y108.374 E.03394
G1 X100.316 Y109.465 E.03833
G1 X100.092 Y110.558 E.03918
G1 X99.67 Y111.613 E.0399
G1 X99.409 Y112.048 E.01781
G1 X101.629 Y114.292 E.11085
G1 X105.699 Y114.28 E.14293
G1 X106.001 Y113.131 E.04172
G1 X106.412 Y112.203 E.03564
G1 X107.004 Y111.303 E.03783
G1 X107.767 Y110.491 E.03913
G1 X108.551 Y109.895 E.03458
G1 X109.431 Y109.421 E.0351
G1 X110.641 Y109.023 E.04473
G1 X111.463 Y108.901 E.02918
G1 X112.302 Y108.884 E.02947
G1 X113.393 Y109.032 E.03866
G1 X114.479 Y109.381 E.04006
G1 X115.452 Y109.897 E.03868
G1 X116.309 Y110.561 E.03807
G1 X117.02 Y111.335 E.03691
G1 X117.605 Y112.235 E.0377
G1 X118.05 Y113.28 E.03989
G1 X118.29 Y114.28 E.03611
G1 X131.708 Y114.28 E.4712
G1 X131.968 Y113.226 E.03812
G1 X132.381 Y112.261 E.03686
G1 X132.956 Y111.365 E.03739
G1 X133.675 Y110.576 E.03749
G1 X134.577 Y109.878 E.04005
G1 X135.486 Y109.396 E.03613
G1 X136.388 Y109.086 E.03349
G1 X137.688 Y108.884 E.0462
G1 X138.559 Y108.903 E.03059
G1 X139.415 Y109.037 E.03043
G1 X140.527 Y109.402 E.0411
G1 X141.433 Y109.885 E.03605
G1 X142.265 Y110.521 E.03678
G1 X143.005 Y111.315 E.03811
G1 X143.582 Y112.191 E.03684
G1 X143.995 Y113.119 E.03567
G1 X144.3 Y114.28 E.04215
G1 X148.371 Y114.292 E.14296
G1 X150.592 Y112.047 E.1109
M73 P2 R34
G1 X150.323 Y111.6 E.01832
G1 X149.923 Y110.606 E.03763
G1 X149.695 Y109.558 E.03766
G1 X149.646 Y108.498 E.03726
G1 X149.775 Y107.44 E.03743
G1 X150.079 Y106.421 E.03734
G1 X150.51 Y105.529 E.03479
G1 X151.078 Y104.711 E.03497
G1 X151.873 Y103.9 E.03988
G1 X152.805 Y103.239 E.04012
G1 X153.672 Y102.82 E.03382
G1 X154.593 Y102.536 E.03385
G1 X155.706 Y102.385 E.03944
G1 X156.767 Y102.425 E.03729
G1 X157.838 Y102.65 E.03843
G1 X158.8 Y103.028 E.0363
G1 X159.313 Y103.332 E.02094
G1 X171.115 Y91.545 E.58575
G1 X170.769 Y90.931 E.02475
M73 P3 R34
M73 Q3 S35
G1 X170.423 Y90.02 E.03422
G1 X170.209 Y88.969 E.03767
G1 X170.178 Y87.863 E.03885
G1 X170.308 Y86.905 E.03395
G1 X170.583 Y85.978 E.03396
G1 X171.053 Y85.005 E.03795
G1 X171.653 Y84.161 E.03636
G1 X172.368 Y83.437 E.03573
G1 X173.252 Y82.8 E.03826
G1 X174.168 Y82.348 E.03587
G1 X175.094 Y82.061 E.03404
G1 X176.148 Y81.913 E.03738
G1 X177.229 Y81.945 E.03798
G1 X178.293 Y82.162 E.03813
G1 X179.289 Y82.55 E.03754
G1 X180.16 Y83.068 E.03559
G1 X180.906 Y83.687 E.03404
G1 X182.948 Y85.749 E.10191
G1 X183.571 Y86.815 E.04336
G1 X183.857 Y88.044 E.04431
G1 X183.958 Y90.543 E.08783
G1 X183.965 Y95.936 E.18939
G1 X183.918 Y96.707 E.02713
G1 X183.731 Y97.648 E.03369
G1 X183.356 Y98.587 E.03551
G1 X182.855 Y99.379 E.03291
G1 X182.246 Y100.083 E.03269
G1 X155.843 Y126.486 E1.31124
G1 X155.24 Y127.018 E.02824
G1 X154.572 Y127.474 E.0284
G1 X153.59 Y127.912 E.03776
G1 X152.536 Y128.146 E.03791
G1 X151.7 Y128.201 E.02942
G1 X98.303 Y128.201 E1.87513
G1 X97.527 Y128.155 E.0273
G1 X96.542 Y127.954 E.0353
G1 X95.638 Y127.587 E.03426
G1 X94.854 Y127.09 E.0326
G1 X94.159 Y126.488 E.03229
G1 X67.755 Y100.084 E1.31129
G1 X67.19 Y99.439 E.03011
M73 Q3 S34
G1 X66.699 Y98.691 E.03142
G1 X66.222 Y97.486 E.04551
G1 X66.083 Y96.72 E.02734
G1 X66.042 Y90.543 E.21692
G1 X66.144 Y88.002 E.0893
G1 X66.464 Y86.731 E.04603
G1 X67.159 Y85.619 E.04605
G1 X68.966 Y83.812 E.08974
M204 S1000
G1 X68.966 Y83.812 F10800
G1 X69.233 Y84.079
M204 S800
G1 F1193.382
G1 X69.341 Y83.971 E.00536
G1 X70.128 Y83.327 E.03571
G1 X70.947 Y82.855 E.0332
G1 X71.88 Y82.505 E.03499
G1 X72.848 Y82.316 E.03463
G1 X73.826 Y82.289 E.03436
G1 X74.756 Y82.414 E.03295
G1 X75.689 Y82.697 E.03424
G1 X76.533 Y83.111 E.03301
G1 X77.28 Y83.633 E.032
G1 X77.965 Y84.294 E.03343
G1 X78.529 Y85.045 E.03298
G1 X79.012 Y85.981 E.03699
G1 X79.31 Y86.926 E.0348
G1 X79.447 Y87.904 E.03468
G1 X79.412 Y88.961 E.03714
G1 X79.217 Y89.906 E.03388
G1 X78.894 Y90.762 E.03213
G1 X78.417 Y91.597 E.03377
G1 X90.633 Y103.811 E.60663
G1 X91.458 Y103.322 E.03368
G1 X92.379 Y102.979 E.03451
G1 X93.26 Y102.801 E.03156
G1 X94.182 Y102.758 E.03241
G1 X95.172 Y102.871 E.03499
G1 X96.24 Y103.191 E.03915
G1 X97.187 Y103.674 E.03733
G1 X97.912 Y104.212 E.0317
G1 X98.551 Y104.855 E.03183
G1 X99.153 Y105.7 E.03643
