; generated by PrusaSlicer 2.7.4+win64 on 2024-05-06 at 07:00:01 UTC


;
;
; 

; external perimeters extrusion width = 0.45mm
; perimeters extrusion width = 0.45mm
; infill extrusion width = 0.45mm
; solid infill extrusion width = 0.45mm
; top infill extrusion width = 0.40mm
; first layer extrusion width = 0.42mm

; external perimeters extrusion width = 0.45mm
; perimeters extrusion width = 0.45mm
; infill extrusion width = 0.45mm
; solid infill extrusion width = 0.45mm
; top infill extrusion width = 0.40mm
; first layer extrusion width = 0.42mm

M73 P0 R71
M73 Q0 S71
M201 X1000 Y1000 Z200 E5000 ; sets maximum accelerations, mm/sec^2
M203 X200 Y200 Z12 E120 ; sets maximum feedrates, mm / sec
M204 S1250 T1250 ; sets acceleration (S) and retract acceleration (R), mm/sec^2
M205 X8.00 Y8.00 Z0.40 E4.50 ; sets the jerk limits, mm/sec
M205 S0 T0 ; sets the minimum extruding and travel feed rate, mm/sec

; printing object bumper-springy.STL id:0 copy 0
; stop printing object bumper-springy.STL id:0 copy 0
; printing object bumper-springy.STL id:1 copy 0
; stop printing object bumper-springy.STL id:1 copy 0

;TYPE:Custom
M862.3 P "MK3S" ; printer model check
M862.1 P0.4 ; nozzle diameter check
M115 U3.13.3 ; tell printer latest fw version
G90 ; use absolute coordinates
M83 ; extruder relative mode
M104 S230 ; set extruder temp
M140 S60 ; set bed temp
M190 S60 ; wait for bed temp
M109 S230 ; wait for extruder temp
G28 W ; home all without mesh bed level
G80 X62.074 Y101.098 W125.269 H77.9762 ; mesh bed levelling

G1 Z0.2 F720
G1 Y-3 F1000 ; go outside print area
G92 E0
G1 X60 E9 F1000 ; intro line
G1 X100 E12.5 F1000 ; intro line

G92 E0
M221 S95

; Don't change E values below. Excessive value can damage the printer.
M907 E430 ; set extruder motor current
G21 ; set units to millimeters
G90 ; use absolute coordinates
M83 ; use relative distances for extrusion
M900 K0 ; Filament gcode
M107
;LAYER_CHANGE
;Z:0.2
;HEIGHT:0.2
G1 E-1.2 F2100
G1 Z.2 F720
G1 X67.815 Y102.874 F10800
G1 Z.2 F720
M73 P0 R70
G1 E1.2 F1200
M204 S800
;TYPE:Skirt/Brim
;WIDTH:0.42
G1 F1193.382
G1 X69.232 Y102.108 E.05657
G1 X70.161 Y101.755 E.0349
G1 X71.536 Y101.422 E.04968
G1 X73.234 Y101.287 E.05982
G1 X176.15 Y101.289 E3.61408
G1 X177.549 Y101.389 E.04925
G1 X179.126 Y101.753 E.05684
G1 X180.618 Y102.372 E.05672
G1 X181.983 Y103.227 E.05656
G1 X182.973 Y104.076 E.0458
G1 X185.45 Y106.553 E.12301
G1 X185.965 Y107.324 E.03256
G1 X186.741 Y109.198 E.07123
G1 X186.921 Y110.034 E.03003
G1 X187.021 Y113.286 E.11425
G1 X187.147 Y137.749 E.85907
G1 X187.15 Y143.422 E.19922
G1 X187.079 Y144.433 E.03559
G1 X186.872 Y145.57 E.04058
G1 X186.628 Y146.36 E.02904
G1 X185.911 Y147.89 E.05934
G1 X185.254 Y148.84 E.04056
G1 X184.442 Y149.758 E.04304
G1 X157.923 Y176.274 E1.31693
G1 X156.382 Y177.503 E.06922
G1 X155.665 Y177.914 E.02902
G1 X154.629 Y178.359 E.0396
G1 X153.839 Y178.603 E.02904
G1 X152.851 Y178.789 E.0353
G1 X151.44 Y178.886 E.04967
G1 X98.103 Y178.886 E1.87303
G1 X96.692 Y178.789 E.04967
G1 X95.162 Y178.446 E.05506
G1 X94.115 Y178.028 E.03959
G1 X93.161 Y177.503 E.03824
G1 X92.182 Y176.782 E.0427
G1 X91.488 Y176.146 E.03306
G1 X65 Y149.654 E1.31556
G1 X63.771 Y148.113 E.06922
G1 X63.36 Y147.396 E.02902
G1 X62.915 Y146.36 E.0396
G1 X62.671 Y145.57 E.02904
G1 X62.485 Y144.582 E.0353
G1 X62.389 Y143.208 E.04837
G1 X62.262 Y118.704 E.86051
G1 X62.27 Y113.295 E.18995
G1 X62.37 Y110.034 E.11457
G1 X62.55 Y109.198 E.03003
G1 X63.326 Y107.324 E.07123
G1 X63.841 Y106.553 E.03256
G1 X66.319 Y104.076 E.12304
G1 X67.153 Y103.347 E.0389
G1 X67.767 Y102.909 E.02649
M204 S1000
G1 E-1.2 F2100
G1 X67.767 Y102.909 F10800
G1 X69.144 Y105.203
G1 E1.2 F1200
M204 S800
G1 F1193.382
G1 X70.001 Y104.689 E.03509
G1 X71.107 Y104.253 E.04175
G1 X72.374 Y103.995 E.04541
G1 X73.591 Y103.967 E.04275
G1 X74.747 Y104.136 E.04103
G1 X75.812 Y104.474 E.03924
G1 X76.82 Y104.98 E.03961
G1 X77.768 Y105.668 E.04113
G1 X78.599 Y106.513 E.04162
G1 X79.243 Y107.427 E.03926
G1 X79.735 Y108.43 E.03923
G1 X80.065 Y109.507 E.03956
G1 X80.22 Y110.606 E.03898
G1 X80.178 Y111.918 E.0461
G1 X79.955 Y113.005 E.03897
G1 X79.454 Y114.245 E.04696
G1 X90.458 Y125.193 E.5451
G1 X91.671 Y124.707 E.04589
G1 X92.723 Y124.488 E.03773
G1 X93.88 Y124.432 E.04068
G1 X95.027 Y124.563 E.04054
G1 X96.258 Y124.926 E.04507
G1 X97.39 Y125.493 E.04446
G1 X98.274 Y126.139 E.03845
G1 X99.043 Y126.907 E.03817
G1 X99.756 Y127.899 E.0429
G1 X100.293 Y129.01 E.04333
G1 X100.597 Y130.037 E.03761
G1 X100.743 Y131.068 E.03657
G1 X100.716 Y132.31 E.04363
G1 X100.483 Y133.501 E.04262
G1 X100.006 Y134.735 E.04646
G1 X101.585 Y136.348 E.07927
G1 X104.764 Y136.33 E.11164
G1 X104.956 Y135.623 E.02573
G1 X105.416 Y134.609 E.0391
G1 X106.079 Y133.613 E.04202
G1 X106.905 Y132.738 E.04226
G1 X107.802 Y132.056 E.03957
G1 X108.851 Y131.501 E.04168
G1 X110.062 Y131.105 E.04474
G1 X110.998 Y130.957 E.03328
G1 X111.953 Y130.933 E.03355
G1 X113.171 Y131.093 E.04314
G1 X114.386 Y131.477 E.04475
G1 X115.479 Y132.05 E.04334
G1 X116.442 Y132.789 E.04263
M73 Q0 S70
G1 X117.243 Y133.652 E.04135
G1 X117.901 Y134.655 E.04213
G1 X118.402 Y135.818 E.04447
G1 X118.531 Y136.329 E.01851
G1 X130.762 Y136.329 E.42951
G1 X130.908 Y135.761 E.02059
G1 X131.375 Y134.684 E.04122
G1 X132.023 Y133.684 E.04185
G1 X132.832 Y132.804 E.04198
G1 X133.813 Y132.048 E.04349
G1 X134.859 Y131.496 E.04153
G1 X135.885 Y131.15 E.03802
G1 X137.316 Y130.933 E.05083
G1 X138.296 Y130.958 E.03443
G1 X139.266 Y131.114 E.0345
G1 X140.47 Y131.513 E.04454
G1 X141.545 Y132.092 E.04288
G1 X142.455 Y132.8 E.04049
G1 X143.273 Y133.691 E.04248
G1 X143.921 Y134.692 E.04187
G1 X144.344 Y135.647 E.03668
G1 X144.527 Y136.33 E.02483
G1 X147.238 Y136.357 E.09521
G1 X147.706 Y136.348 E.01644
G1 X149.288 Y134.733 E.07939
G1 X148.839 Y133.604 E.04267
G1 X148.595 Y132.471 E.0407
G1 X148.537 Y131.312 E.04075
G1 X148.669 Y130.154 E.04093
G1 X149.001 Y129.005 E.042
G1 X149.516 Y127.933 E.04176
G1 X150.235 Y126.924 E.04351
G1 X151.009 Y126.146 E.03854
G1 X151.914 Y125.485 E.03936
G1 X152.979 Y124.947 E.0419
G1 X154.18 Y124.581 E.04409
G1 X155.35 Y124.434 E.04141
G1 X156.512 Y124.481 E.04084
G1 X157.644 Y124.714 E.04059
G1 X158.846 Y125.18 E.04527
G1 X169.821 Y114.26 E.54368
G1 X169.347 Y113.043 E.04586
G1 X169.107 Y111.87 E.04205
G1 X169.07 Y110.63 E.04356
G1 X169.226 Y109.506 E.03985
G1 X169.569 Y108.398 E.04073
G1 X170.073 Y107.386 E.0397
G1 X170.739 Y106.458 E.04011
G1 X171.571 Y105.627 E.04129
G1 X172.512 Y104.955 E.04061
G1 X173.511 Y104.461 E.03914
G1 X174.585 Y104.127 E.0395
G1 X175.724 Y103.966 E.0404
G1 X176.922 Y103.996 E.04208
G1 X178.065 Y104.218 E.04089
G1 X179.187 Y104.639 E.04208
G1 X180.212 Y105.237 E.04167
G1 X181.029 Y105.905 E.03706
G1 X183.321 Y108.266 E.11555
G1 X183.951 Y109.426 E.04636
G1 X184.248 Y110.74 E.04731
G1 X184.357 Y113.331 E.09107
G1 X184.365 Y118.754 E.19044
G1 X184.305 Y119.662 E.03196
G1 X184.077 Y120.739 E.03866
G1 X183.624 Y121.826 E.04135
G1 X183.003 Y122.769 E.03965
G1 X177.327 Y128.508 E.28345
G1 X178.285 Y128.707 E.03436
G1 X179.373 Y129.13 E.04099
G1 X180.366 Y129.718 E.04053
G1 X181.159 Y130.37 E.03605
G1 X183.458 Y132.743 E.11603
G1 X184.084 Y133.905 E.04635
G1 X184.382 Y135.281 E.04944
G1 X184.483 Y137.793 E.08828
G1 X184.489 Y143.256 E.19184
G1 X184.424 Y144.179 E.03249
G1 X184.201 Y145.209 E.03701
G1 X183.695 Y146.392 E.04518
G1 X183.177 Y147.169 E.03279
G1 X182.557 Y147.877 E.03305
G1 X156.139 Y174.294 E1.31196
G1 X155.431 Y174.913 E.03303
G1 X154.662 Y175.426 E.03246
G1 X153.539 Y175.914 E.043
G1 X152.379 Y176.163 E.04166
G1 X151.478 Y176.222 E.03171
G1 X98.063 Y176.222 E1.87576
G1 X97.153 Y176.162 E.03203
G1 X95.977 Y175.905 E.04227
G1 X94.854 Y175.411 E.04308
G1 X94.101 Y174.904 E.03188
G1 X93.403 Y174.293 E.03258
G1 X66.985 Y147.875 E1.31199
G1 X66.346 Y147.142 E.03415
M73 P1 R70
M73 Q1 S70
G1 X65.825 Y146.353 E.0332
G1 X65.313 Y145.113 E.04711
G1 X65.107 Y144.082 E.03692
G1 X65.054 Y143.26 E.02893
G1 X65.06 Y137.793 E.19198
G1 X65.162 Y135.195 E.0913
G1 X65.625 Y133.516 E.06116
G1 X66.384 Y132.366 E.04839
G1 X68.329 Y130.421 E.09659
G1 X69.167 Y129.725 E.03825
G1 X70.154 Y129.138 E.04033
G1 X71.199 Y128.725 E.03946
G1 X72.005 Y128.548 E.02898
G1 X66.859 Y123.413 E.25529
G1 X66.234 Y122.697 E.03338
G1 X65.608 Y121.715 E.0409
G1 X65.163 Y120.57 E.04314
G1 X64.974 Y119.566 E.03588
G1 X64.927 Y118.773 E.0279
G1 X64.934 Y113.331 E.19111
G1 X65.049 Y110.638 E.09466
G1 X65.447 Y109.17 E.05341
G1 X66.231 Y107.936 E.05134
G1 X68.215 Y105.947 E.09865
G1 X69.017 Y105.28 E.03663
G1 X69.093 Y105.234 E.00312
M204 S1000
G1 X69.093 Y105.234 F10800
G1 X69.285 Y105.556
M204 S800
G1 F1193.382
G1 X70.18 Y105.021 E.03662
G1 X71.229 Y104.61 E.03956
G1 X72.4 Y104.372 E.04196
G1 X73.553 Y104.342 E.0405
G1 X74.649 Y104.501 E.03889
G1 X75.657 Y104.818 E.03711
G1 X76.612 Y105.295 E.03749
G1 X77.511 Y105.944 E.03894
G1 X78.319 Y106.766 E.04048
G1 X78.925 Y107.631 E.03709
G1 X79.389 Y108.581 E.03713
G1 X79.7 Y109.602 E.03748
G1 X79.844 Y110.642 E.03687
G1 X79.805 Y111.859 E.04276
G1 X79.597 Y112.887 E.03683
G1 X79.234 Y113.861 E.0365
G1 X78.994 Y114.291 E.01729
G1 X90.398 Y125.667 E.56566
G1 X90.808 Y125.431 E.01661
G1 X91.789 Y125.066 E.03676
G1 X92.785 Y124.86 E.03572
G1 X93.854 Y124.808 E.03758
G1 X94.937 Y124.93 E.03827
G1 X96.135 Y125.283 E.04386
G1 X97.206 Y125.823 E.04212
G1 X98.038 Y126.434 E.03625
G1 X98.765 Y127.163 E.03615
G1 X99.439 Y128.105 E.04068
G1 X99.946 Y129.16 E.0411
G1 X100.231 Y130.129 E.03547
G1 X100.367 Y131.105 E.03461
G1 X100.343 Y132.253 E.04032
G1 X100.116 Y133.411 E.04144
G1 X99.529 Y134.794 E.05276
G1 X101.419 Y136.722 E.09481
G1 X105.054 Y136.707 E.12765
G1 X105.306 Y135.764 E.03428
G1 X105.753 Y134.779 E.03799
G1 X106.383 Y133.837 E.0398
G1 X107.168 Y133.009 E.04007
G1 X108.017 Y132.366 E.0374
G1 X108.983 Y131.854 E.03839
G1 X110.165 Y131.468 E.04367
G1 X111.044 Y131.332 E.03123
G1 X111.947 Y131.311 E.03172
G1 X113.105 Y131.465 E.04102
G1 X114.256 Y131.831 E.04241
G1 X115.289 Y132.375 E.041
G1 X116.199 Y133.077 E.04036
G1 X116.955 Y133.896 E.03914
G1 X117.576 Y134.848 E.03992
G1 X118.049 Y135.952 E.04218
G1 X118.234 Y136.706 E.02726
G1 X131.057 Y136.706 E.4503
G1 X131.261 Y135.896 E.02933
G1 X131.701 Y134.874 E.03907
G1 X132.312 Y133.927 E.03958
G1 X133.076 Y133.092 E.03974
G1 X134.005 Y132.374 E.04123
G1 X134.995 Y131.848 E.03937
G1 X135.959 Y131.52 E.03576
G1 X137.325 Y131.311 E.04853
G1 X138.249 Y131.332 E.03246
G1 X139.163 Y131.477 E.0325
G1 X140.307 Y131.853 E.04229
G1 X141.326 Y132.4 E.04061
G1 X142.189 Y133.068 E.03832
G1 X142.966 Y133.91 E.04023
G1 X143.582 Y134.858 E.0397
G1 X143.993 Y135.786 E.03564
G1 X144.237 Y136.707 E.03346
G1 X147.232 Y136.735 E.10518
G1 X147.873 Y136.722 E.02251
G1 X149.761 Y134.794 E.09476
G1 X149.204 Y133.508 E.04921
G1 X148.97 Y132.436 E.03853
G1 X148.913 Y131.339 E.03858
G1 X149.042 Y130.213 E.0398
G1 X149.358 Y129.126 E.03975
G1 X149.848 Y128.112 E.03955
G1 X150.513 Y127.178 E.04026
G1 X151.245 Y126.441 E.03648
G1 X152.099 Y125.814 E.0372
G1 X153.106 Y125.302 E.03967
G1 X154.244 Y124.953 E.0418
G1 X155.352 Y124.812 E.03922
G1 X156.452 Y124.853 E.03866
G1 X157.526 Y125.073 E.0385
G1 X158.487 Y125.433 E.03604
G1 X158.894 Y125.666 E.01647
G1 X170.294 Y114.294 E.56546
G1 X169.706 Y112.924 E.05235
G1 X169.48 Y111.811 E.03988
G1 X169.446 Y110.665 E.04026
G1 X169.591 Y109.601 E.03771
G1 X169.914 Y108.551 E.03858
G1 X170.389 Y107.592 E.03758
G1 X171.017 Y106.713 E.03794
G1 X171.804 Y105.924 E.03913
G1 X172.694 Y105.286 E.03845
G1 X173.638 Y104.816 E.03703
G1 X174.654 Y104.498 E.03739
G1 X175.761 Y104.341 E.03926
G1 X176.895 Y104.372 E.03984
G1 X177.977 Y104.585 E.03873
G1 X179.039 Y104.986 E.03986
G1 X180.009 Y105.554 E.03947
G1 X180.767 Y106.176 E.03443
G1 X183.002 Y108.469 E.11245
G1 X183.606 Y109.582 E.04447
G1 X183.875 Y110.801 E.04384
G1 X183.98 Y113.339 E.0892
G1 X183.988 Y118.749 E.18998
G1 X183.933 Y119.599 E.02991
G1 X183.722 Y120.611 E.0363
G1 X183.299 Y121.635 E.03891
G1 X182.711 Y122.529 E.03758
G1 X176.491 Y128.811 E.31045
G1 X177.05 Y128.838 E.01965
G1 X178.164 Y129.065 E.03992
G1 X179.195 Y129.462 E.0388
G1 X180.161 Y130.035 E.03944
G1 X180.91 Y130.654 E.03412
G1 X183.168 Y132.986 E.11399
G1 X183.738 Y134.058 E.04264
G1 X184.006 Y135.304 E.04476
G1 X184.106 Y137.801 E.08776
G1 X184.113 Y143.237 E.1909
G1 X184.052 Y144.114 E.03087
G1 X183.846 Y145.078 E.03462
G1 X183.372 Y146.197 E.04268
G1 X182.871 Y146.949 E.03173
G1 X182.287 Y147.613 E.03105
G1 X155.876 Y174.024 E1.31164
G1 X155.211 Y174.607 E.03106
G1 X154.467 Y175.103 E.0314
G1 X153.407 Y175.56 E.04054
G1 X152.314 Y175.792 E.03924
G1 X151.473 Y175.845 E.02959
G1 X98.068 Y175.845 E1.87541
G1 X97.218 Y175.791 E.02991
G1 X96.11 Y175.552 E.0398
G1 X95.05 Y175.088 E.04063
G1 X94.321 Y174.598 E.03085
G1 X93.666 Y174.023 E.03061
G1 X67.255 Y147.612 E1.31164
G1 X66.654 Y146.923 E.03211
G1 X66.15 Y146.161 E.03208
G1 X65.669 Y144.987 E.04455
G1 X65.479 Y144.022 E.03454
G1 X65.431 Y143.243 E.02741
G1 X65.437 Y137.801 E.19111
G1 X65.539 Y135.224 E.09057
G1 X65.98 Y133.647 E.0575
G1 X66.664 Y132.619 E.04336
G1 X68.589 Y130.694 E.0956
G1 X69.397 Y130.024 E.03686
G1 X70.307 Y129.483 E.03718
G1 X71.323 Y129.082 E.03836
G1 X72.763 Y128.774 E.05171
G1 X67.129 Y123.15 E.27955
G1 X66.527 Y122.46 E.03216
G1 X65.953 Y121.561 E.03746
G1 X65.521 Y120.451 E.04183
G1 X65.347 Y119.509 E.03364
G1 X65.304 Y118.768 E.02607
G1 X65.311 Y113.339 E.19065
G1 X65.419 Y110.713 E.09229
G1 X65.803 Y109.296 E.05156
G1 X66.512 Y108.188 E.04619
G1 X68.476 Y106.22 E.09764
G1 X69.235 Y105.589 E.03466
M204 S1000
G1 X69.235 Y105.589 F10800
G1 X69.476 Y105.879
M204 S800
G1 F1193.382
G1 X70.359 Y105.353 E.03609
G1 X71.351 Y104.967 E.03738
G1 X72.427 Y104.748 E.03856
G1 X73.516 Y104.718 E.03826
G1 X74.552 Y104.865 E.03675
G1 X75.503 Y105.162 E.03499
G1 X76.405 Y105.61 E.03537
G1 X77.253 Y106.22 E.03668
G1 X78.039 Y107.02 E.03938
G1 X78.593 Y107.81 E.03388
G1 X79.033 Y108.707 E.03509
G1 X79.329 Y109.669 E.03535
G1 X79.468 Y110.677 E.03573
G1 X79.429 Y111.83 E.04051
M73 P1 R69
G1 X79.23 Y112.796 E.03464
G1 X78.887 Y113.714 E.03441
G1 X78.529 Y114.346 E.02551
G1 X90.338 Y126.141 E.58612
G1 X90.956 Y125.779 E.02515
G1 X91.907 Y125.424 E.03565
G1 X92.846 Y125.232 E.03366
G1 X93.856 Y125.186 E.0355
G1 X94.877 Y125.302 E.03608
G1 X96.011 Y125.639 E.04154
G1 X97.021 Y126.152 E.03978
G1 X97.802 Y126.729 E.0341
G1 X98.486 Y127.417 E.03407
G1 X99.122 Y128.31 E.0385
G1 X99.599 Y129.308 E.03884
G1 X99.866 Y130.221 E.0334
G1 X99.992 Y131.141 E.03261
G1 X99.967 Y132.228 E.03818
G1 X99.749 Y133.321 E.03914
G1 X99.334 Y134.381 E.03997
G1 X99.054 Y134.851 E.01921
G1 X101.275 Y137.096 E.1109
G1 X105.344 Y137.084 E.14289
G1 X105.657 Y135.904 E.04287
G1 X106.075 Y134.975 E.03577
G1 X106.669 Y134.083 E.03763
G1 X107.409 Y133.299 E.03786
G1 X108.208 Y132.691 E.03526
G1 X109.116 Y132.207 E.03613
G1 X110.238 Y131.839 E.04147
G1 X111.089 Y131.706 E.03025
G1 X111.94 Y131.688 E.02989
G1 X113.037 Y131.836 E.03887
G1 X114.124 Y132.185 E.04009
G1 X115.097 Y132.701 E.03868
G1 X115.955 Y133.365 E.0381
G1 X116.666 Y134.139 E.03691
G1 X117.251 Y135.039 E.0377
G1 X117.696 Y136.084 E.03989
G1 X117.936 Y137.084 E.03611
G1 X131.353 Y137.084 E.47116
G1 X131.614 Y136.029 E.03817
G1 X132.027 Y135.065 E.03683
G1 X132.602 Y134.169 E.03739
G1 X133.32 Y133.38 E.03746
G1 X134.223 Y132.682 E.04008
G1 X135.132 Y132.2 E.03613
G1 X136.034 Y131.89 E.03349
G1 X137.333 Y131.688 E.04616
G1 X138.204 Y131.706 E.03059
G1 X139.06 Y131.84 E.03043
G1 X140.174 Y132.206 E.04118
G1 X141.109 Y132.708 E.03727
G1 X141.923 Y133.336 E.0361
G1 X142.659 Y134.13 E.03802
G1 X143.243 Y135.025 E.03753
G1 X143.642 Y135.925 E.03457
G1 X143.945 Y137.084 E.04207
G1 X147.225 Y137.112 E.11519
G1 X148.016 Y137.096 E.02778
G1 X150.238 Y134.851 E.11092
G1 X149.968 Y134.404 E.01834
G1 X149.569 Y133.411 E.03758
G1 X149.346 Y132.399 E.03639
G1 X149.29 Y131.365 E.03636
G1 X149.409 Y130.302 E.03756
G1 X149.705 Y129.274 E.03757
G1 X150.165 Y128.317 E.03729
G1 X150.793 Y127.432 E.03811
G1 X151.481 Y126.736 E.03437
G1 X152.285 Y126.143 E.03508
