; generated by PrusaSlicer 2.7.4+win64 on 2024-05-06 at 06:56:27 UTC


;
;
; 

; external perimeters extrusion width = 0.45mm
; perimeters extrusion width = 0.45mm
; infill extrusion width = 0.45mm
; solid infill extrusion width = 0.45mm
; top infill extrusion width = 0.40mm
; first layer extrusion width = 0.42mm

; external perimeters extrusion width = 0.45mm
; perimeters extrusion width = 0.45mm
; infill extrusion width = 0.45mm
; solid infill extrusion width = 0.45mm
; top infill extrusion width = 0.40mm
; first layer extrusion width = 0.42mm

M73 P0 R13
M73 Q0 S13
M201 X1000 Y1000 Z200 E5000 ; sets maximum accelerations, mm/sec^2
M203 X200 Y200 Z12 E120 ; sets maximum feedrates, mm / sec
M204 S1250 T1250 ; sets acceleration (S) and retract acceleration (R), mm/sec^2
M205 X8.00 Y8.00 Z0.40 E4.50 ; sets the jerk limits, mm/sec
M205 S0 T0 ; sets the minimum extruding and travel feed rate, mm/sec

; printing object caster-wheel-case.STL id:0 copy 0
; stop printing object caster-wheel-case.STL id:0 copy 0
; printing object caster-wheel-case.STL id:1 copy 0
; stop printing object caster-wheel-case.STL id:1 copy 0

;TYPE:Custom
M862.3 P "MK3S" ; printer model check
M862.1 P0.4 ; nozzle diameter check
M115 U3.13.3 ; tell printer latest fw version
G90 ; use absolute coordinates
M83 ; extruder relative mode
M104 S230 ; set extruder temp
M140 S85 ; set bed temp
M190 S85 ; wait for bed temp
M109 S230 ; wait for extruder temp
G28 W ; home all without mesh bed level
G80 X26.7865 Y90.6911 W26.6108 H35.0019 ; mesh bed levelling

G1 Z0.2 F720
G1 Y-3 F1000 ; go outside print area
G92 E0
G1 X60 E9 F1000 ; intro line
G1 X100 E12.5 F1000 ; intro line
M73 P0 R12

G92 E0
M221 S95

; Don't change E values below. Excessive value can damage the printer.
M907 E430 ; set extruder motor current
G21 ; set units to millimeters
G90 ; use absolute coordinates
M83 ; use relative distances for extrusion

M900 K0.08 ; Filament gcode LA 1.5
M900 K45 ; Filament gcode LA 1.0




M107
;LAYER_CHANGE
;Z:0.2
;HEIGHT:0.2
G1 E-1 F2100
G1 Z.4 F720
G1 X36.256 Y91.59 F10800
G1 Z.2 F720
M73 Q0 S12
G1 E1 F2100
M204 S800
;TYPE:Skirt/Brim
;WIDTH:0.42
G1 F1200
G1 X37.747 Y91.105 E.04916
G1 X38.699 Y90.938 E.03031
G1 X39.838 Y90.881 E.03576
G1 X40.854 Y90.951 E.03193
G1 X41.915 Y91.154 E.03387
G1 X42.939 Y91.484 E.03373
G1 X43.985 Y91.973 E.0362
G1 X50.457 Y95.849 E.23653
M73 Q1 S12
G1 X51.367 Y96.686 E.03877
M73 P1 R12
G1 X51.976 Y97.618 E.03491
G1 X52.266 Y98.347 E.0246
G1 X52.467 Y99.447 E.03506
G1 X53.209 Y116.487 E.53478
G1 X53.117 Y117.597 E.03492
G1 X52.715 Y118.767 E.03879
G1 X52.106 Y119.699 E.03491
G1 X51.196 Y120.537 E.03879
G1 X44.441 Y124.559 E.2465
G1 X43.591 Y124.935 E.02914
G1 X42.582 Y125.249 E.03313
G1 X41.593 Y125.434 E.03155
G1 X40.57 Y125.505 E.03215
G1 X39.438 Y125.447 E.03554
G1 X38.291 Y125.237 E.03656
G1 X37.26 Y124.908 E.03393
G1 X36.254 Y124.443 E.03475
G1 X29.726 Y120.537 E.23852
G1 X28.817 Y119.699 E.03876
G1 X28.208 Y118.767 E.03491
G1 X27.918 Y118.038 E.0246
G1 X27.717 Y116.938 E.03506
G1 X26.975 Y99.898 E.53478
G1 X27.067 Y98.788 E.03492
G1 X27.469 Y97.618 E.03879
G1 X28.077 Y96.686 E.03489
G1 X28.988 Y95.849 E.03879
G1 X35.376 Y92.021 E.2335
G1 X36.202 Y91.617 E.02883
M204 S1000
G1 X36.202 Y91.617 F10800
G1 X36.357 Y91.966
M204 S800
G1 F1200
G1 X36.722 Y91.804 E.01252
G1 X37.692 Y91.502 E.03185
G1 X38.737 Y91.313 E.0333
G1 X39.823 Y91.258 E.03409
G1 X40.801 Y91.325 E.03074
G1 X41.798 Y91.514 E.03182
G1 X42.786 Y91.828 E.0325
G1 X43.747 Y92.272 E.03319
G1 X50.251 Y96.164 E.23765
G1 X51.07 Y96.918 E.0349
G1 X51.644 Y97.798 E.03294
G1 X51.909 Y98.47 E.02265
G1 X52.09 Y99.464 E.03168
G1 X52.832 Y116.487 E.53425
G1 X52.745 Y117.535 E.03297
G1 X52.383 Y118.587 E.03488
G1 X51.809 Y119.467 E.03294
G1 X50.99 Y120.221 E.0349
G1 X44.284 Y124.216 E.24475
G1 X43.459 Y124.582 E.0283
G1 X42.506 Y124.879 E.0313
G1 X41.54 Y125.061 E.03082
G1 X40.556 Y125.128 E.03092
G1 X39.476 Y125.072 E.03391
G1 X38.386 Y124.872 E.03475
G1 X37.398 Y124.557 E.03251
G1 X36.437 Y124.113 E.03319
G1 X29.933 Y120.221 E.23765
G1 X29.114 Y119.467 E.0349
G1 X28.539 Y118.587 E.03296
M73 Q2 S12
G1 X28.274 Y117.915 E.02265
G1 X28.093 Y116.922 E.03165
G1 X27.352 Y99.898 E.53428
M73 P2 R12
G1 X27.439 Y98.85 E.03297
G1 X27.8 Y97.798 E.03487
G1 X28.375 Y96.918 E.03296
G1 X29.194 Y96.164 E.0349
G1 X35.9 Y92.169 E.24475
G1 X36.302 Y91.991 E.01378
M204 S1000
;WIPE_START
G1 F8640
G1 X36.357 Y91.966 E-.01395
G1 X36.722 Y91.804 E-.09221
G1 X37.692 Y91.502 E-.23458
G1 X38.737 Y91.313 E-.24521
G1 X39.823 Y91.258 E-.25108
G1 X40.527 Y91.306 E-.16297
;WIPE_END
G1 Z.4 F720
; printing object caster-wheel-case.STL id:0 copy 0
G1 X47.071 Y115.443 F10800
G1 Z.2 F720
G1 E1 F2100
M204 S800
;TYPE:Perimeter
;WIDTH:0.419999
G1 F1200
G1 X46.746 Y115.898 E.01753
G1 X46.589 Y116.425 E.01724
G1 X46.6 Y116.81 E.01208
G1 X46.652 Y117.156 E.01097
G1 X46.859 Y117.623 E.01602
G1 X47.103 Y117.888 E.01129
G1 X46.641 Y117.886 E.01449
G1 X46.149 Y118.035 E.01612
G1 X45.67 Y118.359 E.01813
G1 X45.394 Y118.686 E.01342
G1 X44.872 Y119.612 E.03333
G1 X44.478 Y120.129 E.02038
G1 X44.022 Y120.594 E.02042
G1 X43.512 Y121.001 E.02046
G1 X42.964 Y121.338 E.02017
G1 X42.382 Y121.604 E.02006
G1 X41.756 Y121.804 E.02061
G1 X41.113 Y121.924 E.02051
G1 X40.461 Y121.964 E.02048
G1 X39.81 Y121.924 E.02045
G1 X39.165 Y121.803 E.02058
G1 X38.541 Y121.605 E.02053
G1 X37.956 Y121.337 E.02018
G1 X37.411 Y121.001 E.02007
G1 X36.899 Y120.593 E.02053
G1 X36.444 Y120.128 E.0204
G1 X36.051 Y119.612 E.02034
G1 X35.507 Y118.651 E.03462
G1 X35.136 Y118.253 E.01706
G1 X34.678 Y117.994 E.0165
G1 X34.122 Y117.877 E.01781
G1 X33.837 Y117.888 E.00894
G1 X34.149 Y117.465 E.01648
G1 X34.234 Y117.269 E.0067
G1 X34.347 Y116.694 E.01837
G1 X34.275 Y116.145 E.01736
G1 X34.052 Y115.696 E.01572
G1 X33.846 Y115.417 E.01087
G1 X34.216 Y115.422 E.0116
G1 X34.817 Y115.254 E.01957
G1 X35.253 Y114.946 E.01674
G1 X35.529 Y114.619 E.01342
G1 X36.051 Y113.693 E.03333
G1 X36.445 Y113.177 E.02036
G1 X36.9 Y112.712 E.0204
G1 X37.416 Y112.301 E.02068
G1 X37.959 Y111.967 E.01999
G1 X38.54 Y111.701 E.02004
G1 X39.169 Y111.501 E.02069
G1 X39.81 Y111.381 E.02045
G1 X40.461 Y111.341 E.02045
G1 X41.113 Y111.381 E.02048
G1 X41.753 Y111.501 E.02042
G1 X42.375 Y111.697 E.02045
G1 X42.966 Y111.969 E.0204
G1 X43.517 Y112.307 E.02027
G1 X44.024 Y112.712 E.02035
G1 X44.478 Y113.177 E.02038
G1 X44.872 Y113.693 E.02036
G1 X45.415 Y114.654 E.03461
G1 X45.786 Y115.053 E.01708
G1 X46.245 Y115.311 E.01651
G1 X46.752 Y115.421 E.01627
G1 X47.061 Y115.418 E.00969
M204 S1000
G1 X47.061 Y115.418 F10800
G1 X47.046 Y116.195
M204 S800
;TYPE:External perimeter
G1 F1200
G1 X47.105 Y116.013 E.006
G1 X47.428 Y115.6 E.01644
;WIDTH:0.431496
G1 X47.879 Y115.362 E.01648
G1 X48.546 Y115.304 E.02163
;WIDTH:0.41729
G1 X49.018 Y115.415 E.01509
;WIDTH:0.423881
G1 X49.443 Y115.72 E.01657
G1 X49.693 Y116.088 E.01409
;WIDTH:0.423178
G1 X49.811 Y116.517 E.01407
;WIDTH:0.422418
G1 X49.781 Y116.97 E.01433
;WIDTH:0.421828
G1 X49.6 Y117.391 E.01444
;WIDTH:0.421369
G1 X49.289 Y117.729 E.01445
;WIDTH:0.420898
G1 X48.884 Y117.943 E.0144
;WIDTH:0.420413
G1 X48.437 Y118.007 E.01417
;WIDTH:0.433812
G1 X47.852 Y117.94 E.01914
G1 X47.534 Y117.78 E.01157
;WIDTH:0.420716
G1 X47.175 Y117.414 E.01611
;WIDTH:0.419999
G1 X46.983 Y116.939 E.01606
G1 X46.972 Y116.427 E.01606
G1 X47.028 Y116.252 E.00576
M204 S1000
;WIPE_START
G1 F8640
G1 X47.046 Y116.195 E-.0138
G1 X47.105 Y116.013 E-.04418
G1 X47.428 Y115.6 E-.12106
G1 X47.879 Y115.362 E-.11775
G1 X48.546 Y115.304 E-.15459
G1 X49.018 Y115.415 E-.11196
G1 X49.443 Y115.72 E-.12079
G1 X49.693 Y116.088 E-.10273
G1 X49.811 Y116.517 E-.10274
G1 X49.781 Y116.97 E-.10483
G1 X49.771 Y116.992 E-.00557
;WIPE_END
G1 Z.4 F720
G1 X46.299 Y114.911 F10800
G1 Z.2 F720
G1 E1 F2100
M204 S800
G1 F1200
G1 X46.369 Y114.95 E.00251
G1 X46.81 Y115.048 E.01416
G1 X47.341 Y115.012 E.01669
;WIDTH:0.430837
G1 X47.909 Y114.958 E.0184
G1 X48.568 Y114.936 E.02127
;WIDTH:0.42606
G1 X49.009 Y115.01 E.01425
G1 X49.3 Y115.137 E.01012
;WIDTH:0.424571
G1 X49.698 Y115.439 E.01585
;WIDTH:0.420294
G1 X49.974 Y115.812 E.01456
;WIDTH:0.427442
G1 X50.136 Y116.212 E.0138
G1 X50.191 Y116.525 E.01016
;WIDTH:0.422418
G1 X50.167 Y116.946 E.01331
;WIDTH:0.42815
G1 X50.053 Y117.334 E.01295
G1 X49.892 Y117.632 E.01085
;WIDTH:0.421369
G1 X49.54 Y118.013 E.01632
;WIDTH:0.42052
G1 X49.111 Y118.258 E.01551
;WIDTH:0.427803
G1 X48.776 Y118.355 E.01116
G1 X48.415 Y118.373 E.01157
;WIDTH:0.433812
G1 X47.292 Y118.268 E.03666
;WIDTH:0.419999
G1 X46.702 Y118.26 E.0185
G1 X46.266 Y118.393 E.01429
G1 X45.897 Y118.66 E.01428
G1 X45.722 Y118.872 E.00862
G1 X45.187 Y119.82 E.03413
G1 X44.763 Y120.376 E.02192
G1 X44.276 Y120.874 E.02184
G1 X43.73 Y121.31 E.02191
G1 X43.141 Y121.671 E.02166
G1 X42.519 Y121.957 E.02147
G1 X41.848 Y122.17 E.02207
G1 X41.159 Y122.299 E.02198
G1 X40.461 Y122.342 E.02193
G1 X39.764 Y122.299 E.0219
G1 X39.073 Y122.17 E.02204
G1 X38.405 Y121.957 E.02198
G1 X37.778 Y121.67 E.02162
G1 X37.194 Y121.31 E.02151
G1 X36.646 Y120.873 E.02198
G1 X36.159 Y120.375 E.02184
G1 X35.735 Y119.82 E.0219
G1 X35.2 Y118.872 E.03413
G1 X34.901 Y118.549 E.0138
G1 X34.503 Y118.328 E.01427
G1 X34.063 Y118.249 E.01402
G1 X33.741 Y118.277 E.01013
;WIDTH:0.440871
G1 X32.648 Y118.373 E.03631
;WIDTH:0.419104
G1 X32.123 Y118.354 E.01643
;WIDTH:0.428427
G1 X31.651 Y118.183 E.01609
G1 X31.344 Y117.979 E.01182
;WIDTH:0.420988
G1 X31 Y117.588 E.01637
;WIDTH:0.421828
G1 X30.786 Y117.102 E.01673
;WIDTH:0.427828
G1 X30.737 Y116.812 E.00941
G1 X30.755 Y116.364 E.01435
;WIDTH:0.419324
G1 X30.916 Y115.87 E.01626
;WIDTH:0.420188
G1 X31.225 Y115.44 E.01661
;WIDTH:0.424543
G1 X31.651 Y115.122 E.01687
;WIDTH:0.430916
G1 X32.148 Y114.953 E.01694
G1 X32.492 Y114.934 E.01112
;WIDTH:0.428117
G1 X33.037 Y114.965 E.01748
G1 X33.631 Y115.038 E.01917
;WIDTH:0.419999
G1 X34.221 Y115.045 E.0185
G1 X34.656 Y114.912 E.01426
G1 X35.026 Y114.645 E.01431
G1 X35.2 Y114.434 E.00858
G1 X35.735 Y113.485 E.03416
G1 X36.159 Y112.929 E.02192
G1 X36.647 Y112.431 E.02186
G1 X37.199 Y111.992 E.02211
G1 X37.781 Y111.634 E.02142
G1 X38.404 Y111.349 E.02148
G1 X39.077 Y111.134 E.02215
G1 X39.764 Y111.006 E.02191
G1 X40.461 Y110.963 E.0219
G1 X41.159 Y111.006 E.02193
G1 X41.845 Y111.134 E.02188
G1 X42.511 Y111.345 E.0219
G1 X43.144 Y111.635 E.02183
G1 X43.734 Y111.998 E.02172
G1 X44.277 Y112.432 E.0218
G1 X44.764 Y112.93 E.02184
G1 X45.187 Y113.485 E.02188
G1 X45.722 Y114.434 E.03416
G1 X46.022 Y114.757 E.01382
G1 X46.246 Y114.882 E.00804
M204 S1000
;WIPE_START
G1 F8640
G1 X46.299 Y114.911 E-.01395
G1 X46.369 Y114.95 E-.0185
G1 X46.81 Y115.048 E-.10431
G1 X47.341 Y115.012 E-.12289
G1 X47.909 Y114.958 E-.13174
G1 X48.568 Y114.936 E-.15225
G1 X49.009 Y115.01 E-.10325
G1 X49.3 Y115.137 E-.07331
G1 X49.698 Y115.439 E-.11536
G1 X49.974 Y115.812 E-.10714
G1 X50.067 Y116.042 E-.0573
;WIPE_END
G1 Z.4 F720
G1 X33.826 Y116.082 F10800
G1 Z.2 F720
M73 Q3 S12
G1 E1 F2100
M73 P3 R12
M204 S800
G1 F1200
G1 X33.909 Y116.241 E.00562
G1 X33.968 Y116.739 E.01572
G1 X33.838 Y117.251 E.01656
G1 X33.532 Y117.669 E.01624
;WIDTH:0.440871
G1 X33.101 Y117.935 E.01676
G1 X32.655 Y118.002 E.01492
;WIDTH:0.419104
G1 X32.216 Y117.989 E.01374
;WIDTH:0.428427
G1 X31.823 Y117.839 E.01348
G1 X31.584 Y117.688 E.00906
;WIDTH:0.419827
G1 X31.29 Y117.337 E.01435
;WIDTH:0.419656
G1 X31.129 Y116.907 E.01438
;WIDTH:0.419501
G1 X31.121 Y116.449 E.01434
;WIDTH:0.419864
G1 X31.259 Y116.027 E.01392
G1 X31.547 Y115.652 E.01482
;WIDTH:0.420866
G1 X31.939 Y115.402 E.01461
G1 X32.452 Y115.299 E.01644
;WIDTH:0.428158
G1 X32.983 Y115.346 E.01708
G1 X33.44 Y115.556 E.01611
;WIDTH:0.419999
G1 X33.671 Y115.787 E.01024
G1 X33.798 Y116.029 E.00857
M204 S1000
;WIPE_START
G1 F8640
G1 X33.826 Y116.082 E-.01384
G1 X33.909 Y116.241 E-.04141
G1 X33.968 Y116.739 E-.11579
G1 X33.838 Y117.251 E-.12197
G1 X33.532 Y117.669 E-.11962
G1 X33.101 Y117.935 E-.11695
G1 X32.655 Y118.002 E-.10414
G1 X32.216 Y117.989 E-.10141
G1 X31.823 Y117.839 E-.09713
G1 X31.584 Y117.688 E-.06528
G1 X31.299 Y117.347 E-.10246
;WIPE_END
G1 Z.4 F720
G1 X42.172 Y111.811 F10800
G1 Z.2 F720
G1 E1 F2100
M204 S800
;TYPE:Solid infill
;WIDTH:0.429313
G1 F1200
G1 X46.357 Y115.997 E.19018
G1 X46.286 Y116.218 E.00746
G1 X46.25 Y116.436 E.0071
G1 X41.639 Y111.824 E.20953
G1 X40.981 Y111.713 E.02144
G1 X46.272 Y117.004 E.24041
G1 X46.306 Y117.198 E.00633
G1 X46.47 Y117.579 E.01333
G1 X46.338 Y117.617 E.00441
G1 X40.406 Y111.684 E.26955
G1 X39.891 Y111.716 E.01658
G1 X45.933 Y117.758 E.27453
G1 X45.613 Y117.985 E.01261
G1 X39.426 Y111.798 E.28112
G1 X39.252 Y111.83 E.00568
G1 X38.994 Y111.912 E.0087
G1 X45.319 Y118.237 E.28739
G1 X45.134 Y118.461 E.00933
G1 X45.084 Y118.549 E.00325
G1 X38.588 Y112.052 E.29518
G1 X38.213 Y112.224 E.01326
G1 X44.887 Y118.897 E.30322
G1 X44.689 Y119.246 E.01289
G1 X37.866 Y112.423 E.31002
G1 X37.536 Y112.639 E.01267
G1 X44.472 Y119.576 E.31517
G1 X44.236 Y119.886 E.01252
G1 X37.231 Y112.882 E.31826
G1 X36.95 Y113.146 E.01239
G1 X43.968 Y120.164 E.31888
G1 X43.685 Y120.429 E.01246
G1 X36.682 Y113.425 E.31822
G1 X36.446 Y113.735 E.01252
M73 Q4 S12
G1 X43.381 Y120.671 E.31513
G1 X43.05 Y120.886 E.01268
M73 P4 R12
G1 X36.23 Y114.066 E.30988
G1 X36.032 Y114.415 E.01289
G1 X42.702 Y121.085 E.30306
G1 X42.327 Y121.256 E.01324
G1 X35.835 Y114.764 E.29498
G1 X35.789 Y114.844 E.00296
G1 X35.598 Y115.074 E.00961
G1 X41.92 Y121.396 E.28725
G1 X41.673 Y121.474 E.00832
G1 X41.487 Y121.509 E.00608
G1 X35.307 Y115.329 E.2808
G1 X35.136 Y115.46 E.00692
G1 X34.981 Y115.55 E.00576
G1 X41.022 Y121.59 E.27446
G1 X40.507 Y121.621 E.01658
G1 X34.577 Y115.692 E.26942
G1 X34.457 Y115.726 E.00401
G1 X34.606 Y116.068 E.01199
G1 X34.636 Y116.297 E.00742
G1 X39.931 Y121.592 E.24059
G1 X39.27 Y121.478 E.02155
G1 X34.67 Y116.877 E.20903
G1 X34.57 Y117.324 E.01472
G1 X38.734 Y121.488 E.1892
M204 S1000
;WIPE_START
G1 F8640
G1 X35.672 Y118.426 E-1
;WIPE_END
G1 Z.4 F720
; stop printing object caster-wheel-case.STL id:0 copy 0
; printing object caster-wheel-case.STL id:1 copy 0
G1 X46.332 Y98.523 F10800
G1 Z.2 F720
G1 E1 F2100
M204 S800
;TYPE:Perimeter
;WIDTH:0.419999
G1 F1200
G1 X46.007 Y98.977 E.01751
G1 X45.85 Y99.505 E.01727
G1 X45.861 Y99.89 E.01208
G1 X45.913 Y100.236 E.01097
G1 X46.12 Y100.703 E.01602
G1 X46.364 Y100.968 E.01129
G1 X45.902 Y100.966 E.01449
G1 X45.41 Y101.115 E.01612
G1 X44.931 Y101.439 E.01813
G1 X44.655 Y101.766 E.01342
G1 X44.133 Y102.692 E.03333
G1 X43.739 Y103.209 E.02038
G1 X43.283 Y103.674 E.02042
G1 X42.773 Y104.081 E.02046
G1 X42.224 Y104.418 E.0202
G1 X41.643 Y104.684 E.02004
G1 X41.017 Y104.884 E.02061
G1 X40.374 Y105.004 E.02051
G1 X39.722 Y105.044 E.02048
G1 X39.071 Y105.004 E.02045
G1 X38.426 Y104.883 E.02058
G1 X37.802 Y104.685 E.02053
G1 X37.217 Y104.416 E.02019
G1 X36.672 Y104.081 E.02006
G1 X36.16 Y103.673 E.02053
G1 X35.705 Y103.208 E.0204
G1 X35.312 Y102.692 E.02034
G1 X34.768 Y101.731 E.03462
G1 X34.397 Y101.332 E.01708
G1 X33.939 Y101.074 E.01648
G1 X33.383 Y100.957 E.01781
G1 X33.098 Y100.968 E.00894
G1 X33.41 Y100.545 E.01648
G1 X33.495 Y100.349 E.0067
G1 X33.608 Y99.774 E.01837
G1 X33.536 Y99.225 E.01736
G1 X33.313 Y98.776 E.01572
G1 X33.107 Y98.497 E.01087
G1 X33.477 Y98.502 E.0116
G1 X34.078 Y98.334 E.01957
G1 X34.514 Y98.026 E.01674
G1 X34.79 Y97.699 E.01342
G1 X35.312 Y96.773 E.03333
G1 X35.706 Y96.256 E.02038
G1 X36.161 Y95.792 E.02038
G1 X36.677 Y95.381 E.02068
G1 X37.22 Y95.047 E.01999
G1 X37.801 Y94.781 E.02004
G1 X38.43 Y94.58 E.0207
G1 X39.071 Y94.461 E.02044
G1 X39.722 Y94.421 E.02045
G1 X40.374 Y94.461 E.02048
G1 X41.014 Y94.58 E.02041
G1 X41.635 Y94.777 E.02043
G1 X42.227 Y95.049 E.02043
G1 X42.777 Y95.387 E.02024
G1 X43.285 Y95.792 E.02037
G1 X43.739 Y96.257 E.02038
G1 X44.133 Y96.773 E.02036
G1 X44.676 Y97.734 E.03461
G1 X45.047 Y98.133 E.01708
G1 X45.505 Y98.391 E.01648
G1 X46.013 Y98.501 E.0163
G1 X46.322 Y98.498 E.00969
M204 S1000
G1 X46.322 Y98.498 F10800
G1 X46.307 Y99.275
M204 S800
;TYPE:External perimeter
G1 F1200
G1 X46.366 Y99.093 E.006
G1 X46.689 Y98.68 E.01644
;WIDTH:0.431496
G1 X47.14 Y98.442 E.01648
