; generated by PrusaSlicer 2.7.4+win64 on 2024-05-09 at 08:41:41 UTC


;
;
; 

; external perimeters extrusion width = 0.45mm
; perimeters extrusion width = 0.45mm
; infill extrusion width = 0.45mm
; solid infill extrusion width = 0.45mm
; top infill extrusion width = 0.40mm
; first layer extrusion width = 0.42mm

; external perimeters extrusion width = 0.45mm
; perimeters extrusion width = 0.45mm
; infill extrusion width = 0.45mm
; solid infill extrusion width = 0.45mm
; top infill extrusion width = 0.40mm
; first layer extrusion width = 0.42mm

M73 P0 R13
M73 Q0 S13
M201 X1000 Y1000 Z200 E5000 ; sets maximum accelerations, mm/sec^2
M203 X200 Y200 Z12 E120 ; sets maximum feedrates, mm / sec
M204 S1250 T1250 ; sets acceleration (S) and retract acceleration (R), mm/sec^2
M205 X8.00 Y8.00 Z0.40 E4.50 ; sets the jerk limits, mm/sec
M205 S0 T0 ; sets the minimum extruding and travel feed rate, mm/sec

; printing object caster-wheel-case-8.2mm.STL id:1 copy 0
; stop printing object caster-wheel-case-8.2mm.STL id:1 copy 0
; printing object caster-wheel-case-8.2mm.STL id:0 copy 0
; stop printing object caster-wheel-case-8.2mm.STL id:0 copy 0

;TYPE:Custom
M862.3 P "MK3S" ; printer model check
M862.1 P0.4 ; nozzle diameter check
M115 U3.13.3 ; tell printer latest fw version
G90 ; use absolute coordinates
M83 ; extruder relative mode
M104 S230 ; set extruder temp
M140 S85 ; set bed temp
M190 S85 ; wait for bed temp
M109 S230 ; wait for extruder temp
G28 W ; home all without mesh bed level
G80 X68.5915 Y101.447 W26.97 H33.0077 ; mesh bed levelling

G1 Z0.2 F720
G1 Y-3 F1000 ; go outside print area
G92 E0
G1 X60 E9 F1000 ; intro line
G1 X100 E12.5 F1000 ; intro line
M73 P0 R12

G92 E0
M221 S95

; Don't change E values below. Excessive value can damage the printer.
M907 E430 ; set extruder motor current
G21 ; set units to millimeters
G90 ; use absolute coordinates
M83 ; use relative distances for extrusion

M900 K0.08 ; Filament gcode LA 1.5
M900 K45 ; Filament gcode LA 1.0




M107
;LAYER_CHANGE
;Z:0.2
;HEIGHT:0.2
G1 E-1 F2100
M73 Q0 S12
G1 Z.4 F720
G1 X70.793 Y106.604 F10800
G1 Z.2 F720
G1 E1 F2100
M204 S800
;TYPE:Skirt/Brim
;WIDTH:0.42
G1 F1200
G1 X77.181 Y102.776 E.2335
G1 X78.061 Y102.346 E.03071
M73 Q1 S12
G1 X79.552 Y101.86 E.04917
G1 X80.504 Y101.694 E.0303
G1 X81.643 Y101.637 E.03576
G1 X82.659 Y101.707 E.03193
M73 P1 R12
G1 X83.72 Y101.91 E.03387
G1 X84.729 Y102.233 E.03322
G1 X85.734 Y102.698 E.03472
G1 X92.262 Y106.604 E.23852
G1 X93.172 Y107.442 E.03879
G1 X93.624 Y108.084 E.02462
G1 X94.071 Y109.103 E.03489
G1 X94.267 Y110.121 E.0325
G1 X95.373 Y125.249 E.47559
G1 X95.281 Y126.358 E.03489
G1 X94.879 Y127.528 E.03879
G1 X94.271 Y128.46 E.03489
G1 X93.36 Y129.298 E.03881
G1 X86.606 Y133.32 E.24647
G1 X85.755 Y133.697 E.02918
G1 X84.746 Y134.011 E.03313
G1 X83.757 Y134.195 E.03154
G1 X82.735 Y134.266 E.03212
G1 X81.602 Y134.209 E.03557
G1 X80.455 Y133.998 E.03657
G1 X79.424 Y133.669 E.03393
G1 X78.419 Y133.205 E.03471
G1 X71.891 Y129.298 E.23854
G1 X70.981 Y128.46 E.03879
G1 X70.529 Y127.819 E.02459
G1 X70.082 Y126.799 E.03492
G1 X69.886 Y125.781 E.0325
G1 X68.78 Y110.653 E.47559
G1 X68.872 Y109.544 E.03489
G1 X69.274 Y108.374 E.03879
G1 X69.882 Y107.442 E.03489
G1 X70.748 Y106.645 E.0369
M204 S1000
G1 X70.748 Y106.645 F10800
G1 X70.999 Y106.92
M204 S800
G1 F1200
G1 X77.705 Y102.925 E.24475
G1 X78.527 Y102.56 E.0282
G1 X79.497 Y102.258 E.03185
G1 X80.542 Y102.069 E.0333
G1 X81.628 Y102.013 E.0341
G1 X82.606 Y102.08 E.03074
G1 X83.603 Y102.269 E.03182
G1 X84.591 Y102.584 E.03251
G1 X85.552 Y103.028 E.03319
G1 X92.056 Y106.92 E.23765
G1 X92.875 Y107.674 E.0349
G1 X93.292 Y108.263 E.02263
G1 X93.714 Y109.225 E.03294
G1 X93.891 Y110.149 E.0295
G1 X94.996 Y125.249 E.47472
G1 X94.909 Y126.296 E.03294
G1 X94.548 Y127.349 E.0349
G1 X93.973 Y128.229 E.03296
G1 X93.154 Y128.982 E.03488
G1 X86.448 Y132.978 E.24476
G1 X85.623 Y133.344 E.0283
G1 X84.671 Y133.641 E.03127
G1 X83.704 Y133.822 E.03085
G1 X82.72 Y133.889 E.03092
G1 X81.64 Y133.833 E.03391
G1 X80.55 Y133.633 E.03475
G1 X79.562 Y133.318 E.03251
G1 X78.601 Y132.875 E.03318
G1 X72.097 Y128.982 E.23767
G1 X71.278 Y128.229 E.03488
M73 Q2 S12
G1 X70.861 Y127.639 E.02265
M73 P2 R12
G1 X70.439 Y126.677 E.03294
G1 X70.262 Y125.754 E.02947
G1 X69.157 Y110.653 E.47475
G1 X69.244 Y109.606 E.03294
G1 X69.605 Y108.554 E.03487
G1 X70.18 Y107.674 E.03296
G1 X70.955 Y106.961 E.03302
M204 S1000
;WIPE_START
G1 F8640
G1 X70.999 Y106.92 E-.01389
G1 X74.668 Y104.734 E-.98611
;WIPE_END
G1 Z.4 F720
; printing object caster-wheel-case-8.2mm.STL id:0 copy 0
G1 X89.235 Y124.205 F10800
G1 Z.2 F720
G1 E1 F2100
M204 S800
;TYPE:Perimeter
;WIDTH:0.419999
G1 F1200
G1 X88.91 Y124.659 E.01751
G1 X88.753 Y125.187 E.01727
G1 X88.764 Y125.572 E.01208
G1 X88.817 Y125.918 E.01098
G1 X89.023 Y126.384 E.01598
G1 X89.268 Y126.65 E.01134
G1 X88.806 Y126.648 E.01449
G1 X88.313 Y126.797 E.01615
G1 X87.834 Y127.121 E.01813
G1 X87.558 Y127.448 E.01342
G1 X87.036 Y128.374 E.03333
G1 X86.642 Y128.89 E.02036
G1 X86.187 Y129.355 E.0204
G1 X85.677 Y129.762 E.02046
G1 X85.128 Y130.1 E.02021
G1 X84.547 Y130.366 E.02004
G1 X83.92 Y130.566 E.02064
G1 X83.277 Y130.686 E.02051
G1 X82.626 Y130.726 E.02045
G1 X81.975 Y130.686 E.02045
G1 X81.329 Y130.565 E.02061
G1 X80.705 Y130.366 E.02054
G1 X80.121 Y130.098 E.02015
G1 X79.575 Y129.763 E.02008
G1 X79.063 Y129.354 E.02055
G1 X78.609 Y128.89 E.02035
G1 X78.215 Y128.374 E.02036
G1 X77.672 Y127.413 E.03461
G1 X77.301 Y127.014 E.01708
G1 X76.842 Y126.756 E.01651
G1 X76.286 Y126.638 E.01782
G1 X76.001 Y126.649 E.00894
G1 X76.313 Y126.226 E.01648
G1 X76.399 Y126.031 E.00668
G1 X76.511 Y125.456 E.01837
G1 X76.439 Y124.907 E.01736
G1 X76.217 Y124.458 E.0157
G1 X76.01 Y124.179 E.01089
G1 X76.38 Y124.183 E.0116
G1 X76.982 Y124.016 E.01959
G1 X77.417 Y123.708 E.01671
G1 X77.693 Y123.38 E.01344
G1 X78.215 Y122.455 E.0333
G1 X78.609 Y121.938 E.02038
G1 X79.064 Y121.473 E.0204
G1 X79.58 Y121.063 E.02066
G1 X80.123 Y120.729 E.01999
G1 X80.705 Y120.462 E.02008
G1 X81.333 Y120.262 E.02066
G1 X81.974 Y120.143 E.02044
G1 X82.626 Y120.103 E.02048
G1 X83.277 Y120.143 E.02045
G1 X83.918 Y120.262 E.02044
G1 X84.539 Y120.459 E.02043
G1 X85.131 Y120.73 E.02041
G1 X85.681 Y121.069 E.02026
G1 X86.188 Y121.474 E.02035
G1 X86.643 Y121.939 E.0204
G1 X87.036 Y122.455 E.02034
G1 X87.58 Y123.416 E.03462
G1 X87.951 Y123.814 E.01706
G1 X88.409 Y124.072 E.01648
G1 X88.916 Y124.182 E.01627
G1 X89.225 Y124.179 E.00969
M204 S1000
G1 X89.225 Y124.179 F10800
G1 X89.211 Y124.956
M204 S800
;TYPE:External perimeter
G1 F1200
G1 X89.269 Y124.775 E.00596
G1 X89.592 Y124.362 E.01644
;WIDTH:0.431496
G1 X90.043 Y124.124 E.01648
G1 X90.711 Y124.065 E.02167
;WIDTH:0.41729
G1 X91.183 Y124.177 E.0151
;WIDTH:0.423881
G1 X91.607 Y124.481 E.01653
G1 X91.858 Y124.85 E.01414
;WIDTH:0.423178
G1 X91.976 Y125.279 E.01407
;WIDTH:0.422418
G1 X91.946 Y125.731 E.01429
;WIDTH:0.421828
G1 X91.765 Y126.153 E.01447
;WIDTH:0.421369
G1 X91.454 Y126.49 E.01443
;WIDTH:0.420898
G1 X91.048 Y126.705 E.01444
;WIDTH:0.420413
G1 X90.602 Y126.768 E.01414
;WIDTH:0.433812
G1 X90.016 Y126.701 E.01917
G1 X89.698 Y126.541 E.01157
;WIDTH:0.420716
G1 X89.34 Y126.176 E.01606
;WIDTH:0.419999
G1 X89.147 Y125.701 E.01608
G1 X89.136 Y125.188 E.01609
G1 X89.192 Y125.014 E.00573
M204 S1000
;WIPE_START
G1 F8640
G1 X89.211 Y124.956 E-.01409
G1 X89.269 Y124.775 E-.04389
G1 X89.592 Y124.362 E-.12106
G1 X90.043 Y124.124 E-.11775
G1 X90.711 Y124.065 E-.15484
G1 X91.183 Y124.177 E-.11201
G1 X91.607 Y124.481 E-.12047
G1 X91.858 Y124.85 E-.10305
G1 X91.976 Y125.279 E-.10274
G1 X91.946 Y125.731 E-.1046
G1 X91.937 Y125.753 E-.0055
;WIPE_END
G1 Z.4 F720
G1 X88.463 Y123.673 F10800
G1 Z.2 F720
G1 E1 F2100
M204 S800
G1 F1200
G1 X88.533 Y123.712 E.00251
G1 X88.974 Y123.81 E.01416
G1 X89.505 Y123.774 E.01669
;WIDTH:0.430837
G1 X90.073 Y123.72 E.0184
G1 X90.732 Y123.697 E.02127
;WIDTH:0.42606
G1 X91.173 Y123.771 E.01425
G1 X91.464 Y123.898 E.01012
;WIDTH:0.424571
G1 X91.862 Y124.201 E.01587
;WIDTH:0.420294
G1 X92.139 Y124.574 E.01458
;WIDTH:0.427442
G1 X92.3 Y124.974 E.01379
G1 X92.355 Y125.287 E.01016
;WIDTH:0.422418
G1 X92.332 Y125.707 E.01327
;WIDTH:0.42815
G1 X92.218 Y126.095 E.01295
G1 X92.056 Y126.394 E.01089
;WIDTH:0.421369
G1 X91.704 Y126.775 E.01632
;WIDTH:0.42052
G1 X91.276 Y127.02 E.01548
;WIDTH:0.427803
G1 X90.94 Y127.117 E.01119
G1 X90.579 Y127.135 E.01157
;WIDTH:0.433812
G1 X89.456 Y127.029 E.03666
;WIDTH:0.419999
G1 X88.866 Y127.022 E.0185
G1 X88.431 Y127.155 E.01426
G1 X88.061 Y127.422 E.01431
G1 X87.887 Y127.633 E.00858
G1 X87.352 Y128.582 E.03416
G1 X86.928 Y129.137 E.0219
G1 X86.44 Y129.636 E.02188
G1 X85.894 Y130.071 E.02189
G1 X85.306 Y130.433 E.02165
G1 X84.683 Y130.718 E.02148
G1 X84.012 Y130.932 E.02208
G1 X83.323 Y131.061 E.02198
G1 X82.626 Y131.104 E.0219
G1 X81.928 Y131.061 E.02193
G1 X81.237 Y130.931 E.02205
G1 X80.569 Y130.719 E.02197
G1 X79.943 Y130.431 E.02161
G1 X79.358 Y130.072 E.02152
G1 X78.81 Y129.635 E.02198
G1 X78.323 Y129.137 E.02184
G1 X77.9 Y128.582 E.02188
G1 X77.365 Y127.633 E.03416
G1 X77.065 Y127.31 E.01382
G1 X76.667 Y127.09 E.01426
G1 X76.228 Y127.011 E.01399
G1 X75.906 Y127.039 E.01013
;WIDTH:0.440871
G1 X74.812 Y127.135 E.03634
;WIDTH:0.419104
G1 X74.287 Y127.115 E.01643
;WIDTH:0.428427
G1 X73.815 Y126.945 E.01608
G1 X73.509 Y126.74 E.01181
;WIDTH:0.420988
G1 X73.164 Y126.35 E.01637
;WIDTH:0.421828
G1 X72.951 Y125.863 E.01675
;WIDTH:0.427828
G1 X72.901 Y125.573 E.00942
G1 X72.919 Y125.125 E.01435
;WIDTH:0.419324
G1 X73.081 Y124.632 E.01624
;WIDTH:0.420188
G1 X73.389 Y124.201 E.01662
;WIDTH:0.424543
G1 X73.815 Y123.883 E.01687
;WIDTH:0.430916
G1 X74.312 Y123.715 E.01693
G1 X74.656 Y123.695 E.01112
;WIDTH:0.428117
G1 X75.201 Y123.727 E.01749
G1 X75.795 Y123.799 E.01916
;WIDTH:0.419999
G1 X76.385 Y123.806 E.0185
G1 X76.821 Y123.674 E.01428
G1 X77.19 Y123.407 E.01428
G1 X77.365 Y123.195 E.00862
G1 X77.9 Y122.247 E.03413
G1 X78.324 Y121.691 E.02192
G1 X78.811 Y121.193 E.02184
G1 X79.363 Y120.754 E.02211
G1 X79.946 Y120.395 E.02147
G1 X80.568 Y120.11 E.02145
G1 X81.241 Y119.896 E.02214
G1 X81.928 Y119.768 E.02191
G1 X82.626 Y119.725 E.02193
G1 X83.323 Y119.768 E.0219
G1 X84.01 Y119.896 E.02191
G1 X84.675 Y120.107 E.02187
G1 X85.309 Y120.397 E.02186
G1 X85.898 Y120.76 E.02169
G1 X86.441 Y121.194 E.0218
G1 X86.928 Y121.692 E.02184
G1 X87.352 Y122.247 E.0219
G1 X87.887 Y123.195 E.03413
G1 X88.186 Y123.518 E.0138
G1 X88.411 Y123.644 E.00809
M204 S1000
;WIPE_START
G1 F8640
G1 X88.463 Y123.673 E-.01375
G1 X88.533 Y123.712 E-.0185
G1 X88.974 Y123.81 E-.10431
G1 X89.505 Y123.774 E-.12289
G1 X90.073 Y123.72 E-.13174
G1 X90.732 Y123.697 E-.15226
G1 X91.173 Y123.771 E-.10325
G1 X91.464 Y123.898 E-.07331
G1 X91.862 Y124.201 E-.1155
G1 X92.139 Y124.574 E-.10728
G1 X92.232 Y124.804 E-.05721
;WIPE_END
G1 Z.4 F720
G1 X75.99 Y124.844 F10800
G1 Z.2 F720
G1 E1 F2100
M73 Q3 S12
M204 S800
G1 F1200
G1 X76.073 Y125.003 E.00562
G1 X76.132 Y125.501 E.01572
G1 X76.002 Y126.013 E.01656
G1 X75.696 Y126.43 E.01622
;WIDTH:0.440871
G1 X75.266 Y126.696 E.01673
G1 X74.819 Y126.764 E.01496
;WIDTH:0.419104
G1 X74.381 Y126.751 E.01371
;WIDTH:0.428427
G1 X73.987 Y126.6 E.01353
G1 X73.748 Y126.45 E.00905
;WIDTH:0.419827
G1 X73.454 Y126.098 E.01437
;WIDTH:0.419656
G1 X73.293 Y125.669 E.01435
;WIDTH:0.419501
G1 X73.285 Y125.211 E.01434
;WIDTH:0.419864
G1 X73.423 Y124.789 E.01392
G1 X73.711 Y124.414 E.01482
M73 P3 R12
;WIDTH:0.420866
G1 X74.103 Y124.164 E.01461
G1 X74.616 Y124.06 E.01645
;WIDTH:0.428158
G1 X75.147 Y124.108 E.01708
G1 X75.604 Y124.318 E.01611
;WIDTH:0.419999
G1 X75.835 Y124.548 E.01022
G1 X75.962 Y124.791 E.0086
M204 S1000
;WIPE_START
G1 F8640
G1 X75.99 Y124.844 E-.01384
G1 X76.073 Y125.003 E-.04141
G1 X76.132 Y125.501 E-.11579
G1 X76.002 Y126.013 E-.12197
G1 X75.696 Y126.43 E-.11943
G1 X75.266 Y126.696 E-.11675
G1 X74.819 Y126.764 E-.1044
G1 X74.381 Y126.751 E-.10118
G1 X73.987 Y126.6 E-.09743
G1 X73.748 Y126.45 E-.06515
G1 X73.463 Y126.109 E-.10265
;WIPE_END
G1 Z.4 F720
G1 X84.336 Y120.573 F10800
G1 Z.2 F720
G1 E1 F2100
M204 S800
;TYPE:Solid infill
;WIDTH:0.429313
G1 F1200
G1 X88.522 Y124.758 E.19018
G1 X88.451 Y124.979 E.00746
G1 X88.414 Y125.197 E.0071
G1 X83.803 Y120.586 E.20951
G1 X83.145 Y120.474 E.02144
G1 X88.436 Y125.765 E.24041
G1 X88.47 Y125.96 E.00636
G1 X88.634 Y126.34 E.0133
G1 X88.502 Y126.378 E.00441
G1 X82.57 Y120.446 E.26953
G1 X82.055 Y120.478 E.01658
G1 X88.097 Y126.519 E.27451
G1 X87.778 Y126.746 E.01258
G1 X81.591 Y120.559 E.28112
G1 X81.416 Y120.592 E.00572
G1 X81.159 Y120.674 E.00867
G1 X87.484 Y126.999 E.28739
G1 X87.298 Y127.222 E.00933
G1 X87.248 Y127.31 E.00325
G1 X80.752 Y120.814 E.29516
G1 X80.377 Y120.986 E.01326
G1 X87.051 Y127.659 E.30322
G1 X86.853 Y128.008 E.01289
G1 X80.03 Y121.185 E.31002
G1 X79.7 Y121.401 E.01267
G1 X86.637 Y128.338 E.3152
G1 X86.4 Y128.648 E.01254
G1 X79.396 Y121.643 E.31826
G1 X79.114 Y121.908 E.01243
G1 X86.132 Y128.926 E.31888
G1 X85.85 Y129.19 E.01241
G1 X78.846 Y122.187 E.31822
G1 X78.61 Y122.497 E.01252
G1 X85.546 Y129.433 E.31515
G1 X85.215 Y129.648 E.01268
M73 Q4 S12
G1 X78.394 Y122.827 E.30992
M73 P4 R12
G1 X78.197 Y123.176 E.01288
G1 X84.866 Y129.846 E.30304
G1 X84.492 Y130.018 E.01323
G1 X77.999 Y123.525 E.29502
G1 X77.953 Y123.606 E.00299
G1 X77.763 Y123.835 E.00956
G1 X84.084 Y130.157 E.28723
G1 X83.837 Y130.236 E.00833
G1 X83.652 Y130.271 E.00605
G1 X77.471 Y124.091 E.28082
G1 X77.301 Y124.222 E.0069
G1 X77.146 Y124.311 E.00574
G1 X83.186 Y130.351 E.27444
G1 X82.671 Y130.383 E.01658
G1 X76.742 Y124.454 E.2694
G1 X76.621 Y124.487 E.00403
G1 X76.77 Y124.83 E.01202
G1 X76.8 Y125.059 E.00742
G1 X82.095 Y130.353 E.24057
G1 X81.435 Y130.24 E.02151
G1 X76.834 Y125.639 E.20905
G1 X76.734 Y126.085 E.01469
G1 X80.899 Y130.25 E.18924
M204 S1000
;WIPE_START
G1 F8640
G1 X77.837 Y127.188 E-1
;WIPE_END
G1 Z.4 F720
; stop printing object caster-wheel-case-8.2mm.STL id:0 copy 0
; printing object caster-wheel-case-8.2mm.STL id:1 copy 0
G1 X88.137 Y109.279 F10800
G1 Z.2 F720
G1 E1 F2100
M204 S800
;TYPE:Perimeter
;WIDTH:0.419999
G1 F1200
G1 X87.812 Y109.733 E.01751
G1 X87.655 Y110.261 E.01727
G1 X87.666 Y110.646 E.01208
G1 X87.718 Y110.992 E.01097
G1 X87.925 Y111.459 E.01602
G1 X88.169 Y111.724 E.01129
G1 X87.707 Y111.722 E.01449
G1 X87.215 Y111.871 E.01612
G1 X86.736 Y112.195 E.01813
G1 X86.46 Y112.522 E.01342
G1 X85.938 Y113.448 E.03333
G1 X85.544 Y113.964 E.02036
G1 X85.088 Y114.429 E.02042
G1 X84.578 Y114.836 E.02046
G1 X84.03 Y115.174 E.02019
G1 X83.448 Y115.44 E.02006
G1 X82.822 Y115.64 E.02061
G1 X82.179 Y115.76 E.02051
G1 X81.527 Y115.8 E.02048
G1 X80.876 Y115.76 E.02045
G1 X80.231 Y115.639 E.02058
G1 X79.607 Y115.44 E.02054
G1 X79.022 Y115.172 E.02018
G1 X78.477 Y114.837 E.02006
G1 X77.965 Y114.428 E.02055
G1 X77.51 Y113.964 E.02038
G1 X77.117 Y113.448 E.02034
G1 X76.573 Y112.487 E.03462
G1 X76.202 Y112.088 E.01708
G1 X75.744 Y111.83 E.01648
G1 X75.188 Y111.712 E.01782
G1 X74.903 Y111.723 E.00894
G1 X75.215 Y111.3 E.01648
G1 X75.3 Y111.105 E.00667
G1 X75.413 Y110.53 E.01837
G1 X75.341 Y109.981 E.01736
G1 X75.118 Y109.532 E.01572
G1 X74.912 Y109.253 E.01087
G1 X75.282 Y109.258 E.0116
G1 X75.883 Y109.09 E.01957
G1 X76.319 Y108.782 E.01674
G1 X76.595 Y108.455 E.01342
G1 X77.117 Y107.529 E.03333
G1 X77.511 Y107.012 E.02038
G1 X77.966 Y106.547 E.0204
G1 X78.482 Y106.137 E.02066
G1 X79.025 Y105.803 E.01999
G1 X79.606 Y105.537 E.02004
G1 X80.235 Y105.336 E.0207
G1 X80.876 Y105.217 E.02044
G1 X81.527 Y105.177 E.02045
G1 X82.179 Y105.217 E.02048
G1 X82.819 Y105.336 E.02041
G1 X83.441 Y105.533 E.02046
G1 X84.032 Y105.804 E.02039
G1 X84.583 Y106.143 E.02028
G1 X85.09 Y106.548 E.02035
G1 X85.544 Y107.013 E.02038
G1 X85.938 Y107.529 E.02036
G1 X86.481 Y108.49 E.03461
G1 X86.852 Y108.888 E.01706
G1 X87.311 Y109.147 E.01652
G1 X87.818 Y109.256 E.01626
G1 X88.127 Y109.253 E.00969
M204 S1000
G1 X88.127 Y109.253 F10800
G1 X88.112 Y110.031
M204 S800
;TYPE:External perimeter
G1 F1200
G1 X88.171 Y109.849 E.006
G1 X88.494 Y109.436 E.01644
;WIDTH:0.431496
G1 X88.945 Y109.198 E.01648
G1 X89.612 Y109.139 E.02164
