; generated by PrusaSlicer 2.7.4+win64 on 2024-04-12 at 07:22:43 UTC


;
;
; 

; external perimeters extrusion width = 0.45mm
; perimeters extrusion width = 0.45mm
; infill extrusion width = 0.45mm
; solid infill extrusion width = 0.45mm
; top infill extrusion width = 0.40mm
; first layer extrusion width = 0.42mm

M73 P0 R27
M73 Q0 S27
M201 X1000 Y1000 Z200 E5000 ; sets maximum accelerations, mm/sec^2
M203 X200 Y200 Z12 E120 ; sets maximum feedrates, mm / sec
M204 S1250 T1250 ; sets acceleration (S) and retract acceleration (R), mm/sec^2
M205 X8.00 Y8.00 Z0.40 E4.50 ; sets the jerk limits, mm/sec
M205 S0 T0 ; sets the minimum extruding and travel feed rate, mm/sec

; printing object caster-wheel-case.STL id:0 copy 0
; stop printing object caster-wheel-case.STL id:0 copy 0

;TYPE:Custom
M862.3 P "MK3S" ; printer model check
M862.1 P0.4 ; nozzle diameter check
M115 U3.13.3 ; tell printer latest fw version
G90 ; use absolute coordinates
M83 ; extruder relative mode
M104 S240 ; set extruder temp
M140 S85 ; set bed temp
M190 S85 ; wait for bed temp
M109 S240 ; wait for extruder temp
G28 W ; home all without mesh bed level
G80 X42.4325 Y150.194 W25.8717 H17.9627 ; mesh bed levelling

G1 Z0.2 F720
G1 Y-3 F1000 ; go outside print area
G92 E0
G1 X60 E9 F1000 ; intro line
G1 X100 E12.5 F1000 ; intro line

G92 E0
M221 S100

; Don't change E values below. Excessive value can damage the printer.
M907 E430 ; set extruder motor current
G21 ; set units to millimeters
G90 ; use absolute coordinates
M83 ; use relative distances for extrusion

M900 K0.08 ; Filament gcode LA 1.5
M900 K45 ; Filament gcode LA 1.0




M107
;LAYER_CHANGE
;Z:0.2
;HEIGHT:0.2
G1 E-1 F2100
G1 Z.4 F720
G1 X52.676 Y150.794 F10800
G1 Z.2 F720
G1 E1 F2100
M204 S800
;TYPE:Skirt/Brim
;WIDTH:0.42
G1 F1200
G1 X53.644 Y150.543 E.03135
G1 X54.88 Y150.386 E.03907
G1 X55.818 Y150.384 E.02941
G1 X57.226 Y150.574 E.04455
G1 X58.127 Y150.815 E.02924
G1 X59.128 Y151.215 E.0338
G1 X66.103 Y155.292 E.25332
G1 X67.013 Y156.13 E.03879
G1 X67.622 Y157.062 E.03491
G1 X68.024 Y158.232 E.03879
G1 X68.116 Y159.341 E.03489
G1 X67.912 Y160.561 E.03878
G1 X67.465 Y161.581 E.03492
G1 X66.705 Y162.557 E.03879
G1 X65.827 Y163.24 E.03488
G1 X58.945 Y167.217 E.24922
G1 X58.061 Y167.558 E.02971
G1 X57.093 Y167.809 E.03135
G1 X55.856 Y167.966 E.0391
G1 X54.905 Y167.967 E.02982
G1 X53.511 Y167.777 E.04411
G1 X52.61 Y167.536 E.02924
G1 X51.609 Y167.137 E.03379
G1 X44.634 Y163.06 E.25332
G1 X43.723 Y162.222 E.03881
G1 X43.115 Y161.29 E.03489
G1 X42.713 Y160.12 E.03879
G1 X42.621 Y159.011 E.03489
G1 X42.825 Y157.791 E.03878
G1 X43.254 Y156.804 E.03374
G1 X43.724 Y156.129 E.02579
G1 X44.634 Y155.292 E.03877
G1 X50.775 Y151.666 E.22361
G1 X51.782 Y151.139 E.03564
G1 X52.62 Y150.815 E.02817
M204 S1000
G1 X52.62 Y150.815 F10800
G1 X52.756 Y151.166
M204 S800
G1 F1200
G1 X52.791 Y151.153 E.00117
G1 X53.725 Y150.911 E.03025
G1 X54.895 Y150.763 E.03698
G1 X55.806 Y150.761 E.02856
G1 X57.117 Y150.936 E.04147
G1 X58.004 Y151.172 E.02878
G1 X58.964 Y151.554 E.0324
G1 X65.897 Y155.608 E.25182
G1 X66.716 Y156.361 E.03488
G1 X67.29 Y157.241 E.03294
G1 X67.652 Y158.294 E.03491
G1 X67.739 Y159.341 E.03294
G1 X67.555 Y160.439 E.03491
G1 X67.133 Y161.401 E.03294
G1 X66.45 Y162.279 E.03488
G1 X65.62 Y162.925 E.03298
G1 X58.806 Y166.866 E.24681
G1 X57.946 Y167.199 E.02892
G1 X57.012 Y167.44 E.03024
G1 X55.842 Y167.589 E.03698
G1 X54.916 Y167.59 E.02903
G1 X53.62 Y167.416 E.041
G1 X52.733 Y167.18 E.02878
G1 X51.773 Y166.797 E.03241
G1 X44.84 Y162.744 E.2518
G1 X44.021 Y161.99 E.0349
G1 X43.446 Y161.11 E.03296
G1 X43.085 Y160.058 E.03487
G1 X42.998 Y159.011 E.03294
G1 X43.181 Y157.913 E.0349
G1 X43.603 Y156.95 E.03297
G1 X44.287 Y156.072 E.0349
G1 X45.116 Y155.427 E.03293
G1 X51.921 Y151.489 E.24652
G1 X52.7 Y151.188 E.02618
M204 S1000
;WIPE_START
G1 F8640
G1 X52.756 Y151.166 E-.01389
G1 X52.791 Y151.153 E-.00862
G1 X53.725 Y150.911 E-.22278
G1 X54.895 Y150.763 E-.27231
G1 X55.806 Y150.761 E-.21035
G1 X56.974 Y150.917 E-.27205
;WIPE_END
G1 Z.4 F720
; printing object caster-wheel-case.STL id:0 copy 0
G1 X61.306 Y158.28 F10800
G1 Z.2 F720
G1 E1 F2100
M204 S800
;TYPE:Perimeter
;WIDTH:0.419999
G1 F1200
G1 X61.161 Y158.719 E.0145
G1 X61.116 Y159.05 E.01047
G1 X61.144 Y159.58 E.01664
G1 X61.316 Y160.066 E.01616
G1 X60.708 Y160.278 E.02019
G1 X60.231 Y160.634 E.01866
G1 X59.908 Y161.043 E.01634
G1 X59.646 Y161.536 E.0175
G1 X59.304 Y162.068 E.01983
G1 X58.911 Y162.538 E.01921
G1 X58.464 Y162.953 E.01912
G1 X57.969 Y163.31 E.01914
G1 X57.44 Y163.598 E.01889
G1 X56.871 Y163.823 E.01918
G1 X56.281 Y163.973 E.01909
G1 X55.673 Y164.05 E.01922
G1 X55.063 Y164.05 E.01913
G1 X54.456 Y163.974 E.01918
G1 X53.862 Y163.821 E.01923
G1 X53.296 Y163.598 E.01907
G1 X52.765 Y163.308 E.01897
G1 X52.271 Y162.952 E.01909
G1 X51.826 Y162.537 E.01908
G1 X51.433 Y162.068 E.01919
G1 X51.091 Y161.536 E.01983
G1 X50.829 Y161.043 E.0175
G1 X50.678 Y160.833 E.00811
G1 X50.278 Y160.437 E.01765
G1 X49.814 Y160.183 E.01659
G1 X49.434 Y160.072 E.01241
G1 X49.509 Y159.876 E.00658
G1 X49.631 Y159.207 E.02132
G1 X49.563 Y158.664 E.01716
G1 X49.427 Y158.284 E.01265
G1 X50.096 Y158.031 E.02243
G1 X50.506 Y157.718 E.01617
G1 X50.829 Y157.309 E.01634
G1 X51.091 Y156.816 E.0175
G1 X51.433 Y156.283 E.01986
G1 X51.826 Y155.814 E.01919
G1 X52.273 Y155.398 E.01915
G1 X52.768 Y155.042 E.01912
G1 X53.297 Y154.753 E.0189
G1 X53.863 Y154.53 E.01907
G1 X54.456 Y154.378 E.01919
G1 X55.063 Y154.302 E.01918
G1 X55.674 Y154.302 E.01916
G1 X56.281 Y154.378 E.01918
G1 X56.873 Y154.529 E.01916
G1 X57.44 Y154.753 E.01911
G1 X57.972 Y155.043 E.019
G1 X58.466 Y155.4 E.01911
G1 X58.911 Y155.814 E.01906
G1 X59.304 Y156.283 E.01919
G1 X59.646 Y156.816 E.01986
M73 Q1 S27
G1 X59.908 Y157.309 E.0175
G1 X60.059 Y157.518 E.00808
G1 X60.467 Y157.92 E.01796
G1 X60.923 Y158.169 E.01629
G1 X61.248 Y158.263 E.01061
M204 S1000
G1 X61.248 Y158.263 F10800
G1 X62 Y157.936
M204 S800
G1 F1200
G1 X61.868 Y158.093 E.00643
G1 X61.657 Y158.41 E.01194
G1 X61.52 Y158.834 E.01397
G1 X61.493 Y159.033 E.0063
G1 X61.53 Y159.594 E.01763
G1 X61.736 Y160.087 E.01675
G1 X62.009 Y160.41 E.01326
G1 X61.534 Y160.406 E.01489
G1 X60.941 Y160.581 E.01939
G1 X60.524 Y160.88 E.01609
G1 X60.241 Y161.219 E.01385
G1 X59.971 Y161.726 E.01801
G1 X59.608 Y162.292 E.02108
G1 X59.185 Y162.798 E.02068
G1 X58.704 Y163.245 E.02059
G1 X58.17 Y163.629 E.02062
M73 P1 R27
G1 X57.6 Y163.941 E.02037
G1 X56.987 Y164.182 E.02065
G1 X56.352 Y164.345 E.02056
G1 X55.697 Y164.427 E.0207
G1 X55.04 Y164.427 E.0206
G1 X54.385 Y164.345 E.0207
G1 X53.746 Y164.181 E.02068
G1 X53.136 Y163.941 E.02055
G1 X52.564 Y163.628 E.02044
G1 X52.031 Y163.244 E.0206
G1 X51.551 Y162.797 E.02057
G1 X51.129 Y162.292 E.02063
G1 X50.765 Y161.726 E.0211
G1 X50.472 Y161.179 E.01946
G1 X50.096 Y160.774 E.01733
G1 X49.639 Y160.517 E.01644
G1 X49.085 Y160.399 E.01776
G1 X48.739 Y160.416 E.01086
G1 X48.965 Y160.12 E.01168
G1 X49.141 Y159.792 E.01167
G1 X49.254 Y159.217 E.01837
G1 X49.19 Y158.714 E.0159
G1 X48.987 Y158.269 E.01534
G1 X48.754 Y157.942 E.01259
G1 X49.18 Y157.945 E.01336
G1 X49.75 Y157.789 E.01853
G1 X50.213 Y157.472 E.01759
G1 X50.496 Y157.132 E.01387
G1 X50.765 Y156.625 E.018
G1 X51.129 Y156.06 E.02107
G1 X51.552 Y155.554 E.02068
G1 X52.033 Y155.106 E.02061
G1 X52.567 Y154.722 E.02062
G1 X53.136 Y154.411 E.02033
G1 X53.747 Y154.17 E.02059
G1 X54.385 Y154.007 E.02065
G1 X55.04 Y153.925 E.0207
G1 X55.698 Y153.925 E.02063
G1 X56.352 Y154.007 E.02067
G1 X56.989 Y154.17 E.02062
G1 X57.6 Y154.411 E.02059
G1 X58.173 Y154.724 E.02047
G1 X58.705 Y155.108 E.02057
G1 X59.185 Y155.554 E.02054
G1 X59.608 Y156.06 E.02068
G1 X59.971 Y156.625 E.02106
G1 X60.264 Y157.172 E.01946
G1 X60.641 Y157.578 E.01737
G1 X61.105 Y157.838 E.01668
G1 X61.652 Y157.952 E.01752
G1 X61.94 Y157.939 E.00904
M204 S1000
;WIPE_START
G1 F8640
G1 X62 Y157.936 E-.01387
G1 X61.868 Y158.093 E-.04736
G1 X61.657 Y158.41 E-.08793
G1 X61.52 Y158.834 E-.10289
G1 X61.493 Y159.033 E-.04637
G1 X61.53 Y159.594 E-.12982
G1 X61.736 Y160.087 E-.12337
G1 X62.009 Y160.41 E-.09765
G1 X61.534 Y160.406 E-.10968
G1 X60.941 Y160.581 E-.14276
G1 X60.595 Y160.829 E-.0983
;WIPE_END
G1 Z.4 F720
G1 X63.757 Y157.886 F10800
G1 Z.2 F720
G1 E1 F2100
M204 S800
;TYPE:External perimeter
;WIDTH:0.424911
G1 F1200
G1 X63.79 Y157.892 E.00107
G1 X64.184 Y158.096 E.01409
;WIDTH:0.424212
G1 X64.491 Y158.418 E.01411
;WIDTH:0.423558
G1 X64.675 Y158.81 E.01371
;WIDTH:0.422134
G1 X64.723 Y159.265 E.01443
G1 X64.616 Y159.711 E.01446
;WIDTH:0.421598
G1 X64.366 Y160.096 E.01445
;WIDTH:0.421134
G1 X64.003 Y160.376 E.01442
;WIDTH:0.420659
G1 X63.561 Y160.517 E.01457
;WIDTH:0.427214
G1 X62.994 Y160.506 E.01812
G1 X62.507 Y160.344 E.0164
;WIDTH:0.419999
G1 X62.125 Y159.998 E.01616
G1 X61.905 Y159.529 E.01624
G1 X61.87 Y159.016 E.01612
G1 X62.015 Y158.525 E.01605
G1 X62.335 Y158.124 E.01609
;WIDTH:0.431835
G1 X62.785 Y157.885 E.01648
;WIDTH:0.434214
G1 X62.816 Y157.872 E.00109
G1 X63.341 Y157.821 E.01716
;WIDTH:0.424911
G1 X63.698 Y157.877 E.01148
M204 S1000
;WIPE_START
G1 F8640
G1 X63.757 Y157.886 E-.01378
G1 X63.79 Y157.892 E-.00774
G1 X64.184 Y158.096 E-.10245
G1 X64.491 Y158.418 E-.10273
G1 X64.675 Y158.81 E-.09999
G1 X64.723 Y159.265 E-.10564
G1 X64.616 Y159.711 E-.1059
G1 X64.366 Y160.096 E-.106
G1 X64.003 Y160.376 E-.10586
G1 X63.561 Y160.517 E-.10713
G1 X62.994 Y160.506 E-.13095
G1 X62.945 Y160.49 E-.01183
;WIPE_END
G1 Z.4 F720
G1 X61.415 Y160.826 F10800
G1 Z.2 F720
G1 E1 F2100
M204 S800
;WIDTH:0.419999
G1 F1200
G1 X61.12 Y160.915 E.00966
G1 X60.751 Y161.181 E.01426
G1 X60.574 Y161.396 E.00873
G1 X60.297 Y161.917 E.0185
G1 X59.912 Y162.516 E.02233
G1 X59.459 Y163.058 E.02215
G1 X58.943 Y163.538 E.0221
G1 X58.371 Y163.949 E.02208
G1 X57.76 Y164.283 E.02183
G1 X57.104 Y164.542 E.02211
G1 X56.422 Y164.716 E.02207
G1 X55.721 Y164.804 E.02215
G1 X55.016 Y164.804 E.0221
G1 X54.315 Y164.716 E.02215
G1 X53.629 Y164.54 E.02221
G1 X52.976 Y164.283 E.022
G1 X52.363 Y163.948 E.0219
G1 X51.792 Y163.536 E.02208
G1 X51.277 Y163.057 E.02205
G1 X50.824 Y162.516 E.02212
G1 X50.44 Y161.917 E.02231
G1 X50.163 Y161.396 E.0185
G1 X49.861 Y161.07 E.01393
G1 X49.464 Y160.851 E.01422
G1 X49.026 Y160.772 E.01395
G1 X48.648 Y160.804 E.01189
;WIDTH:0.42829
G1 X47.752 Y160.889 E.02884
G1 X47.16 Y160.891 E.01897
;WIDTH:0.418974
G1 X46.751 Y160.797 E.01312
;WIDTH:0.42052
G1 X46.29 Y160.536 E.01663
;WIDTH:0.42137
G1 X45.938 Y160.156 E.0163
;WIDTH:0.428151
G1 X45.789 Y159.886 E.00988
G1 X45.669 Y159.515 E.01249
;WIDTH:0.420693
G1 X45.644 Y159 E.0162
;WIDTH:0.422446
G1 X45.774 Y158.494 E.01649
;WIDTH:0.428136
G1 X45.911 Y158.243 E.00916
G1 X46.179 Y157.918 E.01349
;WIDTH:0.420341
G1 X46.599 Y157.624 E.01609
;WIDTH:0.431139
G1 X47.069 Y157.473 E.01594
G1 X47.422 Y157.443 E.01144
;WIDTH:0.432183
G1 X48.58 Y157.563 E.03768
;WIDTH:0.419999
G1 X49.183 Y157.568 E.01891
G1 X49.617 Y157.436 E.01422
G1 X49.986 Y157.171 E.01424
G1 X50.163 Y156.955 E.00876
G1 X50.44 Y156.435 E.01847
G1 X50.824 Y155.836 E.02231
G1 X51.278 Y155.294 E.02217
G1 X51.794 Y154.814 E.0221
G1 X52.365 Y154.402 E.02208
G1 X52.976 Y154.069 E.02182
G1 X53.63 Y153.811 E.02204
G1 X54.315 Y153.636 E.02217
G1 X55.016 Y153.547 E.02216
G1 X55.722 Y153.548 E.02214
G1 X56.422 Y153.636 E.02212
G1 X57.105 Y153.81 E.0221
G1 X57.761 Y154.069 E.02211
G1 X58.374 Y154.404 E.0219
G1 X58.945 Y154.815 E.02206
G1 X59.459 Y155.294 E.02203
G1 X59.912 Y155.836 E.02215
G1 X60.297 Y156.435 E.02233
G1 X60.574 Y156.955 E.01847
G1 X60.876 Y157.282 E.01396
G1 X61.273 Y157.501 E.01422
G1 X61.711 Y157.58 E.01395
G1 X62.034 Y157.554 E.01016
;WIDTH:0.431835
G1 X63.238 Y157.443 E.0391
;WIDTH:0.419337
G1 X63.746 Y157.487 E.01596
;WIDTH:0.426289
G1 X64.178 Y157.646 E.01467
G1 X64.445 Y157.818 E.01012
;WIDTH:0.424212
G1 X64.791 Y158.187 E.01604
;WIDTH:0.420294
G1 X65.001 Y158.602 E.01459
;WIDTH:0.427719
G1 X65.095 Y159.05 E.01465
G1 X65.099 Y159.177 E.00407
;WIDTH:0.428006
G1 X65.051 Y159.586 E.01319
G1 X64.944 Y159.901 E.01065
;WIDTH:0.421598
G1 X64.656 Y160.34 E.01653
;WIDTH:0.420759
G1 X64.28 Y160.649 E.01529
;WIDTH:0.428404
G1 X63.946 Y160.809 E.01187
G1 X63.557 Y160.891 E.01274
;WIDTH:0.429558
G1 X62.813 Y160.867 E.02393
G1 X62.157 Y160.789 E.02124
;WIDTH:0.419999
G1 X61.554 Y160.783 E.01891
G1 X61.472 Y160.808 E.00269
M204 S1000
;WIPE_START
G1 F8640
G1 X61.415 Y160.826 E-.0138
G1 X61.12 Y160.915 E-.07115
G1 X60.751 Y161.181 E-.10503
G1 X60.574 Y161.396 E-.0643
G1 X60.297 Y161.917 E-.13625
G1 X59.912 Y162.516 E-.16442
G1 X59.459 Y163.058 E-.16311
G1 X58.943 Y163.538 E-.16273
G1 X58.524 Y163.839 E-.11921
;WIPE_END
G1 Z.4 F720
G1 X47.69 Y160.506 F10800
G1 Z.2 F720
G1 E1 F2100
M204 S800
;WIDTH:0.441474
G1 F1200
G1 X47.562 Y160.525 E.00429
;WIDTH:0.419104
G1 X47.123 Y160.513 E.01374
;WIDTH:0.42842
G1 X46.73 Y160.362 E.0135
G1 X46.491 Y160.211 E.00906
;WIDTH:0.419749
G1 X46.197 Y159.86 E.01435
;WIDTH:0.419631
G1 X46.036 Y159.43 E.01438
;WIDTH:0.419507
G1 X46.028 Y158.973 E.01431
;WIDTH:0.419892
G1 X46.166 Y158.551 E.01392
G1 X46.453 Y158.175 E.01483
;WIDTH:0.420866
G1 X46.846 Y157.925 E.01464
G1 X47.344 Y157.817 E.01601
;WIDTH:0.421133
G1 X47.889 Y157.873 E.01723
G1 X48.365 Y158.09 E.01645
;WIDTH:0.419999
G1 X48.578 Y158.31 E.0096
G1 X48.815 Y158.759 E.01592
G1 X48.872 Y159.274 E.01625
G1 X48.745 Y159.774 E.01617
G1 X48.439 Y160.192 E.01624
;WIDTH:0.441474
G1 X48.008 Y160.458 E.01678
G1 X47.749 Y160.497 E.00868
M204 S1000
;WIPE_START
G1 F8640
G1 X47.69 Y160.506 E-.01378
G1 X47.562 Y160.525 E-.02988
G1 X47.123 Y160.513 E-.1014
G1 X46.73 Y160.362 E-.09721
G1 X46.491 Y160.211 E-.06528
G1 X46.197 Y159.86 E-.10572
G1 X46.036 Y159.43 E-.10602
G1 X46.028 Y158.973 E-.10554
G1 X46.166 Y158.551 E-.10252
G1 X46.453 Y158.175 E-.10922
G1 X46.846 Y157.925 E-.10755
G1 X47.083 Y157.874 E-.05588
;WIPE_END
G1 Z.4 F720
G1 X59.466 Y156.851 F10800
G1 Z.2 F720
G1 E1 F2100
M204 S800
;TYPE:Solid infill
;WIDTH:0.421404
G1 F1200
G1 X58.655 Y156.04 E.0361
G1 X58.25 Y155.663 E.01741
G1 X57.79 Y155.331 E.01785
G1 X57.296 Y155.061 E.01772
G1 X57.041 Y154.961 E.00862
G1 X60.815 Y158.735 E.16797
G1 X60.775 Y158.996 E.00831
G1 X60.788 Y159.243 E.00778
G1 X56.271 Y154.726 E.20104
G1 X55.651 Y154.641 E.01969
G1 X60.866 Y159.856 E.2321
G1 X60.541 Y159.981 E.01096
G1 X60.492 Y160.017 E.00191
G1 X55.116 Y154.641 E.23927
G1 X54.637 Y154.697 E.01518
G1 X60.185 Y160.246 E.24695
G1 X60 Y160.384 E.00726
G1 X59.903 Y160.499 E.00473
G1 X54.198 Y154.794 E.25391
G1 X53.968 Y154.853 E.00747
G1 X53.792 Y154.923 E.00596
G1 X59.661 Y160.792 E.26121
G1 X59.473 Y161.14 E.01245
G1 X53.411 Y155.077 E.26982
G1 X53.065 Y155.266 E.01241
G1 X59.278 Y161.48 E.27654
G1 X59.069 Y161.806 E.01219
G1 X52.742 Y155.479 E.28159
G1 X52.437 Y155.709 E.01202
G1 X58.831 Y162.104 E.2846
G1 X58.577 Y162.385 E.01192
G1 X52.16 Y155.967 E.28562
G1 X51.905 Y156.248 E.01194
G1 X58.3 Y162.643 E.28462
G1 X57.995 Y162.873 E.01202
G1 X51.668 Y156.546 E.28159
G1 X51.459 Y156.872 E.01219
G1 X57.672 Y163.085 E.27652
G1 X57.326 Y163.274 E.01241
G1 X51.263 Y157.212 E.26982
G1 X51.076 Y157.56 E.01243
G1 X56.945 Y163.429 E.26121
G1 X56.767 Y163.499 E.00602
G1 X56.538 Y163.557 E.00743
G1 X50.833 Y157.852 E.25391
G1 X50.738 Y157.967 E.00469
G1 X50.554 Y158.108 E.0073
G1 X56.1 Y163.654 E.24683
G1 X55.621 Y163.711 E.01518
G1 X50.245 Y158.334 E.23929
G1 X50.002 Y158.46 E.00861
G1 X49.877 Y158.502 E.00415
G1 X55.086 Y163.711 E.23184
G1 X54.466 Y163.626 E.01969
M73 Q2 S27
G1 X49.961 Y159.121 E.2005
G1 X49.971 Y159.2 E.00251
G1 X49.917 Y159.612 E.01308
G1 X53.696 Y163.391 E.16819
G1 X53.441 Y163.29 E.00863
M73 P2 R27
G1 X52.947 Y163.021 E.0177
G1 X52.487 Y162.689 E.01785
G1 X52.08 Y162.311 E.01748
G1 X51.271 Y161.501 E.03603
M204 S1000
;LAYER_CHANGE
;Z:0.25
;HEIGHT:0.05
;BEFORE_LAYER_CHANGE
G92 E0.0
;0.25


;WIPE_START
G1 F8640
G1 X52.08 Y162.311 E-.26434
G1 X52.487 Y162.689 E-.12826
G1 X52.947 Y163.021 E-.13099
G1 X53.441 Y163.29 E-.12988
G1 X53.696 Y163.391 E-.06333
G1 X52.829 Y162.524 E-.2832
;WIPE_END
G1 Z.25 F720
;AFTER_LAYER_CHANGE
;0.25
M104 S250 ; set temperature
M140 S90 ; set bed temperature
