; generated by PrusaSlicer 2.7.4+win64 on 2024-04-12 at 07:06:08 UTC


;
;
; 

; external perimeters extrusion width = 0.45mm
; perimeters extrusion width = 0.45mm
; infill extrusion width = 0.45mm
; solid infill extrusion width = 0.45mm
; top infill extrusion width = 0.40mm
; first layer extrusion width = 0.42mm

M73 P0 R7
M73 Q0 S7
M201 X1000 Y1000 Z200 E5000 ; sets maximum accelerations, mm/sec^2
M203 X200 Y200 Z12 E120 ; sets maximum feedrates, mm / sec
M204 S1250 T1250 ; sets acceleration (S) and retract acceleration (R), mm/sec^2
M205 X8.00 Y8.00 Z0.40 E4.50 ; sets the jerk limits, mm/sec
M205 S0 T0 ; sets the minimum extruding and travel feed rate, mm/sec

; printing object caster-wheel-case.STL id:0 copy 0
; stop printing object caster-wheel-case.STL id:0 copy 0

;TYPE:Custom
M862.3 P "MK3S" ; printer model check
M862.1 P0.4 ; nozzle diameter check
M115 U3.13.3 ; tell printer latest fw version
G90 ; use absolute coordinates
M83 ; extruder relative mode
M104 S240 ; set extruder temp
M140 S85 ; set bed temp
M190 S85 ; wait for bed temp
M109 S240 ; wait for extruder temp
G28 W ; home all without mesh bed level
G80 X42.4325 Y150.194 W25.8717 H17.9634 ; mesh bed levelling

G1 Z0.2 F720
G1 Y-3 F1000 ; go outside print area
G92 E0
G1 X60 E9 F1000 ; intro line
G1 X100 E12.5 F1000 ; intro line

G92 E0
M221 S95

; Don't change E values below. Excessive value can damage the printer.
M907 E430 ; set extruder motor current
G21 ; set units to millimeters
G90 ; use absolute coordinates
M83 ; use relative distances for extrusion

M900 K0.08 ; Filament gcode LA 1.5
M900 K45 ; Filament gcode LA 1.0




M107
;LAYER_CHANGE
;Z:0.2
;HEIGHT:0.2
G1 E-1 F2100
M73 P1 R7
M73 Q1 S7
G1 Z.4 F720
G1 X52.682 Y150.791 F10800
G1 Z.2 F720
G1 E1 F2100
M204 S800
;TYPE:Skirt/Brim
;WIDTH:0.42
G1 F1200
G1 X53.709 Y150.529 E.03323
G1 X54.868 Y150.386 E.03662
G1 X55.807 Y150.384 E.02944
G1 X57.245 Y150.578 E.0455
G1 X58.107 Y150.809 E.02798
G1 X59.128 Y151.215 E.03445
G1 X66.103 Y155.292 E.25332
G1 X67.013 Y156.13 E.03879
G1 X67.622 Y157.062 E.03491
G1 X68.024 Y158.232 E.03879
G1 X68.116 Y159.341 E.03489
G1 X67.912 Y160.561 E.03878
G1 X67.465 Y161.581 E.03492
G1 X66.705 Y162.557 E.03879
G1 X65.827 Y163.24 E.03488
G1 X58.959 Y167.211 E.24875
G1 X58.054 Y167.56 E.03041
M73 Q2 S7
G1 X57.028 Y167.822 E.0332
G1 X55.869 Y167.965 E.03662
G1 X54.91 Y167.967 E.03007
M73 P2 R7
G1 X53.492 Y167.773 E.04487
G1 X52.629 Y167.543 E.028
G1 X51.609 Y167.137 E.03442
G1 X44.634 Y163.06 E.25332
G1 X43.723 Y162.222 E.03881
G1 X43.115 Y161.29 E.03489
G1 X42.713 Y160.12 E.03879
G1 X42.621 Y159.011 E.03489
G1 X42.825 Y157.791 E.03878
G1 X43.232 Y156.844 E.03232
G1 X43.724 Y156.13 E.02719
G1 X44.634 Y155.292 E.03879
G1 X50.796 Y151.653 E.22438
G1 X51.787 Y151.136 E.03505
G1 X52.626 Y150.813 E.02819
M204 S1000
G1 X52.626 Y150.813 F10800
G1 X52.762 Y151.164
M204 S800
G1 F1200
G1 X52.798 Y151.151 E.0012
G1 X53.782 Y150.899 E.03185
G1 X54.884 Y150.763 E.03481
G1 X55.795 Y150.761 E.02856
G1 X57.153 Y150.944 E.04296
G1 X57.989 Y151.167 E.02713
G1 X58.964 Y151.554 E.03289
G1 X65.897 Y155.608 E.25182
G1 X66.716 Y156.361 E.03488
G1 X67.29 Y157.241 E.03294
G1 X67.652 Y158.294 E.03491
G1 X67.739 Y159.341 E.03294
G1 X67.555 Y160.439 E.03491
G1 X67.133 Y161.401 E.03294
G1 X66.45 Y162.279 E.03488
G1 X65.62 Y162.925 E.03298
G1 X58.806 Y166.867 E.24682
G1 X57.939 Y167.201 E.02913
G1 X56.955 Y167.452 E.03184
G1 X55.853 Y167.589 E.03482
G1 X54.921 Y167.59 E.02922
G1 X53.584 Y167.408 E.04231
G1 X52.748 Y167.185 E.02713
G1 X51.773 Y166.797 E.0329
G1 X44.84 Y162.744 E.2518
G1 X44.021 Y161.99 E.0349
G1 X43.446 Y161.11 E.03296
G1 X43.085 Y160.058 E.03487
G1 X42.998 Y159.011 E.03294
G1 X43.181 Y157.913 E.0349
G1 X43.603 Y156.95 E.03297
M73 Q3 S7
G1 X44.287 Y156.072 E.0349
G1 X45.116 Y155.427 E.03293
G1 X51.927 Y151.487 E.24671
G1 X52.706 Y151.186 E.02618
M73 P3 R7
M204 S1000
;WIPE_START
G1 F8640
G1 X52.762 Y151.164 E-.01389
G1 X52.798 Y151.151 E-.00884
G1 X53.782 Y150.899 E-.23454
G1 X54.884 Y150.763 E-.25639
G1 X55.795 Y150.761 E-.21035
G1 X56.98 Y150.921 E-.27599
;WIPE_END
G1 Z.4 F720
; printing object caster-wheel-case.STL id:0 copy 0
G1 X62.009 Y160.41 F10800
G1 Z.2 F720
G1 E1 F2100
M204 S800
;TYPE:Perimeter
;WIDTH:0.419999
G1 F1200
G1 X61.534 Y160.406 E.01489
G1 X60.941 Y160.581 E.01939
G1 X60.524 Y160.88 E.01609
G1 X60.241 Y161.219 E.01385
G1 X59.971 Y161.726 E.01801
G1 X59.608 Y162.292 E.02108
G1 X59.185 Y162.798 E.02068
G1 X58.704 Y163.245 E.02059
G1 X58.17 Y163.629 E.02062
G1 X57.6 Y163.941 E.02037
G1 X56.987 Y164.182 E.02065
G1 X56.352 Y164.345 E.02056
G1 X55.697 Y164.427 E.0207
G1 X55.04 Y164.427 E.0206
G1 X54.385 Y164.345 E.0207
G1 X53.746 Y164.181 E.02068
G1 X53.136 Y163.941 E.02055
G1 X52.564 Y163.628 E.02044
G1 X52.031 Y163.244 E.0206
G1 X51.551 Y162.797 E.02057
G1 X51.129 Y162.292 E.02063
G1 X50.765 Y161.726 E.0211
G1 X50.472 Y161.179 E.01946
G1 X50.096 Y160.774 E.01733
G1 X49.639 Y160.517 E.01644
G1 X49.085 Y160.399 E.01776
G1 X48.739 Y160.416 E.01086
G1 X48.965 Y160.12 E.01168
G1 X49.141 Y159.792 E.01167
G1 X49.254 Y159.217 E.01837
G1 X49.19 Y158.714 E.0159
G1 X48.987 Y158.269 E.01534
G1 X48.754 Y157.942 E.01259
G1 X49.18 Y157.945 E.01336
G1 X49.75 Y157.789 E.01853
G1 X50.213 Y157.472 E.01759
G1 X50.496 Y157.132 E.01387
G1 X50.765 Y156.625 E.018
G1 X51.129 Y156.06 E.02107
G1 X51.552 Y155.554 E.02068
G1 X52.033 Y155.106 E.02061
G1 X52.567 Y154.722 E.02062
G1 X53.136 Y154.411 E.02033
G1 X53.747 Y154.17 E.02059
G1 X54.385 Y154.007 E.02065
G1 X55.04 Y153.925 E.0207
G1 X55.698 Y153.925 E.02063
G1 X56.352 Y154.007 E.02067
G1 X56.989 Y154.17 E.02062
G1 X57.6 Y154.411 E.02059
G1 X58.173 Y154.724 E.02047
G1 X58.705 Y155.108 E.02057
G1 X59.185 Y155.554 E.02054
G1 X59.608 Y156.06 E.02068
G1 X59.971 Y156.625 E.02106
G1 X60.264 Y157.172 E.01946
G1 X60.641 Y157.578 E.01737
G1 X61.105 Y157.838 E.01668
G1 X61.652 Y157.952 E.01752
G1 X62 Y157.936 E.01092
G1 X61.868 Y158.093 E.00643
G1 X61.657 Y158.41 E.01194
G1 X61.52 Y158.834 E.01397
G1 X61.493 Y159.033 E.0063
G1 X61.53 Y159.594 E.01763
G1 X61.736 Y160.087 E.01675
G1 X61.97 Y160.364 E.01137
M204 S1000
;WIPE_START
G1 F8640
G1 X62.009 Y160.41 E-.01393
G1 X61.534 Y160.406 E-.10968
G1 X60.941 Y160.581 E-.14276
G1 X60.524 Y160.88 E-.11848
G1 X60.241 Y161.219 E-.10197
G1 X59.971 Y161.726 E-.13263
G1 X59.608 Y162.292 E-.15526
G1 X59.185 Y162.798 E-.15228
G1 X58.953 Y163.013 E-.07301
;WIPE_END
G1 Z.4 F720
G1 X63.308 Y160.512 F10800
G1 Z.2 F720
G1 E1 F2100
M204 S800
;TYPE:External perimeter
;WIDTH:0.427214
G1 F1200
G1 X62.994 Y160.506 E.01004
G1 X62.507 Y160.344 E.0164
;WIDTH:0.419999
G1 X62.125 Y159.998 E.01616
G1 X61.905 Y159.529 E.01624
G1 X61.87 Y159.016 E.01612
G1 X62.015 Y158.525 E.01605
G1 X62.335 Y158.124 E.01609
;WIDTH:0.431835
G1 X62.785 Y157.885 E.01648
;WIDTH:0.434214
G1 X62.816 Y157.872 E.00109
G1 X63.341 Y157.821 E.01716
;WIDTH:0.424964
G1 X63.791 Y157.892 E.01447
G1 X64.185 Y158.097 E.01411
;WIDTH:0.424316
G1 X64.491 Y158.418 E.01406
;WIDTH:0.423562
G1 X64.675 Y158.81 E.01371
;WIDTH:0.422134
G1 X64.723 Y159.265 E.01443
G1 X64.616 Y159.711 E.01446
;WIDTH:0.421598
G1 X64.366 Y160.096 E.01445
;WIDTH:0.421134
G1 X64.003 Y160.376 E.01442
;WIDTH:0.420658
G1 X63.561 Y160.517 E.01457
;WIDTH:0.427214
G1 X63.368 Y160.513 E.00617
M204 S1000
;WIPE_START
G1 F8640
G1 X63.308 Y160.512 E-.01386
G1 X62.994 Y160.506 E-.07252
G1 X62.507 Y160.344 E-.11851
G1 X62.125 Y159.998 E-.11901
G1 X61.905 Y159.529 E-.11962
G1 X61.87 Y159.016 E-.11873
G1 X62.015 Y158.525 E-.11821
G1 X62.335 Y158.124 E-.11846
G1 X62.785 Y157.885 E-.11765
G1 X62.816 Y157.872 E-.00776
G1 X63.142 Y157.84 E-.07567
;WIPE_END
G1 Z.4 F720
G1 X61.417 Y160.825 F10800
G1 Z.2 F720
G1 E1 F2100
M204 S800
;WIDTH:0.419999
G1 F1200
G1 X61.12 Y160.915 E.00973
G1 X60.751 Y161.181 E.01426
G1 X60.574 Y161.396 E.00873
G1 X60.297 Y161.917 E.0185
G1 X59.912 Y162.516 E.02233
G1 X59.459 Y163.058 E.02215
G1 X58.943 Y163.538 E.0221
G1 X58.371 Y163.949 E.02208
G1 X57.76 Y164.283 E.02183
G1 X57.104 Y164.542 E.02211
M73 Q4 S7
G1 X56.422 Y164.716 E.02207
G1 X55.721 Y164.804 E.02215
G1 X55.016 Y164.804 E.0221
G1 X54.315 Y164.716 E.02215
G1 X53.629 Y164.54 E.02221
G1 X52.976 Y164.283 E.022
G1 X52.363 Y163.948 E.0219
G1 X51.792 Y163.536 E.02208
G1 X51.277 Y163.057 E.02205
G1 X50.824 Y162.516 E.02212
G1 X50.44 Y161.917 E.02231
G1 X50.163 Y161.396 E.0185
G1 X49.861 Y161.07 E.01393
G1 X49.464 Y160.851 E.01422
G1 X49.026 Y160.772 E.01395
G1 X48.648 Y160.804 E.01189
;WIDTH:0.42829
G1 X47.752 Y160.889 E.02884
M73 P4 R7
G1 X47.16 Y160.891 E.01897
;WIDTH:0.418975
G1 X46.751 Y160.797 E.01312
;WIDTH:0.42052
G1 X46.29 Y160.536 E.01663
;WIDTH:0.42137
G1 X45.938 Y160.156 E.0163
;WIDTH:0.428151
G1 X45.789 Y159.886 E.00988
G1 X45.669 Y159.515 E.01249
;WIDTH:0.420693
G1 X45.644 Y159 E.0162
;WIDTH:0.422446
G1 X45.774 Y158.494 E.01649
;WIDTH:0.428136
G1 X45.911 Y158.243 E.00916
G1 X46.179 Y157.918 E.01349
;WIDTH:0.42034
G1 X46.599 Y157.624 E.01609
;WIDTH:0.431139
G1 X47.069 Y157.473 E.01594
G1 X47.422 Y157.443 E.01144
;WIDTH:0.432183
G1 X48.58 Y157.563 E.03768
;WIDTH:0.419999
G1 X49.183 Y157.568 E.01891
G1 X49.617 Y157.436 E.01422
G1 X49.986 Y157.171 E.01424
G1 X50.163 Y156.955 E.00876
G1 X50.44 Y156.435 E.01847
G1 X50.824 Y155.836 E.02231
G1 X51.278 Y155.294 E.02217
G1 X51.794 Y154.814 E.0221
G1 X52.365 Y154.402 E.02208
G1 X52.976 Y154.069 E.02182
G1 X53.63 Y153.811 E.02204
G1 X54.315 Y153.636 E.02217
G1 X55.016 Y153.547 E.02216
G1 X55.722 Y153.548 E.02214
G1 X56.422 Y153.636 E.02212
G1 X57.105 Y153.81 E.0221
G1 X57.761 Y154.069 E.02211
G1 X58.374 Y154.404 E.0219
G1 X58.945 Y154.815 E.02206
G1 X59.459 Y155.294 E.02203
G1 X59.912 Y155.836 E.02215
G1 X60.297 Y156.435 E.02233
G1 X60.574 Y156.955 E.01847
G1 X60.876 Y157.282 E.01396
G1 X61.273 Y157.501 E.01422
G1 X61.711 Y157.58 E.01395
G1 X62.034 Y157.554 E.01016
;WIDTH:0.431835
G1 X63.206 Y157.446 E.03806
;WIDTH:0.425337
G1 X63.668 Y157.47 E.01471
;WIDTH:0.426569
G1 X64.168 Y157.641 E.01686
G1 X64.446 Y157.819 E.01053
;WIDTH:0.424316
G1 X64.791 Y158.187 E.016
;WIDTH:0.420302
G1 X65.001 Y158.602 E.01459
;WIDTH:0.427719
G1 X65.095 Y159.05 E.01465
G1 X65.099 Y159.177 E.00407
;WIDTH:0.428006
G1 X65.051 Y159.586 E.01319
G1 X64.944 Y159.901 E.01065
;WIDTH:0.421598
G1 X64.656 Y160.34 E.01653
;WIDTH:0.420759
G1 X64.28 Y160.649 E.01529
;WIDTH:0.428403
G1 X63.946 Y160.809 E.01187
G1 X63.557 Y160.891 E.01274
;WIDTH:0.429558
G1 X62.813 Y160.867 E.02393
G1 X62.157 Y160.789 E.02124
;WIDTH:0.419999
G1 X61.554 Y160.783 E.01891
G1 X61.474 Y160.807 E.00262
M204 S1000
;WIPE_START
G1 F8640
G1 X61.417 Y160.825 E-.0138
G1 X61.12 Y160.915 E-.07166
G1 X60.751 Y161.181 E-.10503
G1 X60.574 Y161.396 E-.0643
G1 X60.297 Y161.917 E-.13625
G1 X59.912 Y162.516 E-.16442
G1 X59.459 Y163.058 E-.16311
G1 X58.943 Y163.538 E-.16273
G1 X58.526 Y163.838 E-.1187
;WIPE_END
G1 Z.4 F720
G1 X48.798 Y159.564 F10800
G1 Z.2 F720
G1 E1 F2100
M204 S800
G1 F1200
G1 X48.745 Y159.774 E.00679
G1 X48.439 Y160.192 E.01624
;WIDTH:0.441474
G1 X48.008 Y160.458 E.01678
G1 X47.562 Y160.525 E.01495
;WIDTH:0.419104
G1 X47.123 Y160.513 E.01374
;WIDTH:0.42842
G1 X46.73 Y160.362 E.0135
G1 X46.491 Y160.211 E.00906
;WIDTH:0.41975
G1 X46.197 Y159.86 E.01435
;WIDTH:0.419631
G1 X46.036 Y159.43 E.01438
;WIDTH:0.419507
G1 X46.028 Y158.973 E.01431
;WIDTH:0.419892
G1 X46.166 Y158.551 E.01392
G1 X46.453 Y158.175 E.01483
;WIDTH:0.420866
G1 X46.846 Y157.925 E.01464
G1 X47.344 Y157.817 E.01601
;WIDTH:0.421133
G1 X47.889 Y157.873 E.01723
G1 X48.365 Y158.09 E.01645
;WIDTH:0.419999
G1 X48.578 Y158.31 E.0096
G1 X48.815 Y158.759 E.01592
G1 X48.872 Y159.274 E.01625
G1 X48.813 Y159.506 E.00751
M204 S1000
;WIPE_START
G1 F8640
G1 X48.798 Y159.564 E-.01383
G1 X48.745 Y159.774 E-.05001
G1 X48.439 Y160.192 E-.11962
G1 X48.008 Y160.458 E-.11695
G1 X47.562 Y160.525 E-.10414
G1 X47.123 Y160.513 E-.1014
G1 X46.73 Y160.362 E-.09721
G1 X46.491 Y160.211 E-.06528
G1 X46.197 Y159.86 E-.10572
G1 X46.036 Y159.43 E-.10602
G1 X46.028 Y158.973 E-.10554
G1 X46.047 Y158.914 E-.01428
;WIPE_END
G1 Z.4 F720
G1 X57.144 Y154.414 F10800
G1 Z.2 F720
G1 E1 F2100
M204 S800
;TYPE:Solid infill
;WIDTH:0.428534
G1 F1200
G1 X61.261 Y158.53 E.18666
G1 X61.19 Y158.752 E.00747
G1 X61.157 Y158.971 E.0071
G1 X56.608 Y154.423 E.20625
G1 X56.288 Y154.341 E.01059
G1 X55.937 Y154.297 E.01134
G1 X61.19 Y159.55 E.2382
G1 X61.199 Y159.677 E.00408
M73 Q5 S7
G1 X61.379 Y160.095 E.01459
G1 X61.223 Y160.128 E.00511
G1 X55.359 Y154.264 E.2659
G1 X55.061 Y154.264 E.00956
M73 P5 R7
G1 X54.841 Y154.292 E.00711
G1 X60.816 Y160.267 E.27094
G1 X60.64 Y160.367 E.00649
G1 X60.488 Y160.484 E.00615
G1 X54.366 Y154.362 E.2776
G1 X53.932 Y154.473 E.01436
G1 X60.193 Y160.735 E.28393
G1 X59.954 Y161.041 E.01245
G1 X53.533 Y154.619 E.29118
G1 X53.281 Y154.719 E.00869
G1 X53.155 Y154.787 E.00459
G1 X59.764 Y161.396 E.29969
G1 X59.561 Y161.738 E.01275
G1 X52.803 Y154.98 E.30644
G1 X52.48 Y155.203 E.01259
G1 X59.347 Y162.07 E.31139
G1 X59.101 Y162.369 E.01241
G1 X52.172 Y155.44 E.3142
G1 X51.89 Y155.703 E.01236
G1 X58.841 Y162.654 E.31519
G1 X58.558 Y162.917 E.01239
M73 Q6 S7
G1 X51.63 Y155.989 E.31415
G1 X51.385 Y156.289 E.01242
M73 P6 R7
G1 X58.25 Y163.154 E.3113
G1 X57.926 Y163.376 E.01259
G1 X51.172 Y156.621 E.30628
G1 X50.969 Y156.964 E.01278
G1 X57.574 Y163.568 E.29948
G1 X57.195 Y163.735 E.01328
G1 X50.779 Y157.319 E.29094
G1 X50.538 Y157.623 E.01244
G1 X56.796 Y163.881 E.28377
G1 X56.361 Y163.992 E.01439
G1 X50.242 Y157.873 E.27747
G1 X50.07 Y158.004 E.00693
G1 X49.91 Y158.086 E.00576
G1 X55.885 Y164.061 E.27094
G1 X55.676 Y164.088 E.00676
G1 X55.366 Y164.088 E.00994
G1 X49.505 Y158.227 E.26577
G1 X49.368 Y158.256 E.00449
M73 Q7 S7
G1 X49.428 Y158.365 E.00399
G1 X49.521 Y158.633 E.0091
G1 X49.543 Y158.81 E.00572
G1 X54.786 Y164.053 E.23775
G1 X54.449 Y164.011 E.01089
M73 P7 R7
G1 X54.112 Y163.924 E.01116
G1 X49.576 Y159.389 E.20566
G1 X49.475 Y159.832 E.01457
G1 X53.573 Y163.93 E.18582
M204 S1000
;LAYER_CHANGE
;Z:0.4
;HEIGHT:0.2
;BEFORE_LAYER_CHANGE
G92 E0.0
;0.4


;WIPE_START
G1 F8640
G1 X50.511 Y160.868 E-1
;WIPE_END
G1 Z.4 F720
;AFTER_LAYER_CHANGE
;0.4
M104 S250 ; set temperature
M140 S90 ; set bed temperature
; stop printing object caster-wheel-case.STL id:0 copy 0
G1 Z.6
G1 X48.06 Y165.062 F10800
G1 Z.4 F720
G1 E1 F2100
;TYPE:Skirt/Brim
;WIDTH:0.42
G1 F2276
G1 X44.634 Y163.06 E.12442
G1 X43.723 Y162.222 E.03881
G1 X43.115 Y161.29 E.03489
G1 X42.713 Y160.12 E.03879
G1 X42.621 Y159.011 E.03489
G1 X42.825 Y157.791 E.03878
G1 X43.232 Y156.844 E.03232
G1 X43.724 Y156.13 E.02719
G1 X44.634 Y155.292 E.03879
G1 X50.796 Y151.653 E.22438
G1 X51.787 Y151.136 E.03505
G1 X52.682 Y150.791 E.03007
G1 X53.709 Y150.529 E.03323
G1 X54.868 Y150.386 E.03662
G1 X55.807 Y150.384 E.02944
G1 X57.245 Y150.578 E.0455
G1 X58.107 Y150.809 E.02798
G1 X59.128 Y151.215 E.03445
G1 X66.103 Y155.292 E.25332
G1 X67.013 Y156.13 E.03879
G1 X67.622 Y157.062 E.03491
G1 X68.024 Y158.232 E.03879
G1 X68.116 Y159.341 E.03489
G1 X67.912 Y160.561 E.03878
G1 X67.465 Y161.581 E.03492
G1 X66.705 Y162.557 E.03879
G1 X65.827 Y163.24 E.03488
G1 X58.959 Y167.211 E.24875
G1 X58.054 Y167.56 E.03041
G1 X57.028 Y167.822 E.0332
G1 X55.869 Y167.965 E.03662
G1 X54.91 Y167.967 E.03007
G1 X53.492 Y167.773 E.04487
G1 X52.629 Y167.543 E.028
G1 X51.609 Y167.137 E.03442
G1 X48.111 Y165.092 E.12705
G1 X48.111 Y165.092 F10800
G1 X48.301 Y164.768
G1 F2276
G1 X44.84 Y162.744 E.12571
G1 X44.021 Y161.99 E.0349
G1 X43.446 Y161.11 E.03296
G1 X43.085 Y160.058 E.03487
G1 X42.998 Y159.011 E.03294
G1 X43.181 Y157.913 E.0349
G1 X43.603 Y156.95 E.03297
G1 X44.287 Y156.072 E.0349
G1 X45.116 Y155.427 E.03293
G1 X51.927 Y151.487 E.24671
G1 X52.798 Y151.151 E.02927
G1 X53.782 Y150.899 E.03185
G1 X54.884 Y150.763 E.03481
G1 X55.795 Y150.761 E.02856
G1 X57.153 Y150.944 E.04296
G1 X57.989 Y151.167 E.02713
G1 X58.964 Y151.554 E.03289
G1 X65.897 Y155.608 E.25182
G1 X66.716 Y156.361 E.03488
G1 X67.29 Y157.241 E.03294
G1 X67.652 Y158.294 E.03491
G1 X67.739 Y159.341 E.03294
G1 X67.555 Y160.439 E.03491
G1 X67.133 Y161.401 E.03294
G1 X66.45 Y162.279 E.03488
G1 X65.62 Y162.925 E.03298
