; generated by PrusaSlicer 2.7.4+win64 on 2024-04-10 at 07:57:27 UTC


;
;
; 

; external perimeters extrusion width = 0.45mm
; perimeters extrusion width = 0.45mm
; infill extrusion width = 0.45mm
; solid infill extrusion width = 0.45mm
; top infill extrusion width = 0.40mm
; first layer extrusion width = 0.42mm

M73 P0 R2
M73 Q0 S2
M201 X1000 Y1000 Z200 E5000 ; sets maximum accelerations, mm/sec^2
M203 X200 Y200 Z12 E120 ; sets maximum feedrates, mm / sec
M204 S1250 T1250 ; sets acceleration (S) and retract acceleration (R), mm/sec^2
M205 X8.00 Y8.00 Z0.40 E4.50 ; sets the jerk limits, mm/sec
M205 S0 T0 ; sets the minimum extruding and travel feed rate, mm/sec

; printing object caster-wheel-spacer.STL id:0 copy 0
; stop printing object caster-wheel-spacer.STL id:0 copy 0

;TYPE:Custom
M862.3 P "MK3S" ; printer model check
M862.1 P0.4 ; nozzle diameter check
M115 U3.13.3 ; tell printer latest fw version
G90 ; use absolute coordinates
M83 ; extruder relative mode
M104 S240 ; set extruder temp
M140 S85 ; set bed temp
M190 S85 ; wait for bed temp
M109 S240 ; wait for extruder temp
G28 W ; home all without mesh bed level
G80 X111.568 Y94.0616 W26.8642 H21.8768 ; mesh bed levelling

G1 Z0.2 F720
G1 Y-3 F1000 ; go outside print area
G92 E0
G1 X60 E9 F1000 ; intro line
G1 X100 E12.5 F1000 ; intro line
M73 P2 R2
M73 Q2 S2

G92 E0
M221 S95

; Don't change E values below. Excessive value can damage the printer.
M907 E430 ; set extruder motor current
G21 ; set units to millimeters
G90 ; use absolute coordinates
M83 ; use relative distances for extrusion

M900 K0.08 ; Filament gcode LA 1.5
M900 K45 ; Filament gcode LA 1.0




M107
;LAYER_CHANGE
;Z:0.2
;HEIGHT:0.2
G1 E-1 F2100
M73 P4 R2
M73 Q4 S2
G1 Z.4 F720
G1 X113.166 Y101.222 F10800
G1 Z.2 F720
M73 P5 R2
M73 Q5 S2
G1 E1 F2100
M204 S800
;TYPE:Skirt/Brim
;WIDTH:0.42
G1 F1200
G1 X118.4 Y96.513 E.22075
G1 X119.988 Y95.498 E.05909
M73 Q6 S2
G1 X121.722 Y94.761 E.05908
G1 X123.695 Y94.328 E.06333
G1 X125.148 Y94.25 E.04562
G1 X127.156 Y94.467 E.06333
M73 P6 R2
G1 X128.559 Y94.855 E.04564
G1 X130.394 Y95.7 E.06334
G1 X131.6 Y96.513 E.0456
G1 X136.519 Y100.889 E.20643
G1 X137.148 Y101.617 E.03017
G1 X137.649 Y102.443 E.03029
G1 X138.005 Y103.341 E.03029
G1 X138.205 Y104.287 E.03032
G1 X138.244 Y105.252 E.03028
G1 X138.12 Y106.21 E.03029
M73 Q7 S2
G1 X137.838 Y107.135 E.03032
G1 X137.405 Y107.999 E.0303
G1 X136.834 Y108.778 E.03028
G1 X131.6 Y113.487 E.22075
G1 X130.394 Y114.3 E.0456
M73 P7 R2
G1 X128.559 Y115.145 E.06334
G1 X127.156 Y115.533 E.04564
G1 X126.01 Y115.704 E.03633
G1 X124.852 Y115.75 E.03634
G1 X122.844 Y115.533 E.06333
G1 X121.441 Y115.145 E.04564
G1 X119.606 Y114.3 E.06334
G1 X118.4 Y113.487 E.0456
G1 X113.481 Y109.111 E.20643
G1 X112.852 Y108.383 E.03017
M73 Q8 S2
G1 X112.351 Y107.557 E.03029
M73 P8 R2
G1 X111.995 Y106.659 E.03029
G1 X111.795 Y105.713 E.03032
G1 X111.756 Y104.748 E.03028
G1 X111.88 Y103.79 E.03029
G1 X112.162 Y102.865 E.03032
G1 X112.595 Y102.001 E.0303
G1 X113.131 Y101.271 E.0284
M204 S1000
G1 X113.131 Y101.271 F10800
G1 X113.434 Y101.494
M204 S800
G1 F1200
G1 X113.461 Y101.457 E.00144
G1 X118.643 Y96.802 E.21841
G1 X119.562 Y96.165 E.03506
M73 P8 R1
G1 X120.469 Y95.671 E.03238
M73 Q8 S1
G1 X121.823 Y95.124 E.04579
G1 X123.756 Y94.7 E.06205
G1 X125.128 Y94.626 E.04308
M73 Q9 S1
G1 X127.095 Y94.839 E.06203
G1 X128.42 Y95.206 E.04311
G1 X130.218 Y96.033 E.06205
G1 X131.357 Y96.802 E.04309
M73 P9 R1
G1 X136.267 Y101.17 E.20605
G1 X136.853 Y101.852 E.02819
G1 X137.319 Y102.625 E.0283
G1 X137.649 Y103.466 E.02833
G1 X137.833 Y104.35 E.02831
G1 X137.866 Y105.252 E.0283
G1 X137.748 Y106.147 E.0283
G1 X137.482 Y107.01 E.02831
G1 X137.075 Y107.816 E.02831
G1 X136.539 Y108.543 E.02832
G1 X131.357 Y113.198 E.21841
G1 X130.218 Y113.967 E.04309
M73 Q10 S1
G1 X129.222 Y114.476 E.03507
M73 P10 R1
G1 X128.177 Y114.876 E.03508
G1 X126.244 Y115.3 E.06205
G1 X124.872 Y115.374 E.04308
G1 X122.905 Y115.161 E.06203
G1 X121.58 Y114.794 E.04311
G1 X119.782 Y113.967 E.06205
G1 X118.643 Y113.198 E.04309
G1 X113.733 Y108.83 E.20605
G1 X113.147 Y108.148 E.02819
G1 X112.681 Y107.375 E.0283
M73 Q11 S1
G1 X112.351 Y106.534 E.02833
G1 X112.167 Y105.65 E.02831
G1 X112.134 Y104.748 E.0283
G1 X112.252 Y103.853 E.0283
G1 X112.518 Y102.99 E.02831
G1 X112.925 Y102.184 E.02831
G1 X113.398 Y101.543 E.02498
M73 P11 R1
M204 S1000
;WIPE_START
G1 F8640
G1 X113.434 Y101.494 E-.01404
G1 X113.461 Y101.457 E-.01058
G1 X116.603 Y98.634 E-.97538
;WIPE_END
G1 Z.4 F720
; printing object caster-wheel-spacer.STL id:0 copy 0
G1 X132.039 Y107.291 F10800
G1 Z.2 F720
G1 E1 F2100
M204 S800
;TYPE:Perimeter
;WIDTH:0.419999
G1 F1200
G1 X131.835 Y107.426 E.00767
G1 X131.76 Y107.545 E.00441
G1 X131.356 Y108.407 E.02985
G1 X130.952 Y109.072 E.0244
G1 X130.479 Y109.689 E.02438
G1 X129.943 Y110.252 E.02437
G1 X129.348 Y110.753 E.02439
G1 X128.704 Y111.188 E.02437
G1 X128.016 Y111.551 E.02439
G1 X127.293 Y111.837 E.02438
G1 X126.544 Y112.045 E.02437
G1 X125.776 Y112.17 E.0244
G1 X125 Y112.212 E.02437
G1 X124.224 Y112.17 E.02437
M73 Q12 S1
G1 X123.456 Y112.045 E.0244
G1 X122.707 Y111.837 E.02437
G1 X121.984 Y111.551 E.02438
G1 X121.296 Y111.188 E.02439
G1 X120.652 Y110.753 E.02437
G1 X120.057 Y110.252 E.02439
G1 X119.521 Y109.689 E.02437
G1 X119.048 Y109.072 E.02438
M73 P12 R1
G1 X118.695 Y108.491 E.02132
G1 X118.165 Y107.426 E.0373
G1 X117.916 Y107.262 E.00935
;WIDTH:0.401817
G1 X117.759 Y107.239 E.00474
;WIDTH:0.383198
G1 X117.259 Y107.218 E.01416
;WIDTH:0.376703
G1 X116.836 Y107.129 E.012
G1 X116.373 Y106.926 E.01403
;WIDTH:0.368521
G1 X115.95 Y106.603 E.01441
;WIDTH:0.379281
G1 X115.654 Y106.25 E.01288
G1 X115.416 Y105.795 E.01436
;WIDTH:0.368892
G1 X115.281 Y105.235 E.01561
;WIDTH:0.376233
G1 X115.276 Y104.812 E.01172
G1 X115.377 Y104.315 E.01406
;WIDTH:0.369135
G1 X115.604 Y103.824 E.01467
;WIDTH:0.378968
G1 X115.889 Y103.458 E.01296
G1 X116.275 Y103.136 E.01405
;WIDTH:0.3704
G1 X116.802 Y102.879 E.01597
;WIDTH:0.372527
G1 X117.201 Y102.787 E.01122
;WIDTH:0.387894
G1 X117.759 Y102.764 E.01602
;WIDTH:0.419999
G1 X118.04 Y102.686 E.00914
G1 X118.24 Y102.455 E.00958
G1 X118.644 Y101.593 E.02985
G1 X119.048 Y100.928 E.0244
G1 X119.521 Y100.311 E.02438
G1 X120.057 Y99.748 E.02437
G1 X120.652 Y99.247 E.02439
G1 X121.296 Y98.812 E.02437
G1 X121.984 Y98.449 E.02439
G1 X122.707 Y98.163 E.02438
G1 X123.456 Y97.955 E.02437
G1 X124.224 Y97.83 E.0244
G1 X125 Y97.788 E.02437
G1 X125.776 Y97.83 E.02437
M73 Q13 S1
G1 X126.544 Y97.955 E.0244
G1 X127.293 Y98.163 E.02437
G1 X128.016 Y98.449 E.02438
G1 X128.704 Y98.812 E.02439
G1 X129.348 Y99.247 E.02437
G1 X129.943 Y99.748 E.02439
G1 X130.479 Y100.311 E.02437
G1 X130.952 Y100.928 E.02438
M73 P13 R1
G1 X131.356 Y101.593 E.0244
G1 X131.76 Y102.455 E.02985
G1 X131.96 Y102.686 E.00958
G1 X132.241 Y102.765 E.00915
;WIDTH:0.391645
G1 X132.799 Y102.788 E.01619
;WIDTH:0.373456
G1 X133.198 Y102.879 E.01125
;WIDTH:0.370403
G1 X133.725 Y103.136 E.01597
;WIDTH:0.375935
G1 X134.112 Y103.457 E.01392
G1 X134.375 Y103.788 E.01171
;WIDTH:0.369894
G1 X134.623 Y104.315 E.01584
;WIDTH:0.376231
G1 X134.724 Y104.826 E.01444
G1 X134.725 Y105.203 E.01045
;WIDTH:0.369097
G1 X134.612 Y105.713 E.01417
;WIDTH:0.376485
G1 X134.363 Y106.228 E.01587
G1 X134.107 Y106.552 E.01145
;WIDTH:0.368577
G1 X133.696 Y106.881 E.01426
;WIDTH:0.376701
G1 X133.191 Y107.121 E.01552
G1 X132.741 Y107.218 E.01278
;WIDTH:0.401818
G1 X132.09 Y107.261 E.01947
M204 S1000
G1 X132.09 Y107.261 F10800
G1 X132.208 Y107.608
M204 S800
;TYPE:External perimeter
;WIDTH:0.419999
G1 F1200
G1 X132.101 Y107.705 E.00453
G1 X131.689 Y108.586 E.03049
G1 X131.264 Y109.285 E.02565
G1 X130.766 Y109.935 E.02567
G1 X130.201 Y110.527 E.02566
G1 X129.576 Y111.055 E.02565
G1 X128.898 Y111.512 E.02564
G1 X128.174 Y111.894 E.02567
G1 X127.413 Y112.195 E.02566
G1 X126.625 Y112.413 E.02564
G1 X125.817 Y112.545 E.02567
G1 X125 Y112.589 E.02565
M73 Q14 S1
G1 X124.183 Y112.545 E.02565
G1 X123.375 Y112.413 E.02567
G1 X122.587 Y112.195 E.02564
G1 X121.826 Y111.894 E.02566
G1 X121.102 Y111.512 E.02567
G1 X120.424 Y111.055 E.02564
G1 X119.799 Y110.527 E.02565
G1 X119.234 Y109.935 E.02566
M73 P14 R1
G1 X118.736 Y109.285 E.02567
G1 X118.372 Y108.687 E.02195
G1 X117.873 Y107.665 E.03566
G1 X117.738 Y107.597 E.00474
G1 X117.239 Y107.569 E.01567
G1 X116.92 Y107.513 E.01015
G1 X116.352 Y107.316 E.01885
G1 X115.91 Y107.039 E.01636
G1 X115.503 Y106.632 E.01805
G1 X115.183 Y106.141 E.01838
G1 X115.057 Y105.829 E.01055
G1 X114.935 Y105.298 E.01708
G1 X114.921 Y104.969 E.01032
G1 X114.986 Y104.396 E.01808
G1 X115.158 Y103.904 E.01634
G1 X115.48 Y103.396 E.01886
G1 X115.891 Y102.979 E.01836
G1 X116.17 Y102.79 E.01057
G1 X116.673 Y102.551 E.01746
G1 X117.181 Y102.434 E.01634
G1 X117.78 Y102.396 E.01882
G1 X117.899 Y102.295 E.00489
G1 X118.311 Y101.414 E.03049
G1 X118.736 Y100.715 E.02565
G1 X119.234 Y100.065 E.02567
G1 X119.799 Y99.473 E.02566
G1 X120.424 Y98.945 E.02565
G1 X121.102 Y98.488 E.02564
G1 X121.826 Y98.106 E.02567
G1 X122.587 Y97.805 E.02566
G1 X123.375 Y97.587 E.02564
G1 X124.183 Y97.455 E.02567
M73 Q15 S1
G1 X125 Y97.411 E.02565
G1 X125.817 Y97.455 E.02565
G1 X126.625 Y97.587 E.02567
G1 X127.413 Y97.805 E.02564
G1 X128.174 Y98.106 E.02566
G1 X128.898 Y98.488 E.02567
G1 X129.576 Y98.945 E.02564
M73 P15 R1
G1 X130.201 Y99.473 E.02565
G1 X130.766 Y100.065 E.02566
G1 X131.264 Y100.715 E.02567
G1 X131.689 Y101.414 E.02565
G1 X131.92 Y101.908 E.0171
G1 X132.168 Y102.372 E.0165
G1 X133.114 Y102.494 E.02991
G1 X133.648 Y102.684 E.01777
G1 X133.911 Y102.84 E.00959
G1 X134.348 Y103.193 E.01761
G1 X134.548 Y103.431 E.00975
G1 X134.842 Y103.904 E.01746
G1 X134.992 Y104.313 E.01366
G1 X135.079 Y104.826 E.01631
G1 X135.079 Y105.058 E.00727
G1 X135.014 Y105.603 E.01721
G1 X134.914 Y105.911 E.01015
G1 X134.674 Y106.399 E.01705
G1 X134.475 Y106.66 E.01029
G1 X134.09 Y107.039 E.01694
G1 X133.813 Y107.222 E.01041
G1 X133.287 Y107.466 E.01818
G1 X132.761 Y107.569 E.01681
G1 X132.268 Y107.604 E.0155
M204 S1000
;WIPE_START
G1 F8640
G1 X132.208 Y107.608 E-.01388
G1 X132.101 Y107.705 E-.03335
G1 X131.689 Y108.586 E-.22457
G1 X131.264 Y109.285 E-.18889
G1 X130.766 Y109.935 E-.18907
G1 X130.201 Y110.527 E-.18896
G1 X129.668 Y110.977 E-.16128
;WIPE_END
G1 Z.4 F720
G1 X132.492 Y103.096 F10800
G1 Z.2 F720
M73 Q16 S1
G1 E1 F2100
M204 S800
;TYPE:Perimeter
;WIDTH:0.412905
G1 F1200
G1 X132.545 Y103.094 E.00163
;WIDTH:0.36924
G1 X133.055 Y103.174 E.01401
G1 X133.555 Y103.408 E.01498
;WIDTH:0.367248
G1 X133.976 Y103.795 E.01542
;WIDTH:0.376088
G1 X134.236 Y104.232 E.01409
G1 X134.348 Y104.53 E.00882
;WIDTH:0.369661
G1 X134.409 Y105.058 E.01444
;WIDTH:0.367088
G1 X134.3 Y105.625 E.01556
M73 P16 R1
;WIDTH:0.376485
G1 X134.075 Y106.059 E.01356
G1 X133.869 Y106.327 E.00938
;WIDTH:0.36902
G1 X133.456 Y106.653 E.01427
;WIDTH:0.367018
G1 X132.912 Y106.861 E.0157
;WIDTH:0.381715
G1 X132.268 Y106.899 E.01817
;WIDTH:0.401818
G1 X132.083 Y106.877 E.00556
;WIDTH:0.419999
G1 X131.516 Y106.668 E.01895
G1 X131.083 Y106.318 E.01746
G1 X130.751 Y105.817 E.01884
G1 X130.632 Y105.436 E.01252
G1 X130.568 Y104.986 E.01425
G1 X130.634 Y104.485 E.01584
G1 X130.871 Y103.964 E.01795
G1 X131.333 Y103.462 E.02139
G1 X131.499 Y103.348 E.00631
G1 X132.081 Y103.115 E.01966
;WIDTH:0.412905
G1 X132.432 Y103.099 E.01081
M204 S1000
G1 X132.432 Y103.099 F10800
G1 X132.504 Y103.442
M204 S800
;TYPE:External perimeter
;WIDTH:0.419999
G1 F1200
G1 X132.923 Y103.5 E.01326
G1 X133.395 Y103.723 E.01637
G1 X133.769 Y104.094 E.01652
G1 X133.998 Y104.567 E.01648
G1 X134.057 Y105.089 E.01647
G1 X133.939 Y105.601 E.01647
G1 X133.658 Y106.045 E.01648
G1 X133.245 Y106.371 E.0165
G1 X132.748 Y106.54 E.01646
G1 X132.205 Y106.53 E.01703
G1 X131.726 Y106.355 E.01599
G1 X131.338 Y106.034 E.01579
G1 X131.068 Y105.613 E.01568
G1 X130.942 Y105.034 E.01858
G1 X131.011 Y104.532 E.01589
G1 X131.244 Y104.082 E.01589
G1 X131.641 Y103.697 E.01734
G1 X132.13 Y103.485 E.01671
G1 X132.444 Y103.449 E.00991
M204 S1000
;WIPE_START
G1 F8640
G1 X132.504 Y103.442 E-.01395
G1 X132.923 Y103.5 E-.09767
G1 X133.395 Y103.723 E-.12054
G1 X133.769 Y104.094 E-.12164
M73 Q17 S1
G1 X133.998 Y104.567 E-.12134
G1 X134.057 Y105.089 E-.1213
G1 X133.939 Y105.601 E-.12132
G1 X133.658 Y106.045 E-.12133
G1 X133.245 Y106.371 E-.12149
G1 X133.083 Y106.426 E-.03942
;WIPE_END
G1 Z.4 F720
G1 X118.257 Y103.238 F10800
G1 Z.2 F720
M73 P17 R1
G1 E1 F2100
M204 S800
;TYPE:Perimeter
G1 F1200
G1 X118.539 Y103.366 E.00971
G1 X118.992 Y103.773 E.01909
G1 X119.269 Y104.248 E.01724
G1 X119.373 Y104.526 E.00931
G1 X119.436 Y105.034 E.01605
G1 X119.329 Y105.616 E.01855
G1 X119.225 Y105.857 E.00823
G1 X118.937 Y106.299 E.01654
G1 X118.525 Y106.638 E.01673
G1 X118.358 Y106.731 E.00599
G1 X117.778 Y106.899 E.01893
;WIDTH:0.384907
G1 X117.268 Y106.892 E.0145
;WIDTH:0.376703
G1 X116.928 Y106.809 E.00971
G1 X116.495 Y106.62 E.01311
;WIDTH:0.366933
G1 X116.075 Y106.268 E.01476
;WIDTH:0.369592
G1 X115.772 Y105.803 E.01508
;WIDTH:0.374542
G1 X115.671 Y105.509 E.00857
G1 X115.594 Y104.99 E.01447
;WIDTH:0.367134
G1 X115.68 Y104.421 E.01551
;WIDTH:0.368777
G1 X115.905 Y103.954 E.01405
;WIDTH:0.370424
G1 X116.35 Y103.48 E.01771
;WIDTH:0.37578
G1 X116.62 Y103.317 E.00873
G1 X117.085 Y103.138 E.01379
;WIDTH:0.370158
G1 X117.545 Y103.092 E.01258
;WIDTH:0.401063
G1 X117.91 Y103.119 E.0109
;WIDTH:0.419999
G1 X118.078 Y103.156 E.00539
G1 X118.202 Y103.213 E.00428
M204 S1000
G1 X118.202 Y103.213 F10800
G1 X117.867 Y103.485
M204 S800
;TYPE:External perimeter
G1 F1200
G1 X118.346 Y103.691 E.01635
G1 X118.731 Y104.045 E.0164
G1 X118.98 Y104.513 E.01662
G1 X119.058 Y105.034 E.01652
G1 X118.961 Y105.536 E.01603
G1 X118.691 Y106.005 E.01697
G1 X118.288 Y106.345 E.01653
M73 Q18 S1
G1 X117.795 Y106.53 E.01651
G1 X117.268 Y106.541 E.01653
G1 X116.768 Y106.376 E.01651
G1 X116.362 Y106.064 E.01605
G1 X116.068 Y105.613 E.01688
G1 X115.945 Y105.098 E.0166
G1 X116.001 Y104.574 E.01652
G1 X116.216 Y104.117 E.01584
G1 X116.599 Y103.729 E.01709
G1 X117.077 Y103.5 E.01662
G1 X117.504 Y103.442 E.01351
G1 X117.808 Y103.478 E.0096
M73 P18 R1
M204 S1000
;WIPE_START
G1 F8640
G1 X117.867 Y103.485 E-.01372
G1 X118.346 Y103.691 E-.1204
G1 X118.731 Y104.045 E-.12076
G1 X118.98 Y104.513 E-.12241
G1 X119.058 Y105.034 E-.12164
G1 X118.961 Y105.536 E-.11806
G1 X118.691 Y106.005 E-.12496
G1 X118.288 Y106.345 E-.12175
G1 X117.795 Y106.53 E-.12159
G1 X117.731 Y106.531 E-.01471
;WIPE_END
G1 Z.4 F720
G1 X128.777 Y99.066 F10800
G1 Z.2 F720
G1 E1 F2100
M204 S800
;TYPE:Solid infill
;WIDTH:0.424405
G1 F1200
G1 X130.221 Y100.532 E.06527
G1 X130.672 Y101.12 E.02351
G1 X131.057 Y101.753 E.0235
G1 X131.174 Y102.003 E.00876
G1 X127.991 Y98.82 E.14279
G1 X127.874 Y98.758 E.0042
G1 X127.091 Y98.459 E.02659
M73 Q19 S1
G1 X131.574 Y102.942 E.20111
G1 X131.294 Y103.07 E.00977
M73 P19 R1
G1 X131.219 Y103.126 E.00297
G1 X126.362 Y98.27 E.21786
G1 X125.72 Y98.167 E.02063
G1 X130.933 Y103.38 E.23385
G1 X130.673 Y103.66 E.01212
G1 X125.15 Y98.136 E.24778
G1 X124.622 Y98.148 E.01675
M73 Q20 S1
G1 X130.477 Y104.003 E.26265
G1 X130.323 Y104.325 E.01132
M73 P20 R1
G1 X130.315 Y104.381 E.00179
G1 X124.125 Y98.19 E.2777
G1 X123.661 Y98.266 E.01491
G1 X130.245 Y104.85 E.29536
G1 X130.23 Y105.171 E.01019
M73 P21 R1
M73 Q21 S1
G1 X130.285 Y105.429 E.00837
G1 X123.226 Y98.371 E.31664
G1 X122.805 Y98.489 E.01387
G1 X131.554 Y107.238 E.39248
G1 X131.365 Y107.589 E.01265
M73 Q22 S1
G1 X122.418 Y98.642 E.40136
G1 X122.04 Y98.803 E.01303
M73 P22 R1
G1 X131.193 Y107.956 E.4106
G1 X131.014 Y108.317 E.01278
M73 P23 R1
M73 Q23 S1
G1 X121.687 Y98.99 E.41841
G1 X121.346 Y99.188 E.01251
G1 X130.81 Y108.652 E.42455
G1 X130.672 Y108.88 E.00845
M73 P24 R1
M73 Q24 S1
G1 X130.597 Y108.978 E.00391
G1 X121.024 Y99.405 E.42944
G1 X120.716 Y99.637 E.01223
G1 X130.362 Y109.284 E.43274
G1 X130.117 Y109.577 E.01212
M73 P25 R1
M73 Q25 S1
G1 X120.423 Y99.884 E.43485
G1 X120.147 Y100.147 E.01209
G1 X129.853 Y109.853 E.43541
G1 X129.577 Y110.116 E.01209
M73 P26 R1
M73 Q26 S1
G1 X119.883 Y100.423 E.43485
G1 X119.637 Y100.717 E.01216
M73 Q27 S1
G1 X129.284 Y110.363 E.43274
