; generated by PrusaSlicer 2.7.4+win64 on 2024-04-17 at 09:18:53 UTC


;
;
; 

; external perimeters extrusion width = 0.45mm
; perimeters extrusion width = 0.45mm
; infill extrusion width = 0.45mm
; solid infill extrusion width = 0.45mm
; top infill extrusion width = 0.40mm
; first layer extrusion width = 0.42mm

M73 P0 R9
M73 Q0 S9
M201 X1000 Y1000 Z200 E5000 ; sets maximum accelerations, mm/sec^2
M203 X200 Y200 Z12 E120 ; sets maximum feedrates, mm / sec
M204 S1250 T1250 ; sets acceleration (S) and retract acceleration (R), mm/sec^2
M205 X8.00 Y8.00 Z0.40 E4.50 ; sets the jerk limits, mm/sec
M205 S0 T0 ; sets the minimum extruding and travel feed rate, mm/sec

; printing object caster-wheel-case-8.2mm.STL id:0 copy 0
; stop printing object caster-wheel-case-8.2mm.STL id:0 copy 0

;TYPE:Custom
M862.3 P "MK3S" ; printer model check
M862.1 P0.4 ; nozzle diameter check
M115 U3.13.3 ; tell printer latest fw version
G90 ; use absolute coordinates
M83 ; extruder relative mode
M104 S240 ; set extruder temp
M140 S85 ; set bed temp
M190 S85 ; wait for bed temp
M109 S240 ; wait for extruder temp
G28 W ; home all without mesh bed level
G80 X70.0194 Y156.69 W25.8717 H18.0823 ; mesh bed levelling

G1 Z0.2 F720
G1 Y-3 F1000 ; go outside print area
G92 E0
G1 X60 E9 F1000 ; intro line
G1 X100 E12.5 F1000 ; intro line

G92 E0
M221 S95

; Don't change E values below. Excessive value can damage the printer.
M907 E430 ; set extruder motor current
G21 ; set units to millimeters
G90 ; use absolute coordinates
M83 ; use relative distances for extrusion

M900 K0.08 ; Filament gcode LA 1.5
M900 K45 ; Filament gcode LA 1.0




M107
;LAYER_CHANGE
;Z:0.2
;HEIGHT:0.2
G1 E-1 F2100
M73 P1 R9
M73 Q1 S9
G1 Z.4 F720
G1 X78.619 Y158.015 F10800
G1 Z.2 F720
G1 E1 F2100
M204 S800
;TYPE:Skirt/Brim
;WIDTH:0.42
G1 F1200
G1 X79.508 Y157.582 E.031
G1 X80.979 Y157.105 E.04849
G1 X81.932 Y156.938 E.03034
G1 X83.071 Y156.881 E.03576
G1 X84.087 Y156.951 E.03193
G1 X85.126 Y157.148 E.03316
G1 X86.157 Y157.477 E.03393
G1 X86.985 Y157.852 E.0285
G1 X93.69 Y161.848 E.24473
G1 X94.6 Y162.686 E.03879
G1 X95.209 Y163.618 E.03491
G1 X95.611 Y164.788 E.03879
G1 X95.703 Y165.898 E.03492
G1 X95.499 Y167.118 E.03878
G1 X95.209 Y167.847 E.0246
G1 X94.6 Y168.779 E.03491
G1 X93.69 Y169.616 E.03877
G1 X87.292 Y173.45 E.23387
G1 X86.402 Y173.883 E.03103
G1 X84.932 Y174.36 E.04846
G1 X83.979 Y174.527 E.03034
G1 X82.846 Y174.584 E.03557
G1 X81.824 Y174.514 E.03212
G1 X80.785 Y174.316 E.03316
G1 X79.754 Y173.987 E.03393
G1 X78.925 Y173.613 E.02852
G1 X72.22 Y169.616 E.24475
G1 X71.31 Y168.779 E.03877
G1 X70.701 Y167.847 E.03491
G1 X70.3 Y166.677 E.03878
G1 X70.208 Y165.567 E.03492
G1 X70.412 Y164.347 E.03878
G1 X70.851 Y163.342 E.03439
G1 X71.31 Y162.686 E.0251
G1 X72.22 Y161.848 E.03879
G1 X78.567 Y158.046 E.23198
M204 S1000
G1 X78.567 Y158.046 F10800
M73 Q2 S9
G1 X78.769 Y158.385
M204 S800
G1 F1200
G1 X79.127 Y158.172 E.01306
G1 X79.954 Y157.805 E.02837
G1 X80.923 Y157.503 E.03182
G1 X81.97 Y157.313 E.03336
G1 X83.056 Y157.257 E.0341
G1 X84.034 Y157.324 E.03074
G1 X85.031 Y157.513 E.03182
G1 X86.019 Y157.828 E.03251
M73 P2 R9
G1 X86.827 Y158.194 E.02781
G1 X93.484 Y162.164 E.24302
G1 X94.303 Y162.918 E.0349
G1 X94.877 Y163.798 E.03294
G1 X95.239 Y164.85 E.03488
G1 X95.326 Y165.898 E.03297
G1 X95.142 Y166.995 E.03488
G1 X94.877 Y167.667 E.02265
G1 X94.303 Y168.547 E.03294
G1 X93.484 Y169.301 E.0349
G1 X86.783 Y173.293 E.24456
G1 X85.957 Y173.66 E.02834
G1 X84.988 Y173.962 E.03182
G1 X83.941 Y174.152 E.03336
G1 X82.861 Y174.208 E.03391
G1 X81.877 Y174.14 E.03093
G1 X80.88 Y173.951 E.03182
G1 X79.892 Y173.637 E.0325
G1 X79.084 Y173.271 E.02781
G1 X72.427 Y169.301 E.24302
G1 X71.608 Y168.547 E.0349
G1 X71.033 Y167.667 E.03296
G1 X70.672 Y166.615 E.03487
G1 X70.585 Y165.567 E.03297
G1 X70.768 Y164.47 E.03487
G1 X71.183 Y163.522 E.03245
G1 X71.608 Y162.918 E.02316
G1 X72.427 Y162.164 E.0349
G1 X78.718 Y158.416 E.2296
M204 S1000
;WIPE_START
G1 F8640
G1 X78.769 Y158.385 E-.01378
G1 X79.127 Y158.172 E-.09619
G1 X79.954 Y157.805 E-.20892
G1 X80.923 Y157.503 E-.23436
G1 X81.97 Y157.313 E-.2457
G1 X82.84 Y157.269 E-.20105
;WIPE_END
G1 Z.4 F720
; printing object caster-wheel-case-8.2mm.STL id:0 copy 0
G1 X89.507 Y166.871 F10800
G1 Z.2 F720
G1 E1 F2100
M204 S800
;TYPE:Perimeter
;WIDTH:0.419999
G1 F1200
G1 X89.597 Y166.968 E.00415
G1 X89.135 Y166.966 E.01449
G1 X88.642 Y167.115 E.01615
G1 X88.164 Y167.439 E.01811
G1 X87.888 Y167.766 E.01342
G1 X87.366 Y168.692 E.03333
G1 X86.972 Y169.209 E.02038
G1 X86.516 Y169.674 E.02042
G1 X86.006 Y170.08 E.02044
G1 X85.457 Y170.418 E.02021
G1 X84.876 Y170.684 E.02004
G1 X84.25 Y170.884 E.02061
G1 X83.606 Y171.004 E.02054
G1 X82.955 Y171.044 E.02045
G1 X82.304 Y171.004 E.02045
G1 X81.659 Y170.883 E.02058
G1 X81.035 Y170.685 E.02053
G1 X80.45 Y170.416 E.02019
G1 X79.905 Y170.081 E.02006
G1 X79.393 Y169.672 E.02055
G1 X78.938 Y169.208 E.02038
G1 X78.545 Y168.692 E.02034
G1 X78.001 Y167.731 E.03462
G1 X77.63 Y167.332 E.01708
G1 X77.172 Y167.074 E.01648
G1 X76.616 Y166.957 E.01781
G1 X76.331 Y166.968 E.00894
G1 X76.643 Y166.545 E.01648
G1 X76.728 Y166.349 E.0067
G1 X76.841 Y165.774 E.01837
G1 X76.768 Y165.225 E.01736
G1 X76.546 Y164.776 E.0157
G1 X76.34 Y164.497 E.01087
G1 X76.71 Y164.502 E.0116
G1 X77.311 Y164.334 E.01957
G1 X77.747 Y164.026 E.01674
G1 X78.023 Y163.699 E.01342
G1 X78.545 Y162.773 E.03333
G1 X78.939 Y162.256 E.02038
G1 X79.394 Y161.791 E.0204
G1 X79.909 Y161.381 E.02064
G1 X80.453 Y161.047 E.02002
G1 X81.034 Y160.781 E.02004
G1 X81.663 Y160.58 E.0207
G1 X82.304 Y160.461 E.02044
G1 X82.955 Y160.421 E.02045
G1 X83.606 Y160.461 E.02045
G1 X84.247 Y160.58 E.02044
G1 X84.868 Y160.777 E.02043
G1 X85.46 Y161.048 E.02041
G1 X86.01 Y161.387 E.02026
G1 X86.518 Y161.792 E.02037
G1 X86.972 Y162.257 E.02038
G1 X87.366 Y162.773 E.02036
M73 Q3 S9
G1 X87.909 Y163.734 E.03461
G1 X88.28 Y164.132 E.01706
G1 X88.738 Y164.391 E.0165
G1 X89.246 Y164.501 E.0163
G1 X89.583 Y164.497 E.01057
G1 X89.24 Y164.977 E.0185
G1 X89.083 Y165.505 E.01727
G1 X89.094 Y165.89 E.01208
G1 X89.146 Y166.236 E.01097
G1 X89.353 Y166.703 E.01602
G1 X89.467 Y166.826 E.00526
M204 S1000
G1 X89.467 Y166.826 F10800
G1 X90.015 Y166.846
M204 S800
;TYPE:External perimeter
;WIDTH:0.420716
G1 F1200
G1 X89.669 Y166.494 E.01551
;WIDTH:0.419999
G1 X89.477 Y166.019 E.01606
G1 X89.466 Y165.507 E.01606
G1 X89.599 Y165.093 E.01363
G1 X89.922 Y164.68 E.01644
;WIDTH:0.431496
G1 X90.373 Y164.442 E.01648
G1 X91.04 Y164.383 E.02164
;WIDTH:0.41729
G1 X91.512 Y164.495 E.0151
;WIDTH:0.423881
G1 X91.936 Y164.8 E.01655
G1 X92.187 Y165.168 E.01411
M73 P3 R9
;WIDTH:0.423178
G1 X92.305 Y165.597 E.01407
;WIDTH:0.422418
G1 X92.275 Y166.05 E.01433
;WIDTH:0.421828
G1 X92.094 Y166.471 E.01444
;WIDTH:0.421369
G1 X91.783 Y166.808 E.01443
;WIDTH:0.420898
G1 X91.378 Y167.023 E.01441
;WIDTH:0.420413
G1 X90.931 Y167.086 E.01417
;WIDTH:0.433812
G1 X90.346 Y167.019 E.01914
G1 X90.065 Y166.878 E.01022
M204 S1000
;WIPE_START
G1 F8640
G1 X90.015 Y166.846 E-.01371
G1 X89.669 Y166.494 E-.11397
G1 X89.477 Y166.019 E-.1183
G1 X89.466 Y165.507 E-.11825
G1 X89.599 Y165.093 E-.10041
G1 X89.922 Y164.68 E-.12106
G1 X90.373 Y164.442 E-.11775
G1 X91.04 Y164.383 E-.15461
M73 P3 R8
G1 X91.512 Y164.495 E-.11201
G1 X91.617 Y164.571 E-.02993
;WIPE_END
G1 Z.4 F720
G1 X88.953 Y164.05 F10800
G1 Z.2 F720
G1 E1 F2100
M204 S800
;WIDTH:0.419999
G1 F1200
G1 X89.304 Y164.128 E.01127
G1 X89.835 Y164.092 E.01669
;WIDTH:0.430837
G1 X90.403 Y164.038 E.0184
G1 X91.062 Y164.015 E.02127
;WIDTH:0.42606
G1 X91.503 Y164.09 E.01425
G1 X91.794 Y164.216 E.0101
;WIDTH:0.424571
G1 X92.192 Y164.519 E.01587
;WIDTH:0.420294
G1 X92.468 Y164.892 E.01456
;WIDTH:0.427442
G1 X92.63 Y165.292 E.0138
G1 X92.685 Y165.605 E.01016
;WIDTH:0.422418
G1 X92.661 Y166.026 E.01331
;WIDTH:0.42815
G1 X92.547 Y166.414 E.01295
G1 X92.386 Y166.712 E.01085
;WIDTH:0.421369
G1 X92.034 Y167.093 E.01632
;WIDTH:0.42052
G1 X91.605 Y167.338 E.01551
;WIDTH:0.427803
G1 X91.27 Y167.435 E.01116
G1 X90.909 Y167.453 E.01157
;WIDTH:0.433812
G1 X89.786 Y167.348 E.03666
;WIDTH:0.419999
G1 X89.196 Y167.34 E.0185
G1 X88.76 Y167.473 E.01429
G1 X88.391 Y167.74 E.01428
G1 X88.216 Y167.951 E.0086
G1 X87.681 Y168.9 E.03416
G1 X87.257 Y169.456 E.02192
G1 X86.77 Y169.954 E.02184
G1 X86.223 Y170.39 E.02193
G1 X85.635 Y170.751 E.02163
G1 X85.013 Y171.037 E.02147
G1 X84.342 Y171.25 E.02207
G1 X83.653 Y171.379 E.02198
G1 X82.955 Y171.422 E.02193
G1 X82.258 Y171.379 E.0219
G1 X81.567 Y171.25 E.02204
G1 X80.899 Y171.037 E.02198
G1 X80.272 Y170.75 E.02162
G1 X79.688 Y170.39 E.02151
G1 X79.14 Y169.953 E.02198
G1 X78.653 Y169.455 E.02184
G1 X78.229 Y168.9 E.0219
G1 X77.694 Y167.951 E.03416
G1 X77.395 Y167.628 E.0138
G1 X76.997 Y167.408 E.01426
G1 X76.557 Y167.329 E.01402
G1 X76.235 Y167.357 E.01013
;WIDTH:0.440871
G1 X75.142 Y167.453 E.03631
;WIDTH:0.419104
G1 X74.617 Y167.433 E.01643
;WIDTH:0.428427
G1 X74.145 Y167.263 E.01608
G1 X73.838 Y167.059 E.01182
;WIDTH:0.420988
G1 X73.493 Y166.668 E.01639
;WIDTH:0.421828
G1 X73.28 Y166.181 E.01675
;WIDTH:0.427828
G1 X73.231 Y165.891 E.00941
G1 X73.249 Y165.444 E.01432
;WIDTH:0.419324
G1 X73.41 Y164.95 E.01626
;WIDTH:0.420188
G1 X73.719 Y164.52 E.01661
;WIDTH:0.424543
G1 X74.145 Y164.202 E.01687
;WIDTH:0.430916
G1 X74.642 Y164.033 E.01694
G1 X74.986 Y164.013 E.01112
;WIDTH:0.428117
G1 X75.531 Y164.045 E.01749
G1 X76.125 Y164.118 E.01917
;WIDTH:0.419999
G1 X76.715 Y164.125 E.0185
G1 X77.15 Y163.992 E.01426
G1 X77.52 Y163.725 E.01431
G1 X77.694 Y163.513 E.0086
G1 X78.229 Y162.565 E.03413
G1 X78.653 Y162.009 E.02192
M73 Q3 S8
G1 X79.141 Y161.511 E.02186
G1 X79.693 Y161.072 E.02211
G1 X80.275 Y160.714 E.02142
G1 X80.898 Y160.428 E.02149
G1 X81.571 Y160.214 E.02214
G1 X82.258 Y160.086 E.02191
G1 X82.955 Y160.043 E.0219
G1 X83.653 Y160.086 E.02193
G1 X84.339 Y160.214 E.02188
G1 X85.004 Y160.425 E.02187
G1 X85.638 Y160.715 E.02186
G1 X86.228 Y161.078 E.02172
G1 X86.771 Y161.512 E.0218
G1 X87.258 Y162.01 E.02184
G1 X87.681 Y162.565 E.02188
G1 X88.216 Y163.513 E.03413
G1 X88.516 Y163.837 E.01384
G1 X88.863 Y164.03 E.01245
G1 X88.894 Y164.037 E.001
M204 S1000
;WIPE_START
G1 F8640
G1 X88.953 Y164.05 E-.01395
G1 X89.304 Y164.128 E-.08302
G1 X89.835 Y164.092 E-.12289
G1 X90.403 Y164.038 E-.13174
G1 X91.062 Y164.015 E-.15226
G1 X91.503 Y164.09 E-.10329
G1 X91.794 Y164.216 E-.07322
G1 X92.192 Y164.519 E-.1155
G1 X92.468 Y164.892 E-.10714
G1 X92.625 Y165.281 E-.09699
;WIPE_END
G1 Z.4 F720
G1 X76.29 Y165.104 F10800
G1 Z.2 F720
G1 E1 F2100
M204 S800
G1 F1200
G1 X76.403 Y165.321 E.00767
G1 X76.461 Y165.819 E.01572
G1 X76.332 Y166.331 E.01656
G1 X76.026 Y166.749 E.01624
;WIDTH:0.440871
G1 X75.595 Y167.014 E.01674
G1 X75.149 Y167.082 E.01493
;WIDTH:0.419104
G1 X74.71 Y167.069 E.01374
;WIDTH:0.428427
G1 X74.317 Y166.919 E.01348
G1 X74.078 Y166.768 E.00906
;WIDTH:0.419827
G1 X73.784 Y166.416 E.01437
;WIDTH:0.419656
G1 X73.623 Y165.987 E.01435
;WIDTH:0.419501
G1 X73.614 Y165.529 E.01434
;WIDTH:0.419864
G1 X73.753 Y165.107 E.01393
G1 X74.04 Y164.732 E.0148
;WIDTH:0.420866
G1 X74.433 Y164.482 E.01464
G1 X74.946 Y164.379 E.01644
;WIDTH:0.428158
G1 X75.477 Y164.426 E.01708
G1 X75.934 Y164.636 E.01611
;WIDTH:0.419999
G1 X76.165 Y164.866 E.01022
G1 X76.262 Y165.051 E.00655
M204 S1000
;WIPE_START
G1 F8640
G1 X76.29 Y165.104 E-.01384
G1 X76.403 Y165.321 E-.05649
G1 X76.461 Y165.819 E-.11577
G1 X76.332 Y166.331 E-.12192
G1 X76.026 Y166.749 E-.11962
G1 X75.595 Y167.014 E-.11683
G1 X75.149 Y167.082 E-.10417
G1 X74.71 Y167.069 E-.10141
G1 X74.317 Y166.919 E-.09713
G1 X74.078 Y166.768 E-.06528
G1 X73.835 Y166.477 E-.08754
;WIPE_END
G1 Z.4 F720
G1 X84.666 Y160.891 F10800
G1 Z.2 F720
G1 E1 F2100
M204 S800
;TYPE:Solid infill
;WIDTH:0.429313
G1 F1200
G1 X88.851 Y165.077 E.19018
G1 X88.78 Y165.297 E.00743
G1 X88.744 Y165.515 E.0071
G1 X84.132 Y160.904 E.20953
G1 X83.475 Y160.793 E.02141
M73 Q4 S8
G1 X88.765 Y166.084 E.24038
G1 X88.799 Y166.278 E.00633
M73 P4 R8
G1 X88.964 Y166.659 E.01334
G1 X88.832 Y166.697 E.00441
G1 X82.9 Y160.764 E.26955
G1 X82.385 Y160.796 E.01658
G1 X88.427 Y166.838 E.27453
G1 X88.107 Y167.065 E.01261
G1 X81.92 Y160.878 E.28112
G1 X81.746 Y160.91 E.00568
G1 X81.488 Y160.992 E.0087
G1 X87.813 Y167.317 E.28739
G1 X87.628 Y167.541 E.00933
G1 X87.578 Y167.628 E.00322
G1 X81.082 Y161.132 E.29516
G1 X80.707 Y161.304 E.01326
G1 X87.38 Y167.977 E.3032
G1 X87.183 Y168.326 E.01288
G1 X80.36 Y161.503 E.31002
G1 X80.03 Y161.719 E.01267
G1 X86.966 Y168.656 E.31517
G1 X86.73 Y168.966 E.01252
G1 X79.725 Y161.961 E.31829
G1 X79.444 Y162.226 E.01241
G1 X86.462 Y169.244 E.31888
G1 X86.179 Y169.508 E.01243
M73 Q5 S8
G1 X79.176 Y162.505 E.31819
G1 X78.94 Y162.815 E.01252
M73 P5 R8
G1 X85.875 Y169.751 E.31513
G1 X85.544 Y169.966 E.01268
G1 X78.724 Y163.146 E.30988
G1 X78.526 Y163.495 E.01289
G1 X85.196 Y170.164 E.30304
G1 X84.821 Y170.336 E.01326
G1 X78.329 Y163.843 E.295
G1 X78.283 Y163.924 E.00299
G1 X78.092 Y164.153 E.00958
G1 X84.414 Y170.475 E.28725
G1 X84.167 Y170.554 E.00833
G1 X83.981 Y170.589 E.00608
G1 X77.801 Y164.409 E.2808
G1 X77.63 Y164.54 E.00692
G1 X77.475 Y164.629 E.00574
G1 X83.516 Y170.67 E.27448
G1 X83.001 Y170.701 E.01658
G1 X77.071 Y164.772 E.26942
G1 X76.951 Y164.805 E.004
G1 X77.1 Y165.148 E.01202
G1 X77.13 Y165.377 E.00742
G1 X82.424 Y170.671 E.24054
G1 X81.764 Y170.558 E.02151
G1 X77.164 Y165.957 E.20903
G1 X77.064 Y166.404 E.01472
G1 X81.228 Y170.568 E.1892
M204 S1000
;LAYER_CHANGE
;Z:0.35
;HEIGHT:0.15
;BEFORE_LAYER_CHANGE
G92 E0.0
;0.35


;WIPE_START
G1 F8640
M73 Q6 S8
G1 X78.166 Y167.505 E-1
;WIPE_END
G1 Z.35 F720
;AFTER_LAYER_CHANGE
;0.35
M104 S250 ; set temperature
M140 S90 ; set bed temperature
; stop printing object caster-wheel-case-8.2mm.STL id:0 copy 0
G1 Z.55
G1 X75.679 Y171.678 F10800
G1 Z.35 F720
G1 E1 F2100
;TYPE:Skirt/Brim
;WIDTH:0.42
G1 F2249
G1 X72.22 Y169.616 E.09739
G1 X71.31 Y168.779 E.0299
M73 P6 R8
G1 X70.701 Y167.847 E.02693
G1 X70.3 Y166.677 E.02991
G1 X70.208 Y165.567 E.02694
G1 X70.412 Y164.347 E.02992
G1 X70.851 Y163.342 E.02652
G1 X71.31 Y162.686 E.01936
G1 X72.22 Y161.848 E.02992
G1 X78.619 Y158.015 E.1804
G1 X79.508 Y157.582 E.02392
G1 X80.979 Y157.105 E.0374
G1 X81.932 Y156.938 E.0234
G1 X83.071 Y156.881 E.02758
G1 X84.087 Y156.951 E.02463
G1 X85.126 Y157.148 E.02558
G1 X86.157 Y157.477 E.02617
G1 X86.985 Y157.852 E.02198
G1 X93.69 Y161.848 E.18877
G1 X94.6 Y162.686 E.02992
G1 X95.209 Y163.618 E.02693
G1 X95.611 Y164.788 E.02992
G1 X95.703 Y165.898 E.02694
G1 X95.499 Y167.118 E.02992
G1 X95.209 Y167.847 E.01897
G1 X94.6 Y168.779 E.02693
G1 X93.69 Y169.616 E.0299
G1 X87.292 Y173.45 E.18039
G1 X86.402 Y173.883 E.02394
G1 X84.932 Y174.36 E.03738
G1 X83.979 Y174.527 E.0234
G1 X82.846 Y174.584 E.02744
G1 X81.824 Y174.514 E.02477
G1 X80.785 Y174.316 E.02558
G1 X79.754 Y173.987 E.02617
G1 X78.925 Y173.613 E.022
G1 X75.73 Y171.708 E.08996
G1 X75.73 Y171.708 F10800
G1 X75.923 Y171.386
G1 F2249
G1 X72.427 Y169.301 E.09845
G1 X71.608 Y168.547 E.02692
G1 X71.033 Y167.667 E.02542
G1 X70.672 Y166.615 E.0269
G1 X70.585 Y165.567 E.02543
G1 X70.768 Y164.47 E.0269
G1 X71.183 Y163.522 E.02503
G1 X71.608 Y162.918 E.01786
G1 X72.427 Y162.164 E.02692
G1 X79.127 Y158.172 E.18862
G1 X79.954 Y157.805 E.02188
G1 X80.923 Y157.503 E.02455
G1 X81.97 Y157.313 E.02574
G1 X83.056 Y157.257 E.0263
G1 X84.034 Y157.324 E.02371
G1 X85.031 Y157.513 E.02454
G1 X86.019 Y157.828 E.02508
G1 X86.827 Y158.194 E.02145
G1 X93.484 Y162.164 E.18745
G1 X94.303 Y162.918 E.02692
G1 X94.877 Y163.798 E.02541
G1 X95.239 Y164.85 E.02691
G1 X95.326 Y165.898 E.02543
G1 X95.142 Y166.995 E.0269
G1 X94.877 Y167.667 E.01747
G1 X94.303 Y168.547 E.02541
G1 X93.484 Y169.301 E.02692
G1 X86.783 Y173.293 E.18864
G1 X85.957 Y173.66 E.02186
G1 X84.988 Y173.962 E.02455
G1 X83.941 Y174.152 E.02574
G1 X82.861 Y174.208 E.02615
G1 X81.877 Y174.14 E.02385
G1 X80.88 Y173.951 E.02454
G1 X79.892 Y173.637 E.02507
G1 X79.084 Y173.271 E.02145
G1 X75.974 Y171.416 E.08758
;WIPE_START
G1 F8640
G1 X75.923 Y171.386 E-.01366
G1 X72.427 Y169.301 E-.9399
G1 X72.279 Y169.165 E-.04644
;WIPE_END
G1 Z.55 F720
