; generated by PrusaSlicer 2.6.1+win64 on 2023-10-13 at 15:32:26 UTC


;
;
; 

; external perimeters extrusion width = 0.45mm
; perimeters extrusion width = 0.45mm
; infill extrusion width = 0.45mm
; solid infill extrusion width = 0.45mm
; top infill extrusion width = 0.40mm
; first layer extrusion width = 0.42mm

M73 P0 R15
M73 Q0 S15
M201 X1000 Y1000 Z200 E5000 ; sets maximum accelerations, mm/sec^2
M203 X200 Y200 Z12 E120 ; sets maximum feedrates, mm / sec
M204 S1250 T1250 ; sets acceleration (S) and retract acceleration (R), mm/sec^2
M205 X8.00 Y8.00 Z0.40 E4.50 ; sets the jerk limits, mm/sec
M205 S0 T0 ; sets the minimum extruding and travel feed rate, mm/sec
;TYPE:Custom
M862.3 P "MK3S" ; printer model check
M862.1 P0.4 ; nozzle diameter check
M115 U3.13.1 ; tell printer latest fw version
G90 ; use absolute coordinates
M83 ; extruder relative mode
M104 S240 ; set extruder temp
M140 S85 ; set bed temp
M190 S85 ; wait for bed temp
M109 S240 ; wait for extruder temp
G28 W ; home all without mesh bed level
G80 ; mesh bed leveling

G1 Z0.2 F720
G1 Y-3 F1000 ; go outside print area
G92 E0
G1 X60 E9 F1000 ; intro line
G1 X100 E12.5 F1000 ; intro line

G92 E0
M221 S95

; Don't change E values below. Excessive value can damage the printer.
M907 E430 ; set extruder motor current
G21 ; set units to millimeters
G90 ; use absolute coordinates
M83 ; use relative distances for extrusion
M900 K0.08 ; Filament gcode LA 1.5
M900 K45 ; Filament gcode LA 1.0
M107
;LAYER_CHANGE
;Z:0.2
;HEIGHT:0.2
;BEFORE_LAYER_CHANGE
G92 E0.0
;0.2


G1 E-1 F2100
G1 Z.2 F720
;AFTER_LAYER_CHANGE
;0.2
G1 Z.4
G1 X119.639 Y94.583 F10800
G1 Z.2 F720
G1 E1 F2100
M204 S800
;TYPE:Skirt/Brim
;WIDTH:0.42
G1 F1200
G1 X120.705 Y93.569 E.04613
G1 X122 Y93.246 E.04185
G1 X128 Y93.246 E.18813
G1 X129.417 Y93.639 E.04611
G1 X130.431 Y94.705 E.04613
G1 X130.754 Y96 E.04185
G1 X130.754 Y114 E.56438
G1 X130.361 Y115.417 E.04611
G1 X129.295 Y116.431 E.04613
G1 X128 Y116.754 E.04185
M73 Q1 S15
G1 X122 Y116.754 E.18813
G1 X120.583 Y116.361 E.04611
M73 P1 R15
G1 X119.569 Y115.295 E.04613
G1 X119.246 Y114 E.04185
G1 X119.246 Y96 E.56438
G1 X119.623 Y94.64 E.04425
M204 S1000
G1 X119.997 Y94.752 F10800
M204 S800
G1 F1200
G1 X120.015 Y94.693 E.00193
G1 X121.06 Y93.817 E.04275
G1 X122 Y93.623 E.03009
G1 X128 Y93.623 E.18813
G1 X129.307 Y94.015 E.04278
G1 X130.183 Y95.06 E.04275
G1 X130.377 Y96 E.03009
G1 X130.377 Y114 E.56438
G1 X129.985 Y115.307 E.04278
G1 X128.94 Y116.183 E.04275
G1 X128 Y116.377 E.03009
G1 X122 Y116.377 E.18813
G1 X120.693 Y115.985 E.04278
G1 X119.817 Y114.94 E.04275
G1 X119.623 Y114 E.03009
G1 X119.623 Y96 E.56438
G1 X119.979 Y94.81 E.03895
M204 S1000
; printing object corner-straight.STL id:0 copy 0
;WIPE_START
G1 F8640
G1 X120.015 Y94.693 E-.02827
G1 X121.06 Y93.817 E-.31486
G1 X122 Y93.623 E-.22162
M73 P1 R14
G1 X123.885 Y93.623 E-.43525
;WIPE_END
G1 Z.4 F720
G1 X122.787 Y113.213 F10800
G1 Z.2 F720
G1 E1 F2100
M204 S800
;TYPE:Perimeter
;WIDTH:0.419999
G1 F1200
G1 X122.787 Y96.787 E.51502
G1 X127.213 Y96.787 E.13877
G1 X127.213 Y113.213 E.51502
G1 X122.847 Y113.213 E.13689
M204 S1000
G1 X122.41 Y113.59 F10800
M204 S800
;TYPE:External perimeter
G1 F1200
G1 X122.41 Y96.41 E.53867
G1 X127.59 Y96.41 E.16241
M73 Q1 S14
G1 X127.59 Y113.59 E.53867
G1 X122.47 Y113.59 E.16053
M204 S1000
M73 P2 R14
M73 Q2 S14
G1 X122.449 Y113.192 F10800
;WIPE_START
G1 F8640
G1 X122.455 Y109.259 E-1
;WIPE_END
G1 Z.4 F720
G1 X127.043 Y97.74 F10800
G1 Z.2 F720
G1 E1 F2100
M204 S800
;TYPE:Solid infill
;WIDTH:0.429886
G1 F1200
G1 X126.43 Y97.126 E.02792
G1 X125.882 Y97.126 E.01763
G1 X126.874 Y98.118 E.04514
G1 X126.874 Y98.665 E.0176
G1 X125.335 Y97.126 E.07003
G1 X124.788 Y97.126 E.0176
G1 X126.874 Y99.212 E.09492
G1 X126.874 Y99.759 E.0176
G1 X124.241 Y97.126 E.11981
G1 X123.693 Y97.126 E.01763
G1 X126.874 Y100.307 E.14475
G1 X126.874 Y100.854 E.0176
G1 X123.146 Y97.126 E.16964
G1 X123.126 Y97.126 E.00064
G1 X123.126 Y97.654 E.01699
G1 X126.874 Y101.401 E.17053
G1 X126.874 Y101.948 E.0176
G1 X123.126 Y98.201 E.17053
G1 X123.126 Y98.748 E.0176
G1 X126.874 Y102.496 E.17055
G1 X126.874 Y103.043 E.0176
G1 X123.126 Y99.296 E.17053
G1 X123.126 Y99.843 E.0176
G1 X126.874 Y103.59 E.17053
G1 X126.874 Y104.137 E.0176
G1 X123.126 Y100.39 E.17053
G1 X123.126 Y100.938 E.01763
G1 X126.874 Y104.685 E.17053
G1 X126.874 Y105.232 E.0176
G1 X123.126 Y101.485 E.17053
G1 X123.126 Y102.032 E.0176
G1 X126.874 Y105.779 E.17053
G1 X126.874 Y106.326 E.0176
G1 X123.126 Y102.579 E.17053
G1 X123.126 Y103.127 E.01763
G1 X126.874 Y106.874 E.17053
G1 X126.874 Y107.421 E.0176
G1 X123.126 Y103.674 E.17053
G1 X123.126 Y104.221 E.0176
G1 X126.874 Y107.968 E.17053
G1 X126.874 Y108.515 E.0176
G1 X123.126 Y104.768 E.17053
G1 X123.126 Y105.316 E.01763
G1 X126.874 Y109.063 E.17053
G1 X126.874 Y109.61 E.0176
G1 X123.126 Y105.863 E.17053
G1 X123.126 Y106.41 E.0176
G1 X126.874 Y110.157 E.17053
G1 X126.874 Y110.704 E.0176
G1 X123.126 Y106.957 E.17053
G1 X123.126 Y107.505 E.01763
G1 X126.874 Y111.252 E.17053
G1 X126.874 Y111.799 E.0176
G1 X123.126 Y108.052 E.17053
G1 X123.126 Y108.599 E.0176
G1 X126.874 Y112.346 E.17053
G1 X126.874 Y112.874 E.01699
G1 X126.854 Y112.874 E.00064
G1 X123.126 Y109.146 E.16964
G1 X123.126 Y109.694 E.01763
G1 X126.306 Y112.874 E.1447
M73 Q3 S14
G1 X125.759 Y112.874 E.0176
G1 X123.126 Y110.241 E.11981
M73 P3 R14
G1 X123.126 Y110.788 E.0176
G1 X125.212 Y112.874 E.09492
G1 X124.665 Y112.874 E.0176
G1 X123.126 Y111.335 E.07003
G1 X123.126 Y111.883 E.01763
G1 X124.117 Y112.874 E.04509
G1 X123.57 Y112.874 E.0176
G1 X122.957 Y112.26 E.02792
M204 S1000
; stop printing object corner-straight.STL id:0 copy 0
;LAYER_CHANGE
;Z:0.4
;HEIGHT:0.2
;BEFORE_LAYER_CHANGE
G92 E0.0
;0.4


;WIPE_START
G1 F8640
G1 X123.57 Y112.874 E-.20034
G1 X124.117 Y112.874 E-.1263
G1 X123.126 Y111.883 E-.32361
G1 X123.126 Y111.335 E-.12653
G1 X123.81 Y112.019 E-.22322
;WIPE_END
G1 Z.4 F720
;AFTER_LAYER_CHANGE
;0.4
M104 S250 ; set temperature
M140 S90 ; set bed temperature
G1 Z.6
G1 X119.246 Y112.019 F10800
G1 Z.4 F720
G1 E1 F2100
;TYPE:Skirt/Brim
;WIDTH:0.42
G1 F1658
G1 X119.246 Y96 E.50226
G1 X119.639 Y94.583 E.04611
G1 X120.705 Y93.569 E.04613
G1 X122 Y93.246 E.04185
G1 X128 Y93.246 E.18813
G1 X129.417 Y93.639 E.04611
G1 X130.431 Y94.705 E.04613
G1 X130.754 Y96 E.04185
G1 X130.754 Y114 E.56438
G1 X130.361 Y115.417 E.04611
G1 X129.295 Y116.431 E.04613
G1 X128 Y116.754 E.04185
G1 X122 Y116.754 E.18813
G1 X120.583 Y116.361 E.04611
G1 X119.569 Y115.295 E.04613
G1 X119.246 Y114 E.04185
G1 X119.246 Y112.079 E.06023
G1 X119.623 Y112.079 F10800
G1 F1658
G1 X119.623 Y96 E.50415
G1 X120.015 Y94.693 E.04278
G1 X121.06 Y93.817 E.04275
G1 X122 Y93.623 E.03009
G1 X128 Y93.623 E.18813
G1 X129.307 Y94.015 E.04278
G1 X130.183 Y95.06 E.04275
G1 X130.377 Y96 E.03009
G1 X130.377 Y114 E.56438
G1 X129.985 Y115.307 E.04278
G1 X128.94 Y116.183 E.04275
G1 X128 Y116.377 E.03009
G1 X122 Y116.377 E.18813
G1 X120.693 Y115.985 E.04278
G1 X119.817 Y114.94 E.04275
G1 X119.623 Y114 E.03009
G1 X119.623 Y112.139 E.05835
; printing object corner-straight.STL id:0 copy 0
;WIPE_START
G1 F8640
G1 X119.623 Y107.808 E-1
;WIPE_END
G1 Z.6 F720
G1 X122.632 Y113.368 F10800
G1 Z.4 F720
G1 E1 F2100
M204 S800
;TYPE:Perimeter
;WIDTH:0.449999
G1 F1658
G1 X122.632 Y96.632 E.56649
G1 X127.368 Y96.632 E.16031
G1 X127.368 Y113.368 E.56649
G1 X122.692 Y113.368 E.15828
M204 S1000
G1 X122.225 Y113.775 F10800
M204 S800
;TYPE:External perimeter
G1 F1500
G1 X122.225 Y96.225 E.59405
G1 X127.775 Y96.225 E.18786
G1 X127.775 Y113.775 E.59405
M73 Q4 S14
G1 X122.285 Y113.775 E.18583
M204 S1000
M73 P4 R14
G1 X122.266 Y113.377 F10800
;WIPE_START
G1 F8640
G1 X122.27 Y109.444 E-1
;WIPE_END
G1 Z.6 F720
G1 X123.109 Y97.031 F10800
G1 Z.4 F720
G1 E1 F2100
;TYPE:Solid infill
;WIDTH:0.548766
G1 F1658
G1 X123.064 Y96.987 E.00265
G1 X123.003 Y97.003 E.00265
G1 X122.987 Y97.064 E.00265
G1 X123.031 Y97.109 E.00265
G1 X123.093 Y97.093 E.00269
;WIDTH:0.449999
G1 X123.743 Y96.998 E.02224
G1 X122.932 Y97.815 E.03897
;WIDTH:0.41646
G1 X122.866 Y97.888 E.00306
;WIDTH:0.38292
G1 X122.795 Y97.869 E.00208
G1 X122.814 Y97.94 E.00208
G1 X122.855 Y97.929 E.0012
;WIDTH:0.449999
G1 X122.998 Y98.318 E.01403
G1 X124.318 Y96.998 E.06319
G1 X124.894 Y96.998 E.0195
G1 X122.998 Y98.894 E.09076
G1 X122.998 Y99.47 E.0195
G1 X125.47 Y96.998 E.11833
G1 X126.046 Y96.998 E.0195
G1 X122.998 Y100.046 E.14591
G1 X122.998 Y100.621 E.01946
G1 X126.621 Y96.998 E.17343
G1 X127.138 Y96.892 E.01786
;WIDTH:0.38292
G1 X127.067 Y96.873 E.00208
G1 X127.086 Y96.944 E.00208
G1 X127.127 Y96.933 E.0012
;WIDTH:0.41646
G1 X127.064 Y97.064 E.00451
;WIDTH:0.449999
G1 X127.002 Y97.194 E.00488
G1 X122.998 Y101.197 E.19165
G1 X122.998 Y101.773 E.0195
G1 X127.002 Y97.77 E.19165
G1 X127.002 Y98.345 E.01946
G1 X122.998 Y102.348 E.19165
G1 X122.998 Y102.924 E.0195
G1 X127.002 Y98.921 E.19165
G1 X127.002 Y99.497 E.0195
G1 X122.998 Y103.5 E.19165
G1 X122.998 Y104.075 E.01946
G1 X127.002 Y100.072 E.19165
G1 X127.002 Y100.648 E.0195
G1 X122.998 Y104.651 E.19165
G1 X122.998 Y105.227 E.0195
G1 X127.002 Y101.224 E.19165
G1 X127.002 Y101.799 E.01946
G1 X122.998 Y105.803 E.19167
G1 X122.998 Y106.378 E.01946
G1 X127.002 Y102.375 E.19165
G1 X127.002 Y102.951 E.0195
G1 X122.998 Y106.954 E.19165
G1 X122.998 Y107.53 E.0195
G1 X127.002 Y103.527 E.19165
G1 X127.002 Y104.102 E.01946
G1 X122.998 Y108.105 E.19165
G1 X122.998 Y108.681 E.0195
G1 X127.002 Y104.678 E.19165
G1 X127.002 Y105.254 E.0195
G1 X122.998 Y109.257 E.19165
G1 X122.998 Y109.832 E.01946
G1 X127.002 Y105.829 E.19165
G1 X127.002 Y106.405 E.0195
G1 X122.998 Y110.408 E.19165
G1 X122.998 Y110.984 E.0195
G1 X127.002 Y106.981 E.19165
G1 X127.002 Y107.556 E.01946
G1 X122.998 Y111.559 E.19165
G1 X122.998 Y112.135 E.0195
G1 X127.002 Y108.132 E.19165
G1 X127.002 Y108.708 E.0195
G1 X122.998 Y112.711 E.19165
G1 X122.977 Y112.893 E.0062
;WIDTH:0.41646
G1 X122.955 Y113.075 E.00569
;WIDTH:0.38292
G1 X122.884 Y113.056 E.00208
G1 X122.903 Y113.127 E.00208
G1 X122.944 Y113.116 E.0012
;WIDTH:0.449999
G1 X123.283 Y113.002 E.01211
G1 X127.002 Y109.283 E.17803
G1 X127.002 Y109.859 E.0195
G1 X123.859 Y113.002 E.15045
G1 X124.435 Y113.002 E.0195
G1 X127.002 Y110.435 E.12288
G1 X127.002 Y111.011 E.0195
G1 X125.011 Y113.002 E.09531
G1 X125.586 Y113.002 E.01946
G1 X127.002 Y111.586 E.06778
G1 X127.002 Y112.162 E.0195
G1 X126.162 Y113.002 E.04021
G1 X126.104 Y113.083 E.00337
;WIDTH:0.41646
G1 X126.047 Y113.164 E.00308
;WIDTH:0.38292
G1 X125.976 Y113.145 E.00208
G1 X125.995 Y113.216 E.00208
G1 X126.036 Y113.205 E.0012
G1 X126.974 Y112.974 F10800
;WIDTH:0.604582
G1 F1658
G1 X126.906 Y112.992 E.00329
G1 X126.856 Y112.942 E.0033
G1 X126.875 Y112.875 E.00325
G1 X126.942 Y112.856 E.00325
G1 X126.992 Y112.906 E.0033
; stop printing object corner-straight.STL id:0 copy 0
;LAYER_CHANGE
;Z:0.6
;HEIGHT:0.2
;BEFORE_LAYER_CHANGE
G92 E0.0
;0.6


;WIPE_START
G1 F8640
G1 X126.942 Y112.856 E-.01633
G1 X126.875 Y112.875 E-.01608
G1 X126.856 Y112.942 E-.01608
G1 X126.906 Y112.992 E-.01633
G1 X126.974 Y112.974 E-.01624
;WIPE_END
G1 E-.91894 F2100
G1 Z.6 F720
;AFTER_LAYER_CHANGE
;0.6
G1 Z.8
G1 X130.754 Y112.974 F10800
G1 Z.6 F720
M73 Q5 S14
G1 E1 F2100
;TYPE:Skirt/Brim
;WIDTH:0.42
G1 F1661
G1 X130.754 Y114 E.03217
G1 X130.361 Y115.417 E.04611
G1 X129.295 Y116.431 E.04613
G1 X128 Y116.754 E.04185
M73 P5 R14
G1 X122 Y116.754 E.18813
G1 X120.583 Y116.361 E.04611
G1 X119.569 Y115.295 E.04613
G1 X119.246 Y114 E.04185
G1 X119.246 Y96 E.56438
G1 X119.639 Y94.583 E.04611
G1 X120.705 Y93.569 E.04613
G1 X122 Y93.246 E.04185
G1 X128 Y93.246 E.18813
G1 X129.417 Y93.639 E.04611
G1 X130.431 Y94.705 E.04613
G1 X130.754 Y96 E.04185
G1 X130.754 Y112.914 E.53033
G1 X130.377 Y112.914 F10800
G1 F1661
G1 X130.377 Y114 E.03405
G1 X129.985 Y115.307 E.04278
G1 X128.94 Y116.183 E.04275
G1 X128 Y116.377 E.03009
G1 X122 Y116.377 E.18813
G1 X120.693 Y115.985 E.04278
G1 X119.817 Y114.94 E.04275
G1 X119.623 Y114 E.03009
G1 X119.623 Y96 E.56438
G1 X120.015 Y94.693 E.04278
G1 X121.06 Y93.817 E.04275
G1 X122 Y93.623 E.03009
G1 X128 Y93.623 E.18813
G1 X129.307 Y94.015 E.04278
G1 X130.183 Y95.06 E.04275
G1 X130.377 Y96 E.03009
G1 X130.377 Y112.854 E.52845
; printing object corner-straight.STL id:0 copy 0
;WIPE_START
G1 F8640
G1 X130.377 Y114 E-.26461
G1 X129.985 Y115.307 E-.31507
G1 X128.94 Y116.183 E-.31486
G1 X128.493 Y116.275 E-.10546
;WIPE_END
G1 Z.8 F720
G1 X122.632 Y113.368 F10800
G1 Z.6 F720
G1 E1 F2100
M204 S800
;TYPE:Perimeter
;WIDTH:0.449999
G1 F1661

G1 X122.632 Y96.632 E.56649
G1 X127.368 Y96.632 E.16031
G1 X127.368 Y113.368 E.56649
G1 X122.692 Y113.368 E.15828

M204 S1000
G1 X122.225 Y113.775 F10800
M204 S800
;TYPE:External perimeter
G1 F1500

G1 X122.225 Y113.325 E.01523
G1 X122.225 Y96.675 E.56358
G1 X122.225 Y96.225 E.01523
G1 X122.675 Y96.225 E.01523
G1 X127.325 Y96.225 E.1574
G1 X127.775 Y96.225 E.01523
G1 X127.775 Y96.675 E.01523
G1 X127.775 Y113.325 E.56358
G1 X127.775 Y113.775 E.01523
G1 X127.325 Y113.775 E.01523
G1 X122.735 Y113.775 E.15537
G1 X122.285 Y113.775 E.01523

M204 S1000
G1 X122.266 Y113.377 F10800
;WIPE_START
G1 F8640
G1 X122.27 Y109.444 E-1
;WIPE_END
G1 Z.8 F720
G1 X123.031 Y112.891 F10800
G1 Z.6 F720
G1 E1 F2100
;TYPE:Solid infill
;WIDTH:0.548766
M73 Q6 S14
G1 F1661
G1 X122.987 Y112.936 E.00265
G1 X123.003 Y112.997 E.00265
G1 X123.064 Y113.013 E.00265
G1 X123.109 Y112.969 E.00265
G1 X123.093 Y112.907 E.00269
;WIDTH:0.449999
G1 X123.743 Y113.002 E.02224
G1 X122.998 Y112.257 E.03566
G1 X122.927 Y112.164 E.00396
;WIDTH:0.41646
G1 X122.855 Y112.071 E.00365
;WIDTH:0.38292
G1 X122.866 Y112.112 E.0012
G1 X122.795 Y112.131 E.00208
M73 P6 R14
G1 X122.814 Y112.06 E.00208
;WIDTH:0.449999
G1 X122.998 Y111.682 E.01423
G1 X124.318 Y113.002 E.06319
G1 X124.894 Y113.002 E.0195
G1 X122.998 Y111.106 E.09076
G1 X122.998 Y110.53 E.0195
G1 X125.47 Y113.002 E.11833
G1 X126.046 Y113.002 E.0195
G1 X122.998 Y109.954 E.14591
G1 X122.998 Y109.379 E.01946
G1 X126.621 Y113.002 E.17343
G1 X127.127 Y113.067 E.01727
;WIDTH:0.38292
G1 X127.138 Y113.108 E.0012
G1 X127.067 Y113.127 E.00208
G1 X127.086 Y113.056 E.00208
;WIDTH:0.41646
G1 X127.044 Y112.931 E.0041
;WIDTH:0.449999
G1 X127.002 Y112.806 E.00446
G1 X122.998 Y108.803 E.19165
G1 X122.998 Y108.227 E.0195
G1 X127.002 Y112.23 E.19165
G1 X127.002 Y111.655 E.01946
G1 X122.998 Y107.652 E.19165
G1 X122.998 Y107.076 E.0195
G1 X127.002 Y111.079 E.19165
G1 X127.002 Y110.503 E.0195
G1 X122.998 Y106.5 E.19165
G1 X122.998 Y105.925 E.01946
G1 X127.002 Y109.928 E.19165
G1 X127.002 Y109.352 E.0195
G1 X122.998 Y105.349 E.19165
G1 X122.998 Y104.773 E.0195
G1 X127.002 Y108.776 E.19165
G1 X127.002 Y108.201 E.01946
G1 X122.998 Y104.197 E.19167
G1 X122.998 Y103.622 E.01946
G1 X127.002 Y107.625 E.19165
G1 X127.002 Y107.049 E.0195
G1 X122.998 Y103.046 E.19165
G1 X122.998 Y102.47 E.0195
G1 X127.002 Y106.473 E.19165
G1 X127.002 Y105.898 E.01946
G1 X122.998 Y101.895 E.19165
G1 X122.998 Y101.319 E.0195
G1 X127.002 Y105.322 E.19165
G1 X127.002 Y104.746 E.0195
G1 X122.998 Y100.743 E.19165
G1 X122.998 Y100.168 E.01946
G1 X127.002 Y104.171 E.19165
G1 X127.002 Y103.595 E.0195
G1 X122.998 Y99.592 E.19165
G1 X122.998 Y99.016 E.0195
G1 X127.002 Y103.019 E.19165
G1 X127.002 Y102.444 E.01946
G1 X122.998 Y98.441 E.19165
G1 X122.998 Y97.865 E.0195
G1 X127.002 Y101.868 E.19165
G1 X127.002 Y101.292 E.0195
G1 X122.998 Y97.289 E.19165
G1 X122.903 Y96.873 E.01444
;WIDTH:0.38292
G1 X122.884 Y96.944 E.00208
G1 X122.955 Y96.925 E.00208
G1 X122.944 Y96.884 E.0012
;WIDTH:0.41646
G1 X123.114 Y96.941 E.00557
;WIDTH:0.449999
G1 X123.283 Y96.998 E.00604
G1 X127.002 Y100.717 E.17803
G1 X127.002 Y100.141 E.0195
G1 X123.859 Y96.998 E.15045
G1 X124.435 Y96.998 E.0195
G1 X127.002 Y99.565 E.12288
G1 X127.002 Y98.989 E.0195
G1 X125.011 Y96.998 E.09531
G1 X125.586 Y96.998 E.01946
G1 X127.002 Y98.414 E.06778
G1 X127.002 Y97.838 E.0195
G1 X126.162 Y96.998 E.04021
G1 X126.099 Y96.897 E.00403
;WIDTH:0.41646
G1 X126.036 Y96.795 E.00372
;WIDTH:0.38292
G1 X126.047 Y96.836 E.0012
G1 X125.976 Y96.855 E.00208
G1 X125.995 Y96.784 E.00208
G1 X126.906 Y97.008 F10800
;WIDTH:0.60458
G1 F1661
