; generated by PrusaSlicer 2.7.0+win64 on 2023-12-31 at 10:09:12 UTC


;
;

;
;

;
;

;
;
; 

; external perimeters extrusion width = 0.45mm
; perimeters extrusion width = 0.45mm
; infill extrusion width = 0.45mm
; solid infill extrusion width = 0.45mm
; top infill extrusion width = 0.40mm
; first layer extrusion width = 0.50mm

M73 P0 R10
M201 X2500 Y2500 Z200 E2500 ; sets maximum accelerations, mm/sec^2
M203 X200 Y200 Z40 E100 ; sets maximum feedrates, mm / sec
M204 P2000 R1200 T2000 ; sets acceleration (P, T) and retract acceleration (R), mm/sec^2
M205 X8.00 Y8.00 Z2.00 E10.00 ; sets the jerk limits, mm/sec
M205 S0 T0 ; sets the minimum extruding and travel feed rate, mm/sec

; printing object spacer-fix.STL id:0 copy 0
; stop printing object spacer-fix.STL id:0 copy 0

;TYPE:Custom
M17 ; enable steppers
M862.3 P "MK4" ; printer model check
M862.1 P0.4 ; nozzle diameter check
M555 X117.5 Y97 W32 H12

G90 ; use absolute coordinates
M83 ; extruder relative mode

M140 S85 ; set bed temp
M104 T0 S195 ; set extruder temp for bed leveling
M109 T0 R195 ; wait for temp

M84 E ; turn off E motor

G28 ; home all without mesh bed level

G1 X42 Y-4 Z5 F4800

M302 S160 ; lower cold extrusion limit to 160C


G1 E-2 F2400 ; retraction


M84 E ; turn off E motor

G29 P9 X10 Y-4 W32 H4



G0 Z40 F10000

M190 S85 ; wait for bed temp

M107

;
; MBL
;
M84 E ; turn off E motor
G29 P1 ; invalidate mbl & probe print area
G29 P1 X0 Y0 W50 H20 C ; probe near purge place
G29 P3.2 ; interpolate mbl probes
G29 P3.13 ; extrapolate mbl outside probe area
G29 A ; activate mbl

; prepare for purge
M104 S230
G0 X0 Y-4 Z15 F4800 ; move away and ready for the purge
M109 S230

G92 E0
M569 S0 E ; set spreadcycle mode for extruder

;
; Extrude purge line
;
G92 E0 ; reset extruder position
G1 E2 F2400 ; deretraction after the initial one before nozzle cleaning
G0 E7 X15 Z0.2 F500 ; purge
G0 X25 E4 F500 ; purge
G0 X35 E4 F650 ; purge
M73 P1 R10
G0 X45 E4 F800 ; purge
G0 X48 Z0.05 F8000 ; wipe, move close to the bed
G0 X51 Z0.2 F8000 ; wipe, move quickly away from the bed

G92 E0
M221 S100 ; set flow to 100%
G21 ; set units to millimeters
G90 ; use absolute coordinates
M83 ; use relative distances for extrusion
M900 K0.07 ; Filament gcode



M142 S36 ; set heatbreak target temp
M107
;LAYER_CHANGE
;Z:0.2
;HEIGHT:0.2
;BEFORE_LAYER_CHANGE
G92 E0.0
;0.2


G1 E-1 F2100
G1 Z.2 F720
;AFTER_LAYER_CHANGE
;0.2
; printing object spacer-fix.STL id:0 copy 0
G1 X131.593 Y108.094 F12000
G1 Z.2 F720
G1 E1 F1500
M204 P600
;TYPE:Perimeter
;WIDTH:0.499999
G1 F1200
G1 X128.431 Y108.101 E.12018
G1 X127.825 Y108.113 E.02304
G1 X127.314 Y108.164 E.01952
G1 X127.444 Y107.571 E.02307
G1 X127.497 Y107.008 E.02149
G1 X127.507 Y106 E.03831
G1 X127.494 Y102.931 E.11664
G1 X127.43 Y102.344 E.02244
G1 X127.314 Y101.836 E.0198
G1 X127.443 Y101.856 E.00496
G1 X127.998 Y101.898 E.02115
G1 X131.593 Y101.906 E.13663
G1 X131.593 Y103.948 E.07761
G1 X131.593 Y108.034 E.15529
M204 P1000
;WIPE_START
G1 F9600
G1 X131.593 Y108.094 E-.01247
G1 X128.431 Y108.101 E-.6571
G1 X127.825 Y108.113 E-.12596
G1 X127.314 Y108.164 E-.10672
G1 X127.415 Y107.705 E-.09775
;WIPE_END
G1 Z.35 F720
G1 X122.686 Y101.836 F12000
G1 Z.2 F720
G1 E1 F1500
M204 P600
G1 F1200
G1 X122.556 Y102.429 E.02307
G1 X122.503 Y102.992 E.02149
G1 X122.493 Y104 E.03831
G1 X122.506 Y107.069 E.11664
G1 X122.57 Y107.656 E.02244
G1 X122.686 Y108.164 E.0198
G1 X122.557 Y108.144 E.00496
G1 X122.002 Y108.102 E.02115
G1 X118.407 Y108.094 E.13663
G1 X118.407 Y101.906 E.23518
G1 X121.569 Y101.899 E.12018
G1 X122.175 Y101.887 E.02304
G1 X122.626 Y101.842 E.01723
M204 P1000
G1 X123.361 Y101.732 F12000
M204 P600
;TYPE:External perimeter
G1 F1200
G1 X126.482 Y101.729 E.11862
G1 X126.776 Y101.776 E.01132
G1 X126.882 Y101.997 E.00932
G1 X126.996 Y102.545 E.02127
G1 X127.04 Y102.998 E.0173
G1 X127.05 Y106.002 E.11417
G1 X127.04 Y107.003 E.03805
G1 X126.989 Y107.526 E.01997
M73 P2 R10
G1 X126.861 Y108.094 E.02213
G1 X126.776 Y108.224 E.0059
;WIDTH:0.498271
G1 X126.639 Y108.268 E.00545
;WIDTH:0.499998
G1 X123.518 Y108.271 E.11862
G1 X123.224 Y108.224 E.01132
G1 X123.139 Y108.094 E.0059
;WIDTH:0.499999
G1 X123.015 Y107.554 E.02106
G1 X122.961 Y107.024 E.02025
G1 X122.95 Y103.998 E.11501
G1 X122.96 Y102.997 E.03805
G1 X123.011 Y102.474 E.01997
G1 X123.139 Y101.906 E.02213
G1 X123.224 Y101.776 E.0059
;WIDTH:0.498271
G1 X123.304 Y101.75 E.00318
M204 P1000
;WIPE_START
G1 F9600
G1 X123.361 Y101.732 E-.01242
G1 X126.482 Y101.729 E-.64858
G1 X126.776 Y101.776 E-.06187
G1 X126.882 Y101.997 E-.05094
G1 X126.996 Y102.545 E-.11632
G1 X127.04 Y102.998 E-.09458
G1 X127.04 Y103.072 E-.01529
;WIPE_END
G1 Z.35 F720
G1 X132.05 Y108.551 F12000
G1 Z.2 F720
G1 E1 F1500
M204 P600
;WIDTH:0.499999
G1 F1200
G1 X128.432 Y108.558 E.13751
G1 X127.862 Y108.569 E.02167
G1 X126.49 Y108.729 E.0525
G1 X123.518 Y108.729 E.11295
G1 X123.019 Y108.69 E.01902
G1 X122.521 Y108.6 E.01923
G1 X122.001 Y108.559 E.01982
G1 X117.95 Y108.551 E.15396
G1 X117.95 Y101.449 E.26992
G1 X121.568 Y101.442 E.13751
G1 X122.138 Y101.431 E.02167
G1 X123.51 Y101.271 E.0525
G1 X126.482 Y101.271 E.11295
G1 X126.981 Y101.31 E.01902
G1 X127.479 Y101.4 E.01923
G1 X127.999 Y101.441 E.01982
G1 X132.05 Y101.449 E.15396
G1 X132.05 Y103.948 E.09498
G1 X132.05 Y108.491 E.17266
M204 P1000
;WIPE_START
G1 F9600
G1 X132.05 Y108.551 E-.01247
G1 X128.432 Y108.558 E-.75187
G1 X127.862 Y108.569 E-.11848
G1 X127.302 Y108.634 E-.11718
;WIPE_END
G1 Z.35 F720
G1 X130.459 Y102.109 F12000
G1 Z.2 F720
G1 E1 F1500
M204 P600
;TYPE:Solid infill
;WIDTH:0.501222
G1 F1200
G1 X131.182 Y102.832 E.03896
G1 X131.182 Y103.48 E.02469
G1 X130.015 Y102.314 E.06287
G1 X129.366 Y102.312 E.02473
G1 X131.182 Y104.128 E.09787
G1 X131.182 Y104.776 E.02469
G1 X128.716 Y102.311 E.13287
G1 X128.067 Y102.31 E.02473
G1 X131.182 Y105.424 E.16785
G1 X131.182 Y106.072 E.02469
G1 X127.89 Y102.781 E.17739
G1 X127.909 Y102.987 E.00788
G1 X127.91 Y103.449 E.01761
G1 X131.182 Y106.721 E.17634
G1 X131.182 Y107.369 E.02469
G1 X127.912 Y104.1 E.1762
G1 X127.914 Y104.75 E.02477
G1 X130.849 Y107.685 E.15818
G1 X130.202 Y107.686 E.02466
G1 X127.917 Y105.4 E.12317
G1 X127.918 Y106.049 E.02473
G1 X129.556 Y107.687 E.08828
G1 X128.909 Y107.689 E.02466
G1 X127.91 Y106.689 E.05387
G1 X127.904 Y107.102 E.01574
G1 X127.883 Y107.311 E.008
G1 X128.467 Y107.895 E.03147
M204 P1000
;WIPE_START
G1 F9600
G1 X127.883 Y107.311 E-.17163
G1 X127.904 Y107.102 E-.04365
G1 X127.91 Y106.689 E-.08584
G1 X128.909 Y107.689 E-.29374
G1 X129.556 Y107.687 E-.13446
G1 X128.635 Y106.766 E-.27068
;WIPE_END
G1 Z.35 F720
M73 P3 R10
G1 X121.534 Y102.105 F12000
G1 Z.2 F720
G1 E1 F1500
M204 P600
;WIDTH:0.501279
G1 F1200
G1 X122.121 Y102.692 E.03164
G1 X122.091 Y102.98 E.01104
G1 X122.088 Y103.308 E.0125
G1 X121.092 Y102.311 E.05371
G1 X120.445 Y102.313 E.02466
G1 X122.082 Y103.95 E.08823
G1 X122.083 Y104.599 E.02474
G1 X119.798 Y102.314 E.12316
G1 X119.151 Y102.315 E.02466
G1 X122.086 Y105.25 E.1582
G1 X122.088 Y105.9 E.02477
G1 X118.818 Y102.631 E.17622
G1 X118.818 Y103.279 E.0247
G1 X122.09 Y106.55 E.17633
G1 X122.091 Y107.013 E.01765
G1 X122.11 Y107.219 E.00788
G1 X118.818 Y103.927 E.17744
G1 X118.818 Y104.575 E.0247
G1 X121.933 Y107.69 E.1679
G1 X121.284 Y107.689 E.02474
G1 X118.818 Y105.224 E.13289
G1 X118.818 Y105.872 E.0247
G1 X120.634 Y107.688 E.09788
G1 X119.985 Y107.686 E.02474
G1 X118.818 Y106.52 E.06287
G1 X118.818 Y107.168 E.0247
G1 X119.541 Y107.891 E.03897
M204 P1000
; stop printing object spacer-fix.STL id:0 copy 0
;LAYER_CHANGE
;Z:0.4
;HEIGHT:0.2
;BEFORE_LAYER_CHANGE
G92 E0.0
;0.4


;WIPE_START
G1 F9600
G1 X118.818 Y107.168 E-.21248
G1 X118.818 Y106.52 E-.13466
G1 X119.985 Y107.686 E-.34282
G1 X120.634 Y107.688 E-.13487
G1 X120.038 Y107.092 E-.17517
;WIPE_END
G1 Z.4 F720
;AFTER_LAYER_CHANGE
;0.4
M104 S240 ; set temperature
M140 S90 ; set bed temperature
; printing object spacer-fix.STL id:0 copy 0
G1 Z.55
G1 X131.868 Y108.368 F12000
G1 Z.4 F720
G1 E1 F1500
M204 P900
;TYPE:Perimeter
;WIDTH:0.449999
G1 X126.941 Y108.368 E.16677
G1 X127.232 Y108.021 E.01533
G1 X127.232 Y101.979 E.20451
G1 X126.886 Y101.632 E.01659
G1 X131.868 Y101.632 E.16863
G1 X131.868 Y103.95 E.07846
G1 X131.868 Y108.308 E.14751
M204 P1000
;WIPE_START
G1 F9600
G1 X131.868 Y108.368 E-.01247
G1 X127.116 Y108.368 E-.98753
;WIPE_END
G1 Z.55 F720
G1 X123 Y101.702 F12000
G1 Z.4 F720
G1 E1 F1500
M204 P900
G1 X122.768 Y101.979 E.01223
G1 X122.768 Y108.021 E.20451
G1 X123.114 Y108.368 E.01659
G1 X118.132 Y108.368 E.16863
G1 X118.132 Y101.632 E.22801
G1 X123.059 Y101.632 E.16677
G1 X123.039 Y101.656 E.00106
M204 P1000
G1 X123.337 Y101.741 F12000
M204 P700
;TYPE:External perimeter
;WIDTH:0.525086
G1 F1500
G1 X123.379 Y101.739 E.00169
;WIDTH:0.52146
G1 X126.621 Y101.739 E.129
G1 X126.723 Y101.859 E.00627
;WIDTH:0.48573
G1 X126.825 Y101.979 E.0058
;WIDTH:0.449999
G1 X126.825 Y102.653 E.02281
G1 X126.825 Y107.347 E.15889
G1 X126.825 Y108.021 E.02281
;WIDTH:0.487543
G1 X126.744 Y108.14 E.00532
;WIDTH:0.525086
G1 X126.663 Y108.259 E.00577
G1 X126.621 Y108.261 E.00169
;WIDTH:0.52146
G1 X123.379 Y108.261 E.129
G1 X123.277 Y108.141 E.00627
M73 P4 R10
;WIDTH:0.48573
G1 X123.175 Y108.021 E.0058
;WIDTH:0.449999
G1 X123.175 Y107.347 E.02281
G1 X123.175 Y102.653 E.15889
G1 X123.175 Y101.979 E.02281
;WIDTH:0.487543
G1 X123.256 Y101.86 E.00532
;WIDTH:0.525086
G1 X123.303 Y101.791 E.00335
M204 P1000
;WIPE_START
G1 F9600
G1 X123.337 Y101.741 E-.01257
G1 X123.379 Y101.739 E-.00874
;WIPE_END
G1 E-.97869 F2100
G1 Z.55 F720
G1 X132.275 Y108.775 F12000
G1 Z.4 F720
G1 E1 F1500
M204 P700
;WIDTH:0.449999
G1 X127.579 Y108.775 E.15895
;WIDTH:0.48573
G1 X127.1 Y108.757 E.01765
;WIDTH:0.52146
G1 X126.621 Y108.739 E.01907
G1 X123.379 Y108.739 E.129
G1 X122.9 Y108.757 E.01907
;WIDTH:0.48573
G1 X122.421 Y108.775 E.01765
;WIDTH:0.449999
G1 X117.725 Y108.775 E.15895
G1 X117.725 Y101.225 E.25556
G1 X122.421 Y101.225 E.15895
M73 P4 R9
;WIDTH:0.48573
G1 X122.9 Y101.243 E.01765
;WIDTH:0.52146
G1 X123.379 Y101.261 E.01907
G1 X126.621 Y101.261 E.129
G1 X127.1 Y101.243 E.01907
;WIDTH:0.48573
G1 X127.579 Y101.225 E.01765
;WIDTH:0.449999
G1 X132.275 Y101.225 E.15895
G1 X132.275 Y103.95 E.09224
G1 X132.275 Y108.715 E.16129
M204 P1000
;WIPE_START
G1 F9600
G1 X132.275 Y108.775 E-.01247
G1 X127.579 Y108.775 E-.97589
;WIPE_END
G1 E-.01164 F2100
G1 Z.55 F720
G1 X127.709 Y102.031 F12000
G1 Z.4 F720
G1 E1 F1500
M204 P1500
;TYPE:Solid infill
;WIDTH:0.548766
G1 F2343
G1 X127.664 Y101.987 E.00265
G1 X127.603 Y102.003 E.00265
G1 X127.587 Y102.064 E.00265
G1 X127.631 Y102.109 E.00265
G1 X127.693 Y102.093 E.00269
M204 P1000
G1 X127.466 Y102.888 F12000
M204 P1500
;WIDTH:0.38292
G1 F2343
G1 X127.395 Y102.869 E.00208
G1 X127.414 Y102.94 E.00208
G1 X127.455 Y102.929 E.0012
;WIDTH:0.41646
G1 X127.527 Y102.836 E.00365
;WIDTH:0.449999
G1 X127.598 Y102.743 E.00396
G1 X128.343 Y101.998 E.03566
G1 X128.436 Y101.927 E.00396
;WIDTH:0.41646
G1 X128.529 Y101.855 E.00365
;WIDTH:0.38292
G1 X128.488 Y101.866 E.0012
G1 X128.469 Y101.795 E.00208
G1 X128.54 Y101.814 E.00208
;WIDTH:0.449999
G1 X128.918 Y101.998 E.01423
G1 X127.598 Y103.318 E.06319
G1 X127.598 Y103.894 E.0195
G1 X129.494 Y101.998 E.09076
G1 X130.07 Y101.998 E.0195
G1 X127.598 Y104.47 E.11833
G1 X127.598 Y105.046 E.0195
G1 X130.646 Y101.998 E.14591
M204 P1000
G1 X131.627 Y101.903 F12000
M204 P1500
;WIDTH:0.38292
G1 F2343
G1 X131.556 Y101.884 E.00208
G1 X131.575 Y101.955 E.00208
G1 X131.616 Y101.944 E.0012
;WIDTH:0.41646
G1 X131.419 Y101.971 E.00618
;WIDTH:0.449999
G1 X131.221 Y101.998 E.00676
G1 X127.598 Y105.621 E.17343
G1 X127.598 Y106.197 E.0195
G1 X131.502 Y102.294 E.18686
G1 X131.502 Y102.87 E.0195
G1 X127.598 Y106.773 E.18686
G1 X127.598 Y107.348 E.01946
G1 X131.502 Y103.445 E.18686
G1 X131.502 Y104.021 E.0195
G1 X127.598 Y107.924 E.18686
G1 X127.53 Y108.031 E.00429
;WIDTH:0.41646
G1 X127.462 Y108.138 E.00394
;WIDTH:0.38292
G1 X127.682 Y108.155 E.00624
;WIDTH:0.449999
G1 X128.097 Y108.002 E.01497
G1 X131.502 Y104.597 E.163
G1 X131.502 Y105.172 E.01946
G1 X128.672 Y108.002 E.13547
G1 X129.248 Y108.002 E.0195
G1 X131.502 Y105.748 E.1079
G1 X131.502 Y106.324 E.0195
G1 X129.824 Y108.002 E.08032
G1 X130.399 Y108.002 E.01946
G1 X131.502 Y106.899 E.0528
G1 X131.716 Y107.308 E.01562
;WIDTH:0.38292
G1 X131.645 Y107.289 E.00208
G1 X131.664 Y107.36 E.00208
G1 X131.705 Y107.349 E.0012
;WIDTH:0.41646
G1 X131.603 Y107.412 E.00372
;WIDTH:0.449999
G1 X131.502 Y107.475 E.00403
G1 X130.975 Y108.002 E.02523
M204 P1000
;WIPE_START
G1 F9600
G1 X131.502 Y107.475 E-.15488
G1 X131.603 Y107.412 E-.02474
;WIPE_END
G1 E-.82038 F2100
G1 Z.55 F720
G1 X118.609 Y102.031 F12000
G1 Z.4 F720
G1 E1 F1500
M204 P1500
;WIDTH:0.548766
G1 F2343
G1 X118.564 Y101.987 E.00265
G1 X118.503 Y102.003 E.00265
G1 X118.487 Y102.064 E.00265
G1 X118.531 Y102.109 E.00265
G1 X118.593 Y102.093 E.00269
;WIDTH:0.449999
G1 X119.243 Y101.998 E.02224
G1 X118.432 Y102.815 E.03897
;WIDTH:0.41646
G1 X118.366 Y102.888 E.00306
;WIDTH:0.38292
G1 X118.295 Y102.869 E.00208
G1 X118.314 Y102.94 E.00208
G1 X118.355 Y102.929 E.0012
;WIDTH:0.449999
G1 X118.498 Y103.318 E.01403
G1 X119.818 Y101.998 E.06319
G1 X120.394 Y101.998 E.0195
G1 X118.498 Y103.894 E.09076
G1 X118.498 Y104.47 E.0195
G1 X120.97 Y101.998 E.11833
G1 X121.546 Y101.998 E.0195
G1 X118.498 Y105.046 E.14591
G1 X118.498 Y105.621 E.01946
G1 X122.121 Y101.998 E.17343
G1 X122.319 Y101.971 E.00676
;WIDTH:0.41646
G1 X122.516 Y101.944 E.00618
M73 P5 R9
;WIDTH:0.38292
G1 X122.475 Y101.955 E.0012
G1 X122.456 Y101.884 E.00208
G1 X122.527 Y101.903 E.00208
;WIDTH:0.449999
G1 X122.402 Y102.294 E.01389
G1 X118.498 Y106.197 E.18686
G1 X118.498 Y106.773 E.0195
G1 X122.402 Y102.87 E.18686
G1 X122.402 Y103.445 E.01946
G1 X118.498 Y107.348 E.18686
G1 X118.582 Y108.155 E.02746
;WIDTH:0.38292
G1 X118.362 Y108.138 E.00624
;WIDTH:0.41646
G1 X118.43 Y108.031 E.00394
;WIDTH:0.449999
G1 X118.498 Y107.924 E.00429
G1 X122.402 Y104.021 E.18686
G1 X122.402 Y104.597 E.0195
G1 X118.997 Y108.002 E.163
G1 X119.572 Y108.002 E.01946
G1 X122.402 Y105.172 E.13547
G1 X122.402 Y105.748 E.0195
G1 X120.148 Y108.002 E.1079
G1 X120.724 Y108.002 E.0195
G1 X122.402 Y106.324 E.08032
G1 X122.402 Y106.899 E.01946
G1 X121.299 Y108.002 E.0528
G1 X121.875 Y108.002 E.0195
G1 X122.402 Y107.475 E.02523
G1 X122.503 Y107.412 E.00403
;WIDTH:0.41646
G1 X122.605 Y107.349 E.00372
;WIDTH:0.38292
G1 X122.564 Y107.36 E.0012
G1 X122.545 Y107.289 E.00208
G1 X122.616 Y107.308 E.00208
M204 P1000
; stop printing object spacer-fix.STL id:0 copy 0
;LAYER_CHANGE
;Z:0.6
;HEIGHT:0.2
;BEFORE_LAYER_CHANGE
G92 E0.0
;0.6


;WIPE_START
G1 F9600
G1 X122.545 Y107.289 E-.01527
G1 X122.564 Y107.36 E-.01527
G1 X122.605 Y107.349 E-.00882
;WIPE_END
G1 E-.96064 F2100
G1 Z.6 F720
;AFTER_LAYER_CHANGE
;0.6
; printing object spacer-fix.STL id:0 copy 0
G1 Z.75
G1 X131.868 Y108.368 F12000
G1 Z.6 F720
G1 E1 F1500
M204 P900
;TYPE:Perimeter
;WIDTH:0.449999
G1 X126.941 Y108.368 E.16677
G1 X127.232 Y108.021 E.01533
G1 X127.232 Y101.979 E.20451
G1 X126.886 Y101.632 E.01659
G1 X131.868 Y101.632 E.16863
G1 X131.868 Y103.95 E.07846
G1 X131.868 Y108.308 E.14751
M204 P1000
;WIPE_START
G1 F9600
G1 X131.868 Y108.368 E-.01247
G1 X127.116 Y108.368 E-.98753
;WIPE_END
G1 Z.75 F720
G1 X123.059 Y101.632 F12000
G1 Z.6 F720
G1 E1 F1500
M204 P900
G1 X122.768 Y101.979 E.01533
G1 X122.768 Y108.021 E.20451
G1 X123.114 Y108.368 E.01659
G1 X118.132 Y108.368 E.16863
G1 X118.132 Y101.632 E.22801
G1 X122.999 Y101.632 E.16474
M204 P1000
G1 X123.337 Y101.741 F12000
M204 P700
;TYPE:External perimeter
;WIDTH:0.525086
G1 F1500
G1 X123.379 Y101.739 E.00169
;WIDTH:0.52146
G1 X126.621 Y101.739 E.129
G1 X126.723 Y101.859 E.00627
;WIDTH:0.48573
G1 X126.825 Y101.979 E.0058
;WIDTH:0.449999
G1 X126.825 Y108.021 E.20451
;WIDTH:0.487543
G1 X126.744 Y108.14 E.00532
;WIDTH:0.525086
G1 X126.663 Y108.259 E.00577
G1 X126.621 Y108.261 E.00169
;WIDTH:0.52146
G1 X123.379 Y108.261 E.129
G1 X123.277 Y108.141 E.00627
;WIDTH:0.48573
G1 X123.175 Y108.021 E.0058
;WIDTH:0.449999
G1 X123.175 Y101.979 E.20451
;WIDTH:0.487543
G1 X123.256 Y101.86 E.00532
;WIDTH:0.525086
